;FLAVOR:Marlin
;TIME:5186
;Filament used: 3.57307m
;Layer height: 0.2
;MINX:84.4
;MINY:94.4
;MINZ:0.2
;MAXX:135.6
;MAXY:145.6
;MAXZ:40.35
;Generated with Cura_SteamEngine 4.4.1
M140 S60
M105
M190 S60
M104 S205
M105
M109 S205
M82 ;absolute extrusion mode
M82 ;absolute extrusion mode
M201 X500.00 Y500.00 Z100.00 E5000.00 ;Setup machine max acceleration
M203 X500.00 Y500.00 Z10.00 E75.00 ;Setup machine max feedrate
M204 P500.00 R1000.00 T500.00 ;Setup Print/Retract/Travel acceleration
M205 X8.00 Y8.00 Z0.40 E5.00 ;Setup Jerk
M220 S100 ;Reset Feedrate
M221 S100 ;Reset Flowrate

G21 ; (metric values)
G90 ; (absolute positioning)
M82 ; (set extruder to absolute mode)
G28 ; (home all axis)
G29 ; (Auto Level)

G92 E0 ;Reset Extruder
G1 Z2.0 F3000 ;Move Z Axis up
G1 X1.1 Y50 Z0.28 F5000.0 ;Move to start position
G1 X1.1 Y200.0 Z0.28 F1500.0 E15 ;Draw the first line
G1 X1.4 Y200.0 Z0.28 F5000.0 ;Move to side a little
G1 X1.4 Y100 Z0.28 F1500.0 E30 ;Draw the second line
G92 E0 ;Reset Extruder
G1 Z2.0 F3000 ;Move Z Axis up
G92 E0
G92 E0
G1 F3000 E-6
;LAYER_COUNT:200
;LAYER:0
M107
G1 F300 Z0.55
G0 F6000 X86.322 Y95.795 Z0.55
;TYPE:SKIRT
G1 F300 Z0.2
G1 F3000 E0
G1 F1200 X86.851 Y95.385 E0.02226
G1 X87.425 Y95.042 E0.0445
G1 X88.035 Y94.769 E0.06673
G1 X88.674 Y94.571 E0.08898
G1 X89.333 Y94.45 E0.11126
G1 X89.853 Y94.411 E0.12861
G1 X90.173 Y94.402 E0.13925
G1 X90.33 Y94.4 E0.14448
G1 X129.293 Y94.4 E1.44039
G1 X129.373 Y94.401 E1.44305
G1 X130.071 Y94.411 E1.46627
G1 X130.738 Y94.46 E1.48851
G1 X131.395 Y94.589 E1.51078
G1 X132.031 Y94.795 E1.53302
G1 X132.639 Y95.076 E1.5553
G1 X133.208 Y95.426 E1.57752
G1 X133.732 Y95.843 E1.59979
G1 X134.202 Y96.319 E1.62204
G1 X134.612 Y96.847 E1.64427
G1 X134.957 Y97.421 E1.66655
G1 X135.23 Y98.032 E1.6888
G1 X135.428 Y98.671 E1.71105
G1 X135.549 Y99.329 E1.73331
G1 X135.589 Y99.853 E1.75079
G1 X135.598 Y100.173 E1.76143
G1 X135.6 Y100.33 E1.76666
G1 X135.6 Y139.247 E3.06104
G1 X135.599 Y139.324 E3.0636
G1 X135.589 Y140.047 E3.08765
G1 X135.54 Y140.715 E3.10993
G1 X135.412 Y141.371 E3.13216
G1 X135.206 Y142.008 E3.15443
G1 X134.926 Y142.615 E3.17666
G1 X134.575 Y143.185 E3.19892
G1 X134.159 Y143.709 E3.22118
G1 X133.683 Y144.179 E3.24343
G1 X133.155 Y144.59 E3.26568
G1 X132.581 Y144.934 E3.28794
G1 X131.971 Y145.208 E3.31018
G1 X131.332 Y145.407 E3.33244
G1 X130.529 Y145.544 E3.35953
G1 X130.26 Y145.57 E3.36852
G1 X129.784 Y145.596 E3.38438
G1 X129.43 Y145.6 E3.39615
G1 X90.706 Y145.6 E4.68412
G1 X90.626 Y145.599 E4.68678
G1 X89.929 Y145.589 E4.70996
G1 X89.261 Y145.54 E4.73224
G1 X88.605 Y145.411 E4.75448
G1 X87.968 Y145.205 E4.77674
G1 X87.361 Y144.924 E4.79899
G1 X86.792 Y144.573 E4.82123
G1 X86.268 Y144.157 E4.84348
G1 X85.798 Y143.681 E4.86573
G1 X85.388 Y143.153 E4.88796
G1 X85.043 Y142.579 E4.91024
G1 X84.77 Y141.968 E4.9325
G1 X84.572 Y141.329 E4.95475
G1 X84.451 Y140.671 E4.977
G1 X84.411 Y140.142 E4.99464
G1 X84.402 Y139.81 E5.00569
G1 X84.4 Y139.658 E5.01074
G1 X84.4 Y100.674 E6.30736
G1 X84.401 Y100.59 E6.31015
G1 X84.411 Y99.925 E6.33227
G1 X84.461 Y99.258 E6.35452
G1 X84.59 Y98.601 E6.37679
G1 X84.796 Y97.965 E6.39902
G1 X85.077 Y97.358 E6.42127
G1 X85.429 Y96.788 E6.44355
G1 X85.764 Y96.368 E6.46142
G0 F1080 X85.846 Y96.265
G0 X86.322 Y95.795
G0 F6000 X86.711 Y95.99
G1 F1200 X87.233 Y95.612 E6.48286
G1 X87.799 Y95.303 E6.50431
G1 X88.398 Y95.065 E6.52574
G1 X89.022 Y94.904 E6.54718
G1 X89.864 Y94.811 E6.57535
G1 X90.184 Y94.802 E6.586
G1 X90.33 Y94.8 E6.59086
G1 X129.293 Y94.8 E7.88677
G1 X129.367 Y94.801 E7.88923
G1 X130.065 Y94.811 E7.91245
G1 X130.708 Y94.86 E7.9339
G1 X131.34 Y94.988 E7.95535
G1 X131.951 Y95.194 E7.97679
G1 X132.532 Y95.473 E7.99823
G1 X133.074 Y95.822 E8.01967
G1 X133.568 Y96.236 E8.04111
G1 X134.008 Y96.708 E8.06257
G1 X134.386 Y97.23 E8.084
G1 X134.696 Y97.795 E8.10544
G1 X134.934 Y98.394 E8.12688
G1 X135.096 Y99.018 E8.14832
G1 X135.189 Y99.864 E8.17663
G1 X135.198 Y100.184 E8.18727
G1 X135.2 Y100.33 E8.19213
G1 X135.2 Y139.319 E9.48891
G1 X135.19 Y140.042 E9.51296
G1 X135.141 Y140.685 E9.53441
G1 X135.013 Y141.317 E9.55586
G1 X134.807 Y141.928 E9.5773
G1 X134.528 Y142.509 E9.59874
G1 X134.179 Y143.051 E9.62018
G1 X133.766 Y143.545 E9.6416
G1 X133.294 Y143.985 E9.66306
G1 X132.772 Y144.363 E9.68449
G1 X132.207 Y144.674 E9.70594
G1 X131.608 Y144.912 E9.72738
G1 X130.984 Y145.074 E9.74882
G1 X130.49 Y145.146 E9.76543
G1 X130.221 Y145.172 E9.77442
G1 X129.78 Y145.196 E9.78911
G1 X129.426 Y145.2 E9.80088
G1 X90.706 Y145.2 E11.08871
G1 X90.631 Y145.199 E11.09121
G1 X89.934 Y145.189 E11.11439
G1 X89.292 Y145.14 E11.13581
G1 X88.66 Y145.012 E11.15726
G1 X88.049 Y144.806 E11.1787
G1 X87.468 Y144.527 E11.20014
G1 X86.926 Y144.178 E11.22158
G1 X86.432 Y143.764 E11.24302
G1 X85.992 Y143.292 E11.26448
G1 X85.614 Y142.77 E11.28591
G1 X85.304 Y142.205 E11.30735
G1 X85.066 Y141.606 E11.32879
G1 X84.904 Y140.982 E11.35023
G1 X84.811 Y140.131 E11.3787
G1 X84.802 Y139.799 E11.38975
G1 X84.8 Y139.658 E11.39444
G1 X84.8 Y100.674 E12.69105
G1 X84.801 Y100.596 E12.69365
G1 X84.811 Y99.931 E12.71577
G1 X84.86 Y99.288 E12.73721
G1 X84.989 Y98.656 E12.75867
G1 X85.195 Y98.045 E12.78011
G1 X85.475 Y97.465 E12.80154
G1 X85.825 Y96.923 E12.82299
G1 X86.139 Y96.548 E12.83926
G0 F1080 X86.239 Y96.429
G0 X86.711 Y95.99
G1 F3000 E6.83926
G1 F300 Z0.55
;MESH:System20_Bracket_40-40mm_Single_Sided_Square.stl
G0 F6000 X99.644 Y106.769 Z0.55
;TYPE:WALL-INNER
G1 F300 Z0.2
G1 F3000 E12.83926
G1 F1200 X99.289 Y106.826 E12.85122
G1 X98.942 Y106.925 E12.86322
G1 X98.614 Y107.059 E12.87501
G1 X98.298 Y107.229 E12.88694
G1 X98.003 Y107.434 E12.89889
G1 X97.732 Y107.67 E12.91084
G1 X97.49 Y107.933 E12.92273
G1 X97.278 Y108.221 E12.93462
G1 X97.097 Y108.534 E12.94665
G1 X96.954 Y108.861 E12.95852
G1 X96.849 Y109.203 E12.97042
G1 X96.779 Y109.553 E12.98229
G1 X96.751 Y109.911 E12.99423
G1 X96.76 Y110.269 E13.00614
G1 X96.809 Y110.623 E13.01803
G1 X96.898 Y110.972 E13.03001
G1 X97.022 Y111.304 E13.0418
G1 X97.183 Y111.625 E13.05374
G1 X97.382 Y111.928 E13.0658
G1 X97.608 Y112.202 E13.07761
G1 X97.864 Y112.452 E13.08951
G1 X98.148 Y112.672 E13.10146
G1 X98.451 Y112.859 E13.1133
G1 X98.777 Y113.013 E13.1253
G1 X99.117 Y113.13 E13.13726
G1 X99.465 Y113.207 E13.14911
G1 X99.821 Y113.247 E13.16103
G1 X100.179 Y113.247 E13.17293
G1 X100.535 Y113.207 E13.18485
G1 X100.883 Y113.13 E13.1967
G1 X101.223 Y113.013 E13.20866
G1 X101.549 Y112.859 E13.22065
G1 X101.852 Y112.672 E13.2325
G1 X102.136 Y112.452 E13.24444
G1 X102.392 Y112.202 E13.25635
G1 X102.618 Y111.928 E13.26816
G1 X102.817 Y111.625 E13.28022
G1 X102.978 Y111.304 E13.29216
G1 X103.102 Y110.972 E13.30395
G1 X103.191 Y110.623 E13.31593
G1 X103.24 Y110.269 E13.32781
G1 X103.249 Y109.911 E13.33972
G1 X103.221 Y109.553 E13.35167
G1 X103.151 Y109.203 E13.36354
G1 X103.046 Y108.861 E13.37544
G1 X102.903 Y108.534 E13.38731
G1 X102.722 Y108.221 E13.39933
G1 X102.51 Y107.933 E13.41123
G1 X102.268 Y107.67 E13.42312
G1 X101.997 Y107.434 E13.43507
G1 X101.702 Y107.229 E13.44702
G1 X101.386 Y107.059 E13.45895
G1 X101.058 Y106.925 E13.47074
G1 X100.711 Y106.826 E13.48274
G1 X100.443 Y106.782 E13.49177
G0 F1080 X100.356 Y106.769
G0 X100 Y106.748
G0 X99.644 Y106.769
G0 F6000 X99.687 Y107.167
G1 F1200 X99.376 Y107.217 E13.50225
G1 X99.073 Y107.304 E13.51273
G1 X98.785 Y107.421 E13.52307
G1 X98.508 Y107.57 E13.53353
G1 X98.249 Y107.75 E13.54402
G1 X98.011 Y107.957 E13.55451
G1 X97.799 Y108.188 E13.56494
G1 X97.613 Y108.44 E13.57536
G1 X97.455 Y108.714 E13.58588
G1 X97.33 Y109.001 E13.59629
G1 X97.237 Y109.301 E13.60674
G1 X97.176 Y109.608 E13.61715
G1 X97.151 Y109.922 E13.62762
G1 X97.159 Y110.236 E13.63807
G1 X97.202 Y110.546 E13.64848
G1 X97.28 Y110.852 E13.65898
G1 X97.389 Y111.144 E13.66935
G1 X97.53 Y111.425 E13.67981
G1 X97.704 Y111.69 E13.69035
G1 X97.903 Y111.931 E13.70075
G1 X98.127 Y112.15 E13.71117
G1 X98.376 Y112.343 E13.72164
G1 X98.642 Y112.507 E13.73204
G1 X98.928 Y112.642 E13.74256
G1 X99.226 Y112.744 E13.75303
G1 X99.531 Y112.812 E13.76343
G1 X99.843 Y112.847 E13.77387
G1 X100.157 Y112.847 E13.78431
G1 X100.469 Y112.812 E13.79475
G1 X100.774 Y112.744 E13.80515
G1 X101.072 Y112.642 E13.81562
G1 X101.358 Y112.507 E13.82614
G1 X101.624 Y112.343 E13.83654
G1 X101.873 Y112.15 E13.84701
G1 X102.097 Y111.931 E13.85743
G1 X102.296 Y111.69 E13.86783
G1 X102.47 Y111.425 E13.87837
G1 X102.611 Y111.144 E13.88883
G1 X102.72 Y110.852 E13.8992
G1 X102.798 Y110.546 E13.9097
G1 X102.841 Y110.236 E13.92011
G1 X102.849 Y109.922 E13.93056
G1 X102.824 Y109.608 E13.94103
G1 X102.763 Y109.301 E13.95144
G1 X102.67 Y109.001 E13.96189
G1 X102.545 Y108.714 E13.9723
G1 X102.387 Y108.44 E13.98282
G1 X102.201 Y108.188 E13.99324
G1 X101.989 Y107.957 E14.00367
G1 X101.751 Y107.75 E14.01416
G1 X101.492 Y107.57 E14.02465
G1 X101.215 Y107.421 E14.03511
G1 X100.927 Y107.304 E14.04545
G1 X100.624 Y107.217 E14.05593
G1 X100.485 Y107.194 E14.06062
G0 F1080 X100.313 Y107.167
G0 X100 Y107.149
G0 X99.687 Y107.167
G0 F6000 X99.73 Y107.565
;TYPE:WALL-OUTER
G1 F1200 X99.464 Y107.608 E14.06958
G1 X99.204 Y107.683 E14.07858
G1 X98.955 Y107.784 E14.08752
G1 X98.717 Y107.912 E14.09651
G1 X98.495 Y108.066 E14.10549
G1 X98.291 Y108.244 E14.1145
G1 X98.108 Y108.443 E14.12349
G1 X97.948 Y108.659 E14.13243
G1 X97.813 Y108.894 E14.14145
G1 X97.705 Y109.141 E14.15041
G1 X97.625 Y109.399 E14.1594
G1 X97.573 Y109.663 E14.16834
G1 X97.551 Y109.933 E14.17735
G1 X97.558 Y110.203 E14.18634
G1 X97.595 Y110.469 E14.19527
G1 X97.662 Y110.732 E14.2043
G1 X97.756 Y110.984 E14.21324
G1 X97.877 Y111.225 E14.22221
G1 X98.026 Y111.452 E14.23124
G1 X98.198 Y111.66 E14.24022
G1 X98.39 Y111.848 E14.24916
G1 X98.604 Y112.014 E14.25817
G1 X98.833 Y112.155 E14.26711
G1 X99.078 Y112.271 E14.27613
G1 X99.334 Y112.358 E14.28512
G1 X99.597 Y112.417 E14.29408
G1 X99.865 Y112.447 E14.30305
G1 X100.135 Y112.447 E14.31203
G1 X100.403 Y112.417 E14.321
G1 X100.666 Y112.358 E14.32997
G1 X100.922 Y112.271 E14.33896
G1 X101.167 Y112.155 E14.34798
G1 X101.396 Y112.014 E14.35692
G1 X101.61 Y111.848 E14.36593
G1 X101.802 Y111.66 E14.37487
G1 X101.974 Y111.452 E14.38384
G1 X102.123 Y111.225 E14.39288
G1 X102.244 Y110.984 E14.40184
G1 X102.338 Y110.732 E14.41079
G1 X102.405 Y110.469 E14.41982
G1 X102.442 Y110.203 E14.42875
G1 X102.449 Y109.933 E14.43773
G1 X102.427 Y109.663 E14.44674
G1 X102.375 Y109.399 E14.45569
G1 X102.295 Y109.141 E14.46468
G1 X102.187 Y108.894 E14.47364
G1 X102.052 Y108.659 E14.48266
G1 X101.892 Y108.443 E14.4916
G1 X101.709 Y108.244 E14.50059
G1 X101.505 Y108.066 E14.50959
G1 X101.283 Y107.912 E14.51858
G1 X101.045 Y107.784 E14.52757
G1 X100.796 Y107.683 E14.53651
G1 X100.536 Y107.608 E14.54551
G1 X100.527 Y107.606 E14.54581
G0 F1080 X100.27 Y107.565
G0 X100 Y107.55
G0 X99.73 Y107.565
G0 F6000 X99.464 Y107.608
G0 X99.338 Y107.644
G0 X99.216 Y107.221
G1 F3000 E8.54581
G1 F300 Z0.55
G0 F6000 X117.278 Y108.221 Z0.55
;TYPE:WALL-INNER
G1 F300 Z0.2
G1 F3000 E14.54581
G1 F1200 X117.097 Y108.534 E14.55784
G1 X116.954 Y108.861 E14.56971
G1 X116.849 Y109.203 E14.58161
G1 X116.779 Y109.553 E14.59348
G1 X116.751 Y109.911 E14.60542
G1 X116.76 Y110.269 E14.61733
G1 X116.809 Y110.623 E14.62922
G1 X116.898 Y110.972 E14.6412
G1 X117.022 Y111.304 E14.65299
G1 X117.183 Y111.625 E14.66493
G1 X117.382 Y111.928 E14.67699
G1 X117.608 Y112.202 E14.6888
G1 X117.864 Y112.452 E14.7007
G1 X118.148 Y112.672 E14.71265
G1 X118.451 Y112.859 E14.72449
G1 X118.777 Y113.013 E14.73649
G1 X119.117 Y113.13 E14.74844
G1 X119.465 Y113.207 E14.7603
G1 X119.821 Y113.247 E14.77221
G1 X120.179 Y113.247 E14.78412
G1 X120.535 Y113.207 E14.79604
G1 X120.883 Y113.13 E14.80789
G1 X121.223 Y113.013 E14.81985
G1 X121.549 Y112.859 E14.83184
G1 X121.852 Y112.672 E14.84368
G1 X122.136 Y112.452 E14.85563
G1 X122.392 Y112.202 E14.86753
G1 X122.618 Y111.928 E14.87935
G1 X122.817 Y111.625 E14.8914
G1 X122.978 Y111.304 E14.90335
G1 X123.102 Y110.972 E14.91514
G1 X123.191 Y110.623 E14.92711
G1 X123.24 Y110.269 E14.939
G1 X123.249 Y109.911 E14.95091
G1 X123.221 Y109.553 E14.96286
G1 X123.151 Y109.203 E14.97473
G1 X123.046 Y108.861 E14.98663
G1 X122.903 Y108.534 E14.9985
G1 X122.722 Y108.221 E15.01052
G1 X122.51 Y107.933 E15.02242
G1 X122.268 Y107.67 E15.0343
G1 X121.997 Y107.434 E15.04626
G1 X121.702 Y107.229 E15.0582
G1 X121.386 Y107.059 E15.07014
G1 X121.058 Y106.925 E15.08192
G1 X120.711 Y106.826 E15.09393
G1 X120.356 Y106.769 E15.10588
G1 X120 Y106.748 E15.11775
G1 X119.644 Y106.769 E15.12961
G1 X119.289 Y106.826 E15.14156
G1 X118.942 Y106.925 E15.15357
G1 X118.614 Y107.059 E15.16535
G1 X118.298 Y107.229 E15.17729
G1 X118.003 Y107.434 E15.18923
G1 X117.796 Y107.614 E15.19836
G0 F1080 X117.732 Y107.67
G0 X117.49 Y107.933
G0 X117.278 Y108.221
G0 F6000 X117.613 Y108.44
G1 F1200 X117.455 Y108.714 E15.20888
G1 X117.33 Y109.001 E15.21929
G1 X117.237 Y109.301 E15.22974
G1 X117.176 Y109.608 E15.24015
G1 X117.151 Y109.922 E15.25062
G1 X117.159 Y110.236 E15.26107
G1 X117.202 Y110.546 E15.27148
G1 X117.28 Y110.852 E15.28198
G1 X117.389 Y111.144 E15.29235
G1 X117.53 Y111.425 E15.30281
G1 X117.704 Y111.69 E15.31335
G1 X117.903 Y111.931 E15.32375
G1 X118.127 Y112.15 E15.33416
G1 X118.376 Y112.343 E15.34464
G1 X118.642 Y112.507 E15.35504
G1 X118.928 Y112.642 E15.36556
G1 X119.226 Y112.744 E15.37603
G1 X119.531 Y112.812 E15.38642
G1 X119.843 Y112.847 E15.39687
G1 X120.157 Y112.847 E15.40731
G1 X120.469 Y112.812 E15.41775
G1 X120.774 Y112.744 E15.42815
G1 X121.072 Y112.642 E15.43862
G1 X121.358 Y112.507 E15.44914
G1 X121.624 Y112.343 E15.45953
G1 X121.873 Y112.15 E15.47001
G1 X122.097 Y111.931 E15.48043
G1 X122.296 Y111.69 E15.49083
G1 X122.47 Y111.425 E15.50137
G1 X122.611 Y111.144 E15.51183
G1 X122.72 Y110.852 E15.52219
G1 X122.798 Y110.546 E15.5327
G1 X122.841 Y110.236 E15.54311
G1 X122.849 Y109.922 E15.55355
G1 X122.824 Y109.608 E15.56403
G1 X122.763 Y109.301 E15.57444
G1 X122.67 Y109.001 E15.58489
G1 X122.545 Y108.714 E15.5953
G1 X122.387 Y108.44 E15.60582
G1 X122.201 Y108.188 E15.61624
G1 X121.989 Y107.957 E15.62667
G1 X121.751 Y107.75 E15.63716
G1 X121.492 Y107.57 E15.64765
G1 X121.215 Y107.421 E15.65811
G1 X120.927 Y107.304 E15.66845
G1 X120.624 Y107.217 E15.67893
G1 X120.313 Y107.167 E15.68941
G1 X120 Y107.149 E15.69984
G1 X119.687 Y107.167 E15.71026
G1 X119.376 Y107.217 E15.72074
G1 X119.073 Y107.304 E15.73123
G1 X118.785 Y107.421 E15.74157
G1 X118.508 Y107.57 E15.75203
G1 X118.249 Y107.75 E15.76252
G1 X118.142 Y107.843 E15.76723
G0 F1080 X118.011 Y107.957
G0 X117.799 Y108.188
G0 X117.613 Y108.44
G0 F6000 X117.948 Y108.659
;TYPE:WALL-OUTER
G1 F1200 X117.813 Y108.894 E15.77625
G1 X117.705 Y109.141 E15.78521
G1 X117.625 Y109.399 E15.7942
G1 X117.573 Y109.663 E15.80315
G1 X117.551 Y109.933 E15.81216
G1 X117.558 Y110.203 E15.82114
G1 X117.595 Y110.469 E15.83007
G1 X117.662 Y110.732 E15.8391
G1 X117.756 Y110.984 E15.84804
G1 X117.877 Y111.225 E15.85701
G1 X118.026 Y111.452 E15.86604
G1 X118.198 Y111.66 E15.87502
G1 X118.39 Y111.848 E15.88396
G1 X118.604 Y112.014 E15.89297
G1 X118.833 Y112.155 E15.90191
G1 X119.078 Y112.271 E15.91093
G1 X119.334 Y112.358 E15.91992
G1 X119.597 Y112.417 E15.92889
G1 X119.865 Y112.447 E15.93786
G1 X120.135 Y112.447 E15.94684
G1 X120.403 Y112.417 E15.9558
G1 X120.666 Y112.358 E15.96477
G1 X120.922 Y112.271 E15.97376
G1 X121.167 Y112.155 E15.98278
G1 X121.396 Y112.014 E15.99172
G1 X121.61 Y111.848 E16.00073
G1 X121.802 Y111.66 E16.00967
G1 X121.974 Y111.452 E16.01865
G1 X122.123 Y111.225 E16.02768
G1 X122.244 Y110.984 E16.03665
G1 X122.338 Y110.732 E16.04559
G1 X122.405 Y110.469 E16.05462
