;FLAVOR:Marlin
;TIME:9068
;Filament used: 6.46534m
;Layer height: 0.2
;MINX:12.7
;MINY:12.7
;MINZ:0.2
;MAXX:232.3
;MAXY:232.3
;MAXZ:2.3
;Generated with Cura_SteamEngine 4.4.1
M140 S60
M105
M190 S60
M104 S205
M105
M109 S205
M82 ;absolute extrusion mode
M82 ;absolute extrusion mode
M201 X500.00 Y500.00 Z100.00 E5000.00 ;Setup machine max acceleration
M203 X500.00 Y500.00 Z10.00 E75.00 ;Setup machine max feedrate
M204 P500.00 R1000.00 T500.00 ;Setup Print/Retract/Travel acceleration
M205 X8.00 Y8.00 Z0.40 E5.00 ;Setup Jerk
M220 S100 ;Reset Feedrate
M221 S100 ;Reset Flowrate

G21 ; (metric values)
G90 ; (absolute positioning)
M82 ; (set extruder to absolute mode)
G28 ; (home all axis)
G29 ; (Auto Level)

G92 E0 ;Reset Extruder
G1 Z2.0 F3000 ;Move Z Axis up
G1 X1.1 Y50 Z0.28 F5000.0 ;Move to start position
G1 X1.1 Y200.0 Z0.28 F1500.0 E15 ;Draw the first line
G1 X1.4 Y200.0 Z0.28 F5000.0 ;Move to side a little
G1 X1.4 Y100 Z0.28 F1500.0 E30 ;Draw the second line
G92 E0 ;Reset Extruder
G1 Z2.0 F3000 ;Move Z Axis up
G92 E0
G92 E0
G1 F3000 E-6
;LAYER_COUNT:10
;LAYER:0
M107
G1 F300 Z0.5
;MESH:archimedes-spiral.stl
G0 F6000 X69.006 Y33.236 Z0.5
;TYPE:WALL-INNER
G1 F300 Z0.2
G1 F3000 E0
G1 F1200 X88.164 Y23.879 E0.70914
G1 X91.378 Y22.676 E0.82328
G1 X112.28 Y16.407 E1.54908
G1 X134.258 Y13.502 E2.28643
G1 X156.686 Y14.107 E3.03266
G1 X178.867 Y18.276 E3.78332
G1 X181.683 Y19.331 E3.88333
G1 X182.68 Y21.508 E3.96297
G1 X181.683 Y23.685 E4.04261
G1 X179.048 Y24.671 E4.13619
G1 X178.352 Y24.541 E4.15974
G1 X156.899 Y20.51 E4.88575
G1 X155.876 Y20.481 E4.91979
G1 X134.154 Y19.895 E5.64253
G1 X133.187 Y20.022 E5.67497
G1 X111.862 Y22.843 E6.39042
G1 X92.677 Y28.594 E7.05657
G1 X74.543 Y37.452 E7.72782
G1 X73.738 Y38.031 E7.7608
G1 X57.412 Y49.736 E8.42895
G1 X43.054 Y64.382 E9.11111
G1 X32.047 Y80.616 E9.76346
G1 X25.451 Y95.778 E10.31341
G1 X21.291 Y114.379 E10.94736
G1 X21.266 Y115.283 E10.97744
G1 X20.789 Y133.15 E11.57191
G1 X23.88 Y151.508 E12.19109
G1 X29.682 Y167.004 E12.74144
G1 X38.684 Y181.846 E13.31879
G1 X51.113 Y195.827 E13.94098
G1 X65.873 Y207.494 E14.56674
G1 X82.024 Y216.312 E15.17878
G1 X97.012 Y221.533 E15.70666
G1 X115.591 Y224.812 E16.33415
G1 X134.271 Y225.103 E16.95553
G1 X152.497 Y222.477 E17.56798
G1 X167.457 Y217.793 E18.08938
G1 X182.163 Y210.382 E18.6371
G1 X195.925 Y200.233 E19.20583
G1 X207.433 Y188.165 E19.76046
G1 X215.948 Y175.186 E20.27675
G1 X220.966 Y163.128 E20.71114
G1 X224.066 Y148.093 E21.22173
G1 X224.208 Y133.034 E21.72262
G1 X224.071 Y132.243 E21.74932
G1 X221.471 Y118.309 E22.22076
G1 X216.869 Y106.651 E22.63763
G1 X209.441 Y94.882 E23.10051
G1 X199.35 Y83.923 E23.59599
G1 X187.477 Y74.866 E24.09267
G1 X174.997 Y68.33 E24.56124
G1 X163.359 Y64.5 E24.96874
G1 X162.556 Y64.372 E24.99579
G1 X148.739 Y62.185 E25.46106
G1 X134.124 Y62.218 E25.94716
G1 X119.963 Y64.525 E26.42437
G1 X109.29 Y68.097 E26.79871
G1 X108.656 Y68.431 E26.82254
G1 X97.928 Y74.119 E27.2264
G1 X97.344 Y74.572 E27.25099
G1 X87.482 Y82.179 E27.66524
G1 X78.899 Y91.617 E28.08954
G1 X78.559 Y92.166 E28.11102
G1 X72.952 Y101.185 E28.46424
G1 X69.438 Y110.294 E28.78897
G1 X67.399 Y121.775 E29.1768
G1 X67.617 Y133.197 E29.55677
G1 X70.006 Y144.204 E29.93139
G1 X73.289 Y151.85 E30.20814
G1 X79.266 Y160.723 E30.56397
G1 X87.017 Y168.656 E30.93286
G1 X96.011 Y175.1 E31.30086
G1 X104.559 Y179.257 E31.617
G1 X113.093 Y181.784 E31.91303
G1 X123.772 Y183.138 E32.27106
G1 X134.321 Y182.779 E32.62212
G1 X144.419 Y180.786 E32.96446
G1 X150.485 Y178.517 E33.17987
G1 X158.811 Y173.693 E33.49992
G1 X165.91 Y167.744 E33.80797
G1 X171.604 Y160.905 E34.10396
G1 X174.836 Y155.114 E34.32454
G1 X176.986 Y148.579 E34.55335
G1 X177.96 Y140.656 E34.81886
G1 X177.923 Y140.178 E34.8348
G1 X177.375 Y132.906 E35.07735
G1 X175.492 Y126.154 E35.3105
G1 X173.329 Y121.846 E35.47083
G1 X168.831 Y115.972 E35.7169
G1 X163.41 Y111.068 E35.96003
G1 X157.297 Y107.239 E36.19994
G1 X153.387 Y105.636 E36.34049
G1 X147.247 Y104.25 E36.54985
G1 X140.505 Y103.86 E36.77446
G1 X134.016 Y104.553 E36.99152
G1 X129.657 Y105.771 E37.14205
G1 X125.862 Y107.565 E37.28167
G1 X121.23 Y110.852 E37.47058
G1 X117.478 Y114.707 E37.6495
G1 X115.092 Y118.334 E37.79389
G1 X115.015 Y118.522 E37.80065
G1 X114.232 Y120.455 E37.87002
G1 X114.174 Y120.769 E37.88064
G1 X113.405 Y124.961 E38.02239
G1 X113.517 Y129.332 E38.16782
G1 X114.45 Y133.243 E38.30155
G1 X114.836 Y134.064 E38.33172
G1 X117.193 Y137.222 E38.46279
G1 X120 Y139.738 E38.58816
G1 X123.035 Y141.552 E38.70577
G1 X126.33 Y142.101 E38.81687
G1 X129.433 Y142.031 E38.9201
G1 X131.359 Y141.611 E38.98567
G1 X133.413 Y140.111 E39.07026
G1 X134.549 Y138.782 E39.12841
G1 X134.726 Y137.747 E39.16333
G1 X134.743 Y137.54 E39.17024
G1 X134.639 Y136.724 E39.1976
G1 X134.093 Y136.168 E39.22352
G1 X131.659 Y135.257 E39.30996
G1 X130.662 Y133.08 E39.3896
G1 X131.659 Y130.903 E39.46924
G1 X134.31 Y129.911 E39.56338
G1 X135.212 Y130.054 E39.59376
G1 X135.584 Y130.189 E39.60692
G1 X138.374 Y131.235 E39.70602
G1 X139.333 Y131.73 E39.74192
G1 X140.04 Y132.455 E39.7756
G1 X140.568 Y133.551 E39.81606
G1 X141.865 Y136.384 E39.91969
G1 X142.02 Y137.566 E39.95934
G1 X141.791 Y138.885 E40.00387
G1 X140.454 Y141.801 E40.11056
G1 X139.76 Y143.231 E40.16343
G1 X138.612 Y144.573 E40.22217
G1 X136.989 Y145.758 E40.28901
G1 X134.868 Y146.693 E40.3661
G1 X134.717 Y146.751 E40.37148
G1 X131.66 Y147.894 E40.48003
G1 X129.195 Y148.432 E40.56395
G1 X126.471 Y148.494 E40.65458
G1 X126.416 Y148.485 E40.65643
G1 X123.592 Y148.014 E40.75165
G1 X120.436 Y146.856 E40.86346
G1 X117.405 Y145.721 E40.97111
G1 X114.624 Y144.06 E41.07885
G1 X112.105 Y141.801 E41.19139
G1 X110.01 Y139.003 E41.30765
G1 X108.346 Y135.474 E41.43742
G1 X107.098 Y132.748 E41.53713
G1 X106.22 Y129.073 E41.6628
G1 X106.218 Y128.971 E41.6662
G1 X106.119 Y125.112 E41.79459
G1 X106.87 Y121.02 E41.93296
G1 X108.551 Y116.873 E42.08179
G1 X109.883 Y113.966 E42.18815
G1 X112.474 Y110.028 E42.34493
G1 X115.965 Y106.443 E42.51136
G1 X120.304 Y103.362 E42.68836
G1 X125.449 Y100.93 E42.87764
G1 X128.646 Y99.732 E42.99119
G1 X134.392 Y98.128 E43.18961
G1 X140.559 Y97.469 E43.3959
G1 X146.968 Y97.839 E43.60941
G1 X153.424 Y99.297 E43.82955
G1 X156.645 Y100.504 E43.94396
G1 X162.952 Y103.089 E44.17066
G1 X168.771 Y106.734 E44.39904
G1 X173.92 Y111.391 E44.62995
G1 X178.201 Y116.982 E44.86416
G1 X181.418 Y123.391 E45.10267
G1 X182.744 Y126.288 E45.20864
G1 X184.687 Y133.253 E45.44914
G1 X185.24 Y140.608 E45.69446
G1 X185.205 Y140.899 E45.70421
G1 X184.315 Y148.14 E45.94686
G1 X181.851 Y155.632 E46.20917
G1 X180.524 Y158.528 E46.31513
G1 X180.344 Y158.85 E46.32739
G1 X176.517 Y165.708 E46.5886
G1 X171.06 Y172.26 E46.87221
G1 X164.224 Y177.991 E47.16891
G1 X156.197 Y182.641 E47.47745
G1 X156.105 Y182.675 E47.48071
G1 X143.86 Y187.255 E47.91554
G1 X134.103 Y189.181 E48.24632
G1 X123.859 Y189.531 E48.58723
G1 X113.504 Y188.217 E48.9344
G1 X113.068 Y188.087 E48.94954
G1 X103.314 Y185.2 E49.28787
G1 X100.102 Y183.998 E49.40193
G1 X90.465 Y179.311 E49.75836
G1 X81.76 Y173.073 E50.11455
G1 X74.25 Y165.39 E50.47189
G1 X68.243 Y156.47 E50.82958
G1 X66.915 Y153.571 E50.93563
G1 X66.706 Y153.088 E50.95314
G1 X62.629 Y143.593 E51.29682
G1 X60.322 Y132.966 E51.65851
G1 X60.112 Y121.933 E52.02554
G1 X62.084 Y110.835 E52.40044
G1 X62.219 Y110.482 E52.41301
G1 X66.265 Y99.993 E52.78693
G1 X67.602 Y97.081 E52.8935
G1 X73.935 Y86.887 E53.29266
G1 X82.277 Y77.714 E53.70505
G1 X92.446 Y69.868 E54.13224
G1 X104.19 Y63.642 E54.57435
G1 X107.413 Y62.436 E54.6888
G1 X120.443 Y58.077 E55.14579
G1 X134.288 Y55.821 E55.61235
G1 X148.583 Y55.788 E56.0878
G1 X149.169 Y55.88 E56.10753
G1 X162.884 Y58.054 E56.56939
G1 X176.785 Y62.629 E57.05614
G1 X180.007 Y63.834 E57.17055
G1 X192.966 Y70.621 E57.6571
G1 X204.569 Y79.471 E58.14246
G1 X204.982 Y79.919 E58.16273
G1 X214.419 Y90.167 E58.62608
G1 X222.159 Y102.431 E59.10843
G1 X223.498 Y105.352 E59.2153
G1 X228.83 Y118.863 E59.69841
G1 X231.5 Y133.168 E60.18241
G1 X231.355 Y147.896 E60.67229
G1 X228.335 Y162.54 E61.1696
G1 X222.42 Y176.753 E61.68163
G1 X221.088 Y179.66 E61.78798
G1 X212.436 Y192.844 E62.31248
G1 X201.172 Y204.662 E62.85549
G1 X187.694 Y214.603 E63.41251
G1 X187.643 Y214.629 E63.41442
G1 X172.239 Y222.398 E63.98823
G1 X172.12 Y222.443 E63.99246
G1 X168.966 Y223.618 E64.10441
G1 X152.047 Y228.919 E64.69411
G1 X150.316 Y229.167 E64.75227
G1 X134.13 Y231.498 E65.29617
G1 X115.773 Y231.211 E65.9068
G1 X115.72 Y231.202 E65.90859
G1 X97.536 Y227.997 E66.52272
G1 X97.441 Y227.963 E66.52607
G1 X79.745 Y221.791 E67.14942
G1 X76.682 Y220.642 E67.25822
G1 X60.401 Y211.752 E67.8752
G1 X58.344 Y210.124 E67.96245
G1 X45.926 Y200.307 E68.48895
G1 X45.892 Y200.269 E68.49064
G1 X33.73 Y186.588 E69.09948
G1 X24.252 Y170.966 E69.70722
G1 X22.91 Y168.029 E69.81462
G1 X22.279 Y166.342 E69.87453
G1 X16.527 Y150.98 E70.42011
G1 X13.502 Y133.018 E71.02594
G1 X13.994 Y114.622 E71.63802
G1 X18.068 Y96.407 E72.25882
G1 X25.714 Y78.833 E72.89626
G1 X27.045 Y75.93 E73.00248
G1 X38.036 Y59.722 E73.65382
G1 X52.151 Y45.323 E74.32445
G1 X68.356 Y33.702 E74.9877
G0 F1080 X69.006 Y33.236
G0 F6000 X68.8 Y32.892
G1 F1200 X88.01 Y23.509 E75.69877
G1 X91.245 Y22.298 E75.81366
G1 X112.199 Y16.014 E76.54126
G1 X134.236 Y13.101 E77.28059
G1 X156.727 Y13.708 E78.02891
G1 X178.977 Y17.89 E78.78191
G1 X181.978 Y19.014 E78.88849
G1 X183.121 Y21.508 E78.97974
G1 X181.978 Y24.002 E79.07099
G1 X179.085 Y25.085 E79.17373
G1 X178.278 Y24.934 E79.20104
G1 X156.856 Y20.909 E79.926
G1 X155.865 Y20.881 E79.95898
G1 X134.175 Y20.296 E80.68065
G1 X133.239 Y20.419 E80.71205
G1 X111.946 Y23.235 E81.42643
G1 X92.823 Y28.968 E82.09043
G1 X74.749 Y37.797 E82.75946
G1 X73.971 Y38.356 E82.79133
G1 X57.673 Y50.041 E83.45832
G1 X57.043 Y50.683 E83.48824
G1 X43.365 Y64.636 E84.13811
G1 X32.399 Y80.81 E84.78805
G1 X25.833 Y95.903 E85.33549
G1 X21.69 Y114.429 E85.96689
G1 X21.666 Y115.294 E85.99567
G1 X21.19 Y133.122 E86.58884
G1 X24.268 Y151.404 E87.20546
G1 X30.043 Y166.829 E87.75328
G1 X39.007 Y181.607 E88.32815
G1 X51.389 Y195.535 E88.94799
G1 X66.094 Y207.159 E89.57143
G1 X82.187 Y215.945 E90.18126
G1 X97.113 Y221.145 E90.70697
G1 X115.629 Y224.413 E91.33233
G1 X134.245 Y224.703 E91.95158
G1 X152.408 Y222.086 E92.56192
G1 X167.306 Y217.421 E93.08115
G1 X181.953 Y210.04 E93.62667
G1 X195.66 Y199.932 E94.19312
G1 X207.118 Y187.915 E94.74538
G1 X215.593 Y174.998 E95.25922
G1 X220.582 Y163.01 E95.69109
G1 X223.666 Y148.05 E96.19912
G1 X223.808 Y133.067 E96.69748
G1 X223.677 Y132.314 E96.7229
G1 X221.085 Y118.42 E97.19299
G1 X216.511 Y106.833 E97.60732
G1 X209.122 Y95.126 E98.06777
G1 X199.08 Y84.22 E98.56085
G1 X187.261 Y75.205 E99.05525
G1 X174.841 Y68.7 E99.52157
G1 X163.264 Y64.89 E99.92694
G1 X162.493 Y64.767 E99.95291
G1 X148.708 Y62.585 E100.41711
G1 X134.157 Y62.618 E100.90108
G1 X120.059 Y64.915 E101.37616
G1 X109.448 Y68.466 E101.74832
G1 X108.843 Y68.785 E101.77107
G1 X98.145 Y74.457 E102.1738
G1 X97.589 Y74.888 E102.1972
G1 X87.755 Y82.474 E102.61029
G1 X79.22 Y91.859 E103.03222
G1 X78.899 Y92.377 E103.05248
G1 X73.312 Y101.364 E103.40445
G1 X69.825 Y110.402 E103.72665
G1 X67.8 Y121.806 E104.11188
G1 X68.016 Y133.15 E104.48925
G1 X70.389 Y144.082 E104.86132
G1 X73.642 Y151.658 E105.13555
G1 X79.577 Y160.469 E105.48888
G1 X87.279 Y168.351 E105.85542
G1 X96.216 Y174.755 E106.2211
G1 X104.704 Y178.883 E106.53503
G1 X113.175 Y181.391 E106.82886
G1 X123.79 Y182.737 E107.18475
G1 X134.275 Y182.38 E107.53368
G1 X144.309 Y180.4 E107.87385
G1 X150.313 Y178.154 E108.08706
G1 X158.581 Y173.364 E108.40487
G1 X165.626 Y167.46 E108.71059
G1 X171.273 Y160.678 E109.00412
G1 X174.468 Y154.953 E109.22218
G1 X176.594 Y148.491 E109.44844
G1 X177.558 Y140.647 E109.71129
G1 X177.524 Y140.209 E109.72591
G1 X176.979 Y132.976 E109.96716
G1 X175.117 Y126.299 E110.19771
G1 X172.988 Y122.059 E110.35551
G1 X168.536 Y116.244 E110.59909
G1 X163.168 Y111.388 E110.83985
G1 X157.114 Y107.596 E111.07744
G1 X153.266 Y106.019 E111.21576
G1 X152.918 Y105.94 E111.22763
G1 X147.191 Y104.647 E111.4229
G1 X140.515 Y104.261 E111.64532
G1 X134.092 Y104.947 E111.86016
G1 X129.797 Y106.147 E112.00849
G1 X126.065 Y107.912 E112.1458
G1 X121.491 Y111.157 E112.33232
G1 X117.791 Y114.959 E112.50878
G1 X115.447 Y118.522 E112.65063
G1 X115.385 Y118.673 E112.65606
G1 X114.618 Y120.568 E112.72405
G1 X114.567 Y120.842 E112.73332
G1 X113.806 Y124.992 E112.87365
G1 X113.916 Y129.28 E113.01632
G1 X114.83 Y133.11 E113.14728
G1 X115.181 Y133.857 E113.17473
G1 X117.49 Y136.951 E113.30314
G1 X120.238 Y139.414 E113.42588
G1 X123.175 Y141.17 E113.53969
G1 X126.359 Y141.7 E113.64705
G1 X129.385 Y141.632 E113.74772
G1 X131.191 Y141.238 E113.8092
G1 X133.139 Y139.816 E113.88941
G1 X134.173 Y138.606 E113.94235
G1 X134.329 Y137.697 E113.97303
G1 X134.341 Y137.549 E113.97797
G1 X134.259 Y136.908 E113.99946
G1 X133.87 Y136.512 E114.01792
G1 X131.364 Y135.574 E114.10692
G1 X130.222 Y133.08 E114.19815
G1 X131.364 Y130.586 E114.28939
G1 X134.267 Y129.5 E114.39248
G1 X135.314 Y129.665 E114.42773
G1 X135.724 Y129.814 E114.44224
G1 X138.529 Y130.866 E114.54188
G1 X139.574 Y131.405 E114.58099
G1 X140.372 Y132.223 E114.61899
G1 X140.931 Y133.384 E114.66185
G1 X142.254 Y136.272 E114.76751
G1 X142.425 Y137.572 E114.81112
G1 X142.176 Y139.007 E114.85956
G1 X140.814 Y141.976 E114.9682
G1 X140.098 Y143.451 E115.02274
G1 X138.886 Y144.869 E115.08478
G1 X137.191 Y146.106 E115.15457
G1 X135.011 Y147.067 E115.23381
G1 X134.857 Y147.126 E115.2393
G1 X131.774 Y148.279 E115.34877
G1 X129.243 Y148.831 E115.43493
G1 X126.444 Y148.895 E115.52805
G1 X126.35 Y148.879 E115.53122
G1 X123.489 Y148.403 E115.62769
G1 X120.298 Y147.232 E115.74074
G1 X117.234 Y146.085 E115.84956
G1 X114.384 Y144.382 E115.95998
G1 X111.809 Y142.073 E116.07502
G1 X109.664 Y139.209 E116.19403
G1 X107.984 Y135.645 E116.32508
G1 X106.719 Y132.882 E116.42615
G1 X105.821 Y129.124 E116.55466
G1 X105.818 Y128.98 E116.55945
G1 X105.718 Y125.084 E116.68908
G1 X106.485 Y120.905 E116.83039
G1 X108.187 Y116.706 E116.98109
G1 X109.53 Y113.775 E117.08832
G1 X112.162 Y109.775 E117.24758
G1 X115.703 Y106.138 E117.41641
G1 X120.102 Y103.015 E117.59584
G1 X125.292 Y100.561 E117.78679
G1 X128.517 Y99.353 E117.90133
G1 X134.319 Y97.733 E118.10168
G1 X140.546 Y97.068 E118.30997
G1 X147.025 Y97.442 E118.52582
G1 X153.542 Y98.914 E118.74804
G1 X156.785 Y100.129 E118.86322
G1 X163.134 Y102.731 E119.09144
G1 X169.014 Y106.414 E119.3222
G1 X174.216 Y111.119 E119.5555
G1 X178.539 Y116.765 E119.79201
G1 X181.781 Y123.224 E120.03238
G1 X183.119 Y126.145 E120.13924
G1 X185.083 Y133.186 E120.38236
G1 X185.642 Y140.616 E120.63018
G1 X185.602 Y140.947 E120.64127
G1 X184.707 Y148.228 E120.88526
G1 X182.223 Y155.782 E121.14974
G1 X180.885 Y158.702 E121.25657
G1 X180.693 Y159.045 E121.26965
G1 X176.848 Y165.935 E121.53208
G1 X171.342 Y172.546 E121.81823
G1 X164.458 Y178.317 E122.11701
G1 X156.365 Y183.005 E122.42808
G1 X156.245 Y183.05 E122.43235
G1 X143.974 Y187.64 E122.8681
G1 X134.144 Y189.58 E123.20135
G1 X123.841 Y189.932 E123.54423
G1 X113.424 Y188.61 E123.89348
G1 X112.954 Y188.47 E123.90979
G1 X103.178 Y185.576 E124.24889
G1 X99.944 Y184.366 E124.36374
G1 X90.261 Y179.657 E124.72186
G1 X81.497 Y173.376 E125.08048
G1 X73.94 Y165.645 E125.44006
G1 X67.891 Y156.664 E125.8002
G1 X66.551 Y153.738 E125.90724
G1 X66.339 Y153.247 E125.92503
G1 X62.246 Y143.715 E126.27006
G1 X59.923 Y133.013 E126.63429
G1 X59.913 Y132.507 E126.65113
G1 X59.711 Y121.901 E127.00395
G1 X61.697 Y110.726 E127.38145
G1 X61.845 Y110.339 E127.39523
G1 X65.901 Y99.826 E127.77002
