;FLAVOR:Marlin
;TIME:1149
;Filament used: 0.806282m
;Layer height: 0.2
;MINX:98.991
;MINY:69.984
;MINZ:0.3
;MAXX:121.178
;MAXY:169.685
;MAXZ:7.3
;Generated with Cura_SteamEngine 4.4.1
M140 S60
M105
M190 S60
M104 S205
M105
M109 S205
M82 ;absolute extrusion mode
M201 X500.00 Y500.00 Z100.00 E5000.00 ;Setup machine max acceleration
M203 X500.00 Y500.00 Z10.00 E75.00 ;Setup machine max feedrate
M204 P500.00 R1000.00 T500.00 ;Setup Print/Retract/Travel acceleration
M205 X8.00 Y8.00 Z0.40 E5.00 ;Setup Jerk
M220 S100 ;Reset Feedrate
M221 S100 ;Reset Flowrate

G21 ; (metric values)
G90 ; (absolute positioning)
M82 ; (set extruder to absolute mode)
G28 ; (home all axis)
G29 ; (Auto Level)

G92 E0 ;Reset Extruder
G1 Z2.0 F3000 ;Move Z Axis up
G1 X1.1 Y50 Z0.28 F5000.0 ;Move to start position
G1 X1.1 Y200.0 Z0.28 F1500.0 E15 ;Draw the first line
G1 X1.4 Y200.0 Z0.28 F5000.0 ;Move to side a little
G1 X1.4 Y100 Z0.28 F1500.0 E30 ;Draw the second line
G92 E0 ;Reset Extruder
G1 Z2.0 F3000 ;Move Z Axis up
G92 E0
G92 E0
G1 F3000 E-6
;LAYER_COUNT:36
;LAYER:0
M107
G1 F300 Z0.65
G0 F6000 X100.999 Y75.683 Z0.65
;TYPE:SKIRT
G1 F300 Z0.3
G1 F3000 E0
G1 F1200 X101.25 Y75.357 E0.02053
G1 X101.473 Y75.082 E0.03819
G1 X101.742 Y74.768 E0.05882
G1 X101.984 Y74.5 E0.07683
G1 X102.268 Y74.201 E0.09741
G1 X102.524 Y73.946 E0.11543
G1 X102.848 Y73.641 E0.13763
G1 X103.117 Y73.402 E0.15559
G1 X103.428 Y73.14 E0.17587
G1 X103.712 Y72.913 E0.19401
G1 X104.034 Y72.669 E0.21417
G1 X104.328 Y72.458 E0.23222
G1 X104.715 Y72.198 E0.25548
G1 X105.021 Y72.005 E0.27353
G1 X105.335 Y71.817 E0.29179
G1 X105.656 Y71.635 E0.3102
G1 X106.068 Y71.417 E0.33346
G1 X106.386 Y71.261 E0.35113
G1 X106.735 Y71.1 E0.3703
G1 X107.067 Y70.957 E0.38834
G1 X107.471 Y70.797 E0.41002
G1 X107.826 Y70.667 E0.42888
G1 X108.229 Y70.531 E0.4501
G1 X108.576 Y70.425 E0.4682
G1 X109.048 Y70.297 E0.4926
G1 X109.489 Y70.192 E0.51521
G1 X110.266 Y70.048 E0.55464
G1 X111.053 Y69.984 E0.59403
G1 X111.842 Y69.999 E0.6334
G1 X112.626 Y70.094 E0.6728
G1 X113.397 Y70.268 E0.71223
G1 X114.145 Y70.519 E0.7516
G1 X114.865 Y70.844 E0.79101
G1 X115.548 Y71.241 E0.83042
G1 X116.187 Y71.704 E0.86979
G1 X116.777 Y72.23 E0.90922
G1 X117.31 Y72.813 E0.94863
G1 X117.781 Y73.446 E0.988
G1 X118.186 Y74.124 E1.0274
G1 X118.52 Y74.839 E1.06677
G1 X118.781 Y75.585 E1.1062
G1 X118.964 Y76.353 E1.14559
G1 X119.069 Y77.136 E1.185
G1 X119.081 Y77.508 E1.20357
G1 X119.264 Y77.933 E1.22666
G1 X119.501 Y78.686 E1.26604
G1 X119.66 Y79.46 E1.30546
G1 X119.728 Y80.116 E1.33837
G1 X119.734 Y80.125 E1.33891
G1 X120.144 Y80.8 E1.37831
G1 X120.483 Y81.512 E1.41765
G1 X120.702 Y82.105 E1.44919
G1 X120.791 Y82.38 E1.46361
G1 X120.996 Y83.143 E1.50302
G1 X121.122 Y83.922 E1.54239
G1 X121.167 Y84.569 E1.57475
G1 X121.178 Y84.972 E1.59486
G1 X121.16 Y85.762 E1.63429
G1 X121.109 Y86.24 E1.65827
G1 X121.066 Y86.555 E1.67413
G1 X120.92 Y87.331 E1.71353
G1 X120.696 Y88.088 E1.75291
G1 X120.485 Y88.625 E1.7817
G1 X120.377 Y88.872 E1.79515
G1 X120.024 Y89.578 E1.83453
G1 X119.719 Y90.061 E1.86302
G1 X119.711 Y90.22 E1.87097
G1 X119.592 Y91 E1.91033
G1 X119.394 Y91.765 E1.94976
G1 X119.12 Y92.505 E1.98912
G1 X118.772 Y93.214 E2.02853
G1 X118.683 Y93.357 E2.03693
G1 X118.685 Y145.758 E4.65123
G1 X118.685 Y145.759 E4.65128
G1 X118.683 Y156.952 E5.2097
G1 X118.721 Y157.286 E5.22647
G1 X118.73 Y158.075 E5.26583
G1 X118.659 Y158.862 E5.30526
G1 X118.644 Y158.94 E5.30922
G1 X118.588 Y159.482 E5.3364
G1 X118.574 Y159.549 E5.33982
G1 X118.54 Y159.921 E5.35846
G1 X118.532 Y159.962 E5.36054
G1 X118.479 Y160.483 E5.38667
G1 X118.473 Y160.603 E5.39266
G1 X118.464 Y160.663 E5.39569
G1 X118.464 Y160.673 E5.39619
G1 X118.39 Y161.46 E5.43562
G1 X118.334 Y161.744 E5.45007
G1 X118.323 Y161.864 E5.45608
G1 X118.313 Y161.936 E5.4597
G1 X118.276 Y162.387 E5.48228
G1 X118.131 Y163.163 E5.52166
G1 X117.909 Y163.921 E5.56107
G1 X117.611 Y164.652 E5.60045
G1 X117.241 Y165.35 E5.63987
G1 X116.933 Y165.826 E5.66815
G1 X116.734 Y166.11 E5.68545
G1 X116.249 Y166.733 E5.72484
G1 X115.742 Y167.266 E5.76154
G1 X115.575 Y167.426 E5.77308
G1 X114.978 Y167.943 E5.81248
G1 X114.332 Y168.397 E5.85188
G1 X113.643 Y168.783 E5.89128
G1 X113.174 Y168.996 E5.91697
G1 X112.984 Y169.075 E5.92724
G1 X112.24 Y169.341 E5.96666
G1 X111.473 Y169.53 E6.00607
G1 X110.904 Y169.619 E6.0348
G1 X110.794 Y169.632 E6.04033
G1 X110.007 Y169.685 E6.07968
G1 X109.217 Y169.658 E6.11912
G1 X108.435 Y169.551 E6.1585
G1 X107.667 Y169.366 E6.19791
G1 X106.923 Y169.104 E6.23726
G1 X106.547 Y168.95 E6.25753
G1 X105.832 Y168.614 E6.29694
G1 X105.155 Y168.208 E6.33633
G1 X104.522 Y167.735 E6.37575
G1 X103.941 Y167.2 E6.41516
G1 X103.569 Y166.795 E6.44259
G1 X103.412 Y166.611 E6.45466
G1 X102.85 Y165.866 E6.50122
G1 X102.735 Y165.693 E6.51158
G1 X102.332 Y165.014 E6.55097
G1 X101.999 Y164.298 E6.59037
G1 X101.741 Y163.552 E6.62975
G1 X101.559 Y162.783 E6.66917
G1 X101.456 Y162 E6.70858
G1 X101.456 Y161.994 E6.70887
G1 X101.41 Y161.711 E6.72318
G1 X101.404 Y161.575 E6.72997
G1 X101.347 Y161.241 E6.74687
G1 X101.325 Y160.908 E6.76352
G1 X101.275 Y160.568 E6.78067
G1 X101.272 Y160.512 E6.78347
G1 X101.191 Y159.8 E6.81922
G1 X101.191 Y159.786 E6.81992
G1 X101.179 Y159.716 E6.82346
G1 X101.157 Y159.39 E6.83976
G1 X101.15 Y159.353 E6.84164
G1 X101.118 Y158.99 E6.85982
G1 X101.089 Y158.837 E6.86759
G1 X101.021 Y158.05 E6.907
G1 X101.033 Y157.26 E6.94642
G1 X101.07 Y156.941 E6.96244
G1 X101.073 Y100.795 E9.76357
G1 X101.072 Y86.336 E10.48494
G1 X100.908 Y86.166 E10.49672
G1 X100.421 Y85.545 E10.53609
G1 X99.998 Y84.878 E10.5755
G1 X99.645 Y84.171 E10.61492
G1 X99.366 Y83.433 E10.65428
G1 X99.162 Y82.67 E10.69369
G1 X99.037 Y81.89 E10.7331
G1 X98.991 Y81.102 E10.77248
G1 X99.025 Y80.313 E10.81188
G1 X99.139 Y79.531 E10.85131
G1 X99.331 Y78.765 E10.8907
G1 X99.6 Y78.023 E10.93008
G1 X99.942 Y77.311 E10.96949
G1 X100.184 Y76.898 E10.99337
G1 X100.472 Y76.439 E11.0204
G1 X100.69 Y76.116 E11.03984
G0 F1080 X100.77 Y75.998
G0 X100.999 Y75.683
G0 F6000 X101.323 Y75.919
G1 F1200 X101.56 Y75.609 E11.05931
G1 X101.783 Y75.334 E11.07698
G1 X102.039 Y75.036 E11.09658
G1 X102.281 Y74.768 E11.11459
G1 X102.551 Y74.484 E11.13414
G1 X102.807 Y74.229 E11.15217
G1 X103.114 Y73.94 E11.1732
G1 X103.383 Y73.701 E11.19116
G1 X103.678 Y73.453 E11.21038
G1 X103.962 Y73.226 E11.22852
G1 X104.267 Y72.994 E11.24764
G1 X104.561 Y72.783 E11.26569
G1 X104.928 Y72.536 E11.28776
G1 X105.234 Y72.343 E11.30581
G1 X105.532 Y72.165 E11.32313
G1 X105.853 Y71.983 E11.34154
G1 X106.244 Y71.776 E11.36361
G1 X106.562 Y71.62 E11.38128
G1 X106.894 Y71.468 E11.3995
G1 X107.226 Y71.325 E11.41754
G1 X107.608 Y71.172 E11.43807
G1 X107.963 Y71.042 E11.45693
G1 X108.346 Y70.914 E11.47707
G1 X108.693 Y70.808 E11.49518
G1 X109.141 Y70.686 E11.51834
G1 X109.582 Y70.581 E11.54096
G1 X110.338 Y70.442 E11.57931
G1 X111.105 Y70.382 E11.61769
G1 X111.874 Y70.403 E11.65607
G1 X112.637 Y70.502 E11.69445
G1 X113.385 Y70.681 E11.73283
G1 X114.111 Y70.936 E11.77122
G1 X114.806 Y71.265 E11.80958
G1 X115.463 Y71.665 E11.84795
G1 X116.075 Y72.13 E11.8863
G1 X116.636 Y72.657 E11.9247
G1 X117.139 Y73.239 E11.96308
G1 X117.579 Y73.87 E12.00146
G1 X117.951 Y74.543 E12.03982
G1 X118.251 Y75.251 E12.07818
G1 X118.475 Y75.987 E12.11656
G1 X118.623 Y76.742 E12.15495
G1 X118.691 Y77.508 E12.19331
G1 X118.69 Y77.59 E12.19741
G1 X118.968 Y78.298 E12.23535
G1 X119.174 Y79.04 E12.27377
G1 X119.302 Y79.798 E12.31212
G1 X119.327 Y80.238 E12.33411
G1 X119.403 Y80.349 E12.34082
G1 X119.801 Y81.007 E12.37919
G1 X120.129 Y81.703 E12.41758
G1 X120.321 Y82.228 E12.44546
G1 X120.41 Y82.503 E12.45988
G1 X120.609 Y83.247 E12.49831
G1 X120.729 Y84.006 E12.53664
G1 X120.767 Y84.58 E12.56534
G1 X120.778 Y84.983 E12.58546
G1 X120.759 Y85.752 E12.62383
G1 X120.713 Y86.186 E12.64561
G1 X120.67 Y86.501 E12.66147
G1 X120.527 Y87.257 E12.69986
G1 X120.305 Y87.993 E12.73821
G1 X120.118 Y88.465 E12.76354
G1 X120.01 Y88.712 E12.77699
G1 X119.666 Y89.399 E12.81532
G1 X119.325 Y89.934 E12.84697
G1 X119.311 Y90.199 E12.86021
G1 X119.192 Y90.959 E12.89859
G1 X118.994 Y91.702 E12.93695
G1 X118.72 Y92.421 E12.97534
G1 X118.373 Y93.107 E13.01369
G1 X118.283 Y93.247 E13.022
G1 X118.285 Y145.758 E15.64178
G1 X118.285 Y145.759 E15.64183
G1 X118.283 Y156.974 E16.20135
G1 X118.327 Y157.41 E16.22321
G1 X118.325 Y158.179 E16.26158
G1 X118.263 Y158.753 E16.29038
G1 X118.262 Y158.796 E16.29253
G1 X118.192 Y159.377 E16.32172
G1 X118.15 Y159.756 E16.34075
G1 X118.149 Y159.826 E16.34424
G1 X118.079 Y160.409 E16.37353
G1 X118.062 Y160.683 E16.38723
G1 X118.059 Y160.703 E16.38824
G1 X118.058 Y160.776 E16.39188
G1 X117.973 Y161.54 E16.43023
G1 X117.935 Y161.713 E16.43907
G1 X117.926 Y161.811 E16.44398
G1 X117.922 Y161.842 E16.44554
G1 X117.862 Y162.452 E16.47612
G1 X117.708 Y163.206 E16.51451
G1 X117.477 Y163.939 E16.55285
G1 X117.171 Y164.645 E16.59124
G1 X116.605 Y165.596 E16.64646
G1 X116.406 Y165.88 E16.66376
G1 X115.933 Y166.487 E16.70215
G1 X115.465 Y166.977 E16.73595
G1 X115.298 Y167.137 E16.74749
G1 X114.716 Y167.64 E16.78587
G1 X114.085 Y168.079 E16.82422
G1 X113.411 Y168.451 E16.86263
G1 X113.02 Y168.627 E16.88402
G1 X112.83 Y168.706 E16.89429
G1 X112.105 Y168.964 E16.93268
G1 X111.358 Y169.145 E16.97102
G1 X110.858 Y169.222 E16.99626
G1 X110.748 Y169.235 E17.00179
G1 X109.98 Y169.285 E17.04019
G1 X109.211 Y169.256 E17.07858
G1 X108.45 Y169.147 E17.11693
G1 X107.704 Y168.959 E17.15531
G1 X107.074 Y168.734 E17.18869
G1 X106.698 Y168.58 E17.20896
G1 X106.003 Y168.252 E17.2473
G1 X105.345 Y167.853 E17.28569
G1 X104.732 Y167.389 E17.32405
G1 X104.17 Y166.863 E17.36245
G1 X103.874 Y166.535 E17.3845
G1 X103.717 Y166.351 E17.39656
G1 X103.183 Y165.645 E17.44073
G1 X103.068 Y165.472 E17.45109
G1 X102.676 Y164.81 E17.48947
G1 X102.355 Y164.111 E17.52785
G1 X102.108 Y163.382 E17.56625
G1 X101.939 Y162.632 E17.6046
G1 X101.906 Y162.292 E17.62165
G1 X101.798 Y161.568 E17.65817
G1 X101.795 Y161.49 E17.66206
G1 X101.733 Y161.095 E17.68201
G1 X101.72 Y160.846 E17.69445
G1 X101.673 Y160.49 E17.71236
G1 X101.659 Y160.42 E17.71593
G1 X101.592 Y159.737 E17.75016
G1 X101.563 Y159.55 E17.7596
G1 X101.55 Y159.288 E17.77269
G1 X101.531 Y159.179 E17.77821
G1 X101.511 Y158.901 E17.79212
G1 X101.47 Y158.663 E17.80417
G1 X101.417 Y157.896 E17.84252
G1 X101.444 Y157.127 E17.88091
G1 X101.47 Y156.942 E17.89023
G1 X101.473 Y100.795 E20.69142
G1 X101.472 Y86.175 E21.42081
G1 X101.132 Y85.812 E21.44563
G1 X100.668 Y85.199 E21.48398
G1 X100.269 Y84.541 E21.52237
G1 X99.942 Y83.845 E21.56074
G1 X99.688 Y83.119 E21.59911
G1 X99.511 Y82.371 E21.63746
G1 X99.413 Y81.608 E21.67584
G1 X99.394 Y80.839 E21.71422
G1 X99.455 Y80.072 E21.7526
G1 X99.596 Y79.316 E21.79097
G1 X99.814 Y78.578 E21.82936
G1 X100.107 Y77.867 E21.86773
G1 X100.523 Y77.111 E21.91078
G1 X100.811 Y76.652 E21.93781
G1 X101.014 Y76.352 E21.95588
G0 F1080 X101.094 Y76.234
G0 X101.323 Y75.919
G0 F6000 X101.646 Y76.154
G1 F1200 X101.871 Y75.861 E21.97431
G1 X102.094 Y75.586 E21.99198
G1 X102.336 Y75.304 E22.01052
G1 X102.578 Y75.036 E22.02853
G1 X102.833 Y74.768 E22.04699
G1 X103.089 Y74.513 E22.06502
G1 X103.38 Y74.239 E22.08496
G1 X103.649 Y74 E22.10291
G1 X103.927 Y73.765 E22.12107
G1 X104.211 Y73.538 E22.13921
G1 X104.501 Y73.319 E22.15734
G1 X104.795 Y73.108 E22.17539
G1 X105.142 Y72.874 E22.19627
G1 X105.448 Y72.681 E22.21432
G1 X105.729 Y72.513 E22.23066
G1 X106.05 Y72.331 E22.24907
G1 X106.42 Y72.135 E22.26996
G1 X106.738 Y71.979 E22.28763
G1 X107.052 Y71.835 E22.30486
G1 X107.384 Y71.692 E22.3229
G1 X107.746 Y71.548 E22.34233
G1 X108.101 Y71.418 E22.36119
G1 X108.463 Y71.296 E22.38025
G1 X108.81 Y71.19 E22.39835
G1 X109.234 Y71.075 E22.42027
G1 X109.675 Y70.97 E22.44289
G1 X110.411 Y70.836 E22.48021
G1 X111.157 Y70.781 E22.51753
G1 X111.904 Y70.806 E22.55482
G1 X112.645 Y70.911 E22.59216
G1 X113.37 Y71.094 E22.62946
G1 X114.072 Y71.354 E22.66681
G1 X114.742 Y71.687 E22.70414
G1 X115.372 Y72.089 E22.74142
G1 X115.956 Y72.557 E22.77876
G1 X116.487 Y73.084 E22.81608
G1 X116.959 Y73.665 E22.85343
G1 X117.365 Y74.293 E22.89074
G1 X117.703 Y74.96 E22.92804
G1 X117.967 Y75.66 E22.96537
G1 X118.155 Y76.384 E23.00269
G1 X118.265 Y77.124 E23.04001
G1 X118.288 Y77.695 E23.06852
G1 X118.413 Y77.955 E23.08291
G1 X118.663 Y78.66 E23.12023
G1 X118.837 Y79.388 E23.15757
G1 X118.932 Y80.13 E23.19489
G1 X118.941 Y80.381 E23.20743
G1 X119.072 Y80.574 E23.21906
G1 X119.458 Y81.215 E23.25639
G1 X119.774 Y81.893 E23.29371
G1 X119.941 Y82.352 E23.31808
G1 X120.03 Y82.627 E23.3325
G1 X120.222 Y83.35 E23.36982
G1 X120.336 Y84.089 E23.40713
G1 X120.367 Y84.591 E23.43222
G1 X120.378 Y84.994 E23.45233
G1 X120.359 Y85.742 E23.48966
G1 X120.317 Y86.132 E23.50923
G1 X120.274 Y86.447 E23.52509
G1 X120.133 Y87.182 E23.56243
G1 X119.915 Y87.897 E23.59972
G1 X119.752 Y88.304 E23.6216
G1 X119.644 Y88.551 E23.63505
G1 X119.308 Y89.22 E23.6724
G1 X118.931 Y89.806 E23.70716
G1 X118.911 Y90.178 E23.72575
G1 X118.792 Y90.916 E23.76304
G1 X118.594 Y91.638 E23.80039
G1 X118.321 Y92.334 E23.83769
G1 X117.974 Y92.997 E23.87502
G1 X117.883 Y93.133 E23.88319
G1 X117.885 Y145.758 E26.50866
G1 X117.885 Y145.759 E26.50871
G1 X117.883 Y156.972 E27.06813
G1 X117.932 Y157.532 E27.09617
G1 X117.917 Y158.28 E27.1335
G1 X117.859 Y158.737 E27.15648
G1 X117.854 Y158.891 E27.16417
G1 X117.801 Y159.265 E27.18301
G1 X117.799 Y159.338 E27.18666
G1 X117.746 Y159.75 E27.20738
G1 X117.741 Y159.922 E27.21597
G1 X117.683 Y160.336 E27.23682
G1 X117.654 Y160.69 E27.25454
G1 X117.65 Y160.875 E27.26377
G1 X117.553 Y161.617 E27.30111
G1 X117.537 Y161.685 E27.30459
G1 X117.532 Y161.73 E27.30685
G1 X117.532 Y161.771 E27.3089
G1 X117.447 Y162.514 E27.34621
G1 X117.284 Y163.244 E27.38352
G1 X117.043 Y163.953 E27.42088
G1 X116.728 Y164.631 E27.45818
G1 X116.278 Y165.367 E27.50122
G1 X116.079 Y165.651 E27.51852
G1 X115.617 Y166.24 E27.55587
G1 X115.189 Y166.689 E27.58682
G1 X115.022 Y166.849 E27.59835
G1 X114.455 Y167.336 E27.63564
G1 X113.839 Y167.761 E27.67298
G1 X112.866 Y168.258 E27.72749
G1 X112.676 Y168.337 E27.73776
G1 X111.971 Y168.586 E27.77506
G1 X111.244 Y168.76 E27.81235
G1 X110.811 Y168.825 E27.8342
G1 X110.701 Y168.838 E27.83972
G1 X109.954 Y168.886 E27.87707
G1 X109.207 Y168.854 E27.91437
G1 X108.467 Y168.742 E27.95171
G1 X107.743 Y168.552 E27.98905
G1 X107.226 Y168.364 E28.0165
G1 X106.85 Y168.21 E28.03677
G1 X106.174 Y167.89 E28.07408
G1 X105.536 Y167.499 E28.11142
G1 X104.943 Y167.043 E28.14874
G1 X104.178 Y166.276 E28.20278
G1 X104.021 Y166.092 E28.21485
G1 X103.516 Y165.423 E28.25667
G1 X103.401 Y165.25 E28.26703
G1 X103.021 Y164.606 E28.30434
G1 X102.712 Y163.925 E28.34165
G1 X102.477 Y163.215 E28.37896
G1 X102.319 Y162.483 E28.41632
G1 X102.293 Y162.194 E28.43079
G1 X102.287 Y162.169 E28.43208
G1 X102.187 Y161.428 E28.46938
G1 X102.186 Y161.408 E28.47038
G1 X102.121 Y160.952 E28.49336
G1 X102.116 Y160.805 E28.5007
G1 X102.072 Y160.426 E28.51973
G1 X102.04 Y160.259 E28.52822
G1 X101.996 Y159.722 E28.5551
G1 X101.95 Y159.387 E28.57197
G1 X101.944 Y159.199 E28.58135
G1 X101.914 Y159.008 E28.591
G1 X101.904 Y158.816 E28.60059
G1 X101.853 Y158.493 E28.6169
G1 X101.816 Y157.745 E28.65427
G1 X101.859 Y156.999 E28.69155
G1 X101.87 Y156.932 E28.69493
G1 X101.873 Y100.795 E31.49562
G1 X101.872 Y86.022 E32.23265
G1 X101.862 Y86.014 E32.23329
G1 X101.359 Y85.46 E32.27062
G1 X100.919 Y84.855 E32.30794
G1 X100.546 Y84.206 E32.34529
G1 X100.244 Y83.522 E32.38259
G1 X100.017 Y82.809 E32.41992
G1 X99.868 Y82.076 E32.45724
G1 X99.797 Y81.332 E32.49453
G1 X99.806 Y80.584 E32.53185
G1 X99.895 Y79.841 E32.56918
