;FLAVOR:Marlin
;TIME:1225
;Filament used: 0.752739m
;Layer height: 0.2
;MINX:84.2
;MINY:94.2
;MINZ:0.3
;MAXX:135.8
;MAXY:145.8
;MAXZ:2.7
;Generated with Cura_SteamEngine 4.4.1
M140 S60
M105
M190 S60
M104 S205
M105
M109 S205
M82 ;absolute extrusion mode
M201 X500.00 Y500.00 Z100.00 E5000.00 ;Setup machine max acceleration
M203 X500.00 Y500.00 Z10.00 E75.00 ;Setup machine max feedrate
M204 P500.00 R1000.00 T500.00 ;Setup Print/Retract/Travel acceleration
M205 X8.00 Y8.00 Z0.40 E5.00 ;Setup Jerk
M220 S100 ;Reset Feedrate
M221 S100 ;Reset Flowrate

G21 ; (metric values)
G90 ; (absolute positioning)
M82 ; (set extruder to absolute mode)
G28 ; (home all axis)
G29 ; (Auto Level)

G92 E0 ;Reset Extruder
G1 Z2.0 F3000 ;Move Z Axis up
G1 X1.1 Y50 Z0.28 F5000.0 ;Move to start position
G1 X1.1 Y200.0 Z0.28 F1500.0 E15 ;Draw the first line
G1 X1.4 Y200.0 Z0.28 F5000.0 ;Move to side a little
G1 X1.4 Y100 Z0.28 F1500.0 E30 ;Draw the second line
G92 E0 ;Reset Extruder
G1 Z2.0 F3000 ;Move Z Axis up
G92 E0
G92 E0
G1 F3000 E-6
;LAYER_COUNT:13
;LAYER:0
M107
G1 F300 Z0.65
G0 F6000 X87.106 Y97.036 Z0.65
;TYPE:SKIRT
G1 F300 Z0.3
G1 F3000 E0
G1 F1200 X87.49 Y96.691 E0.02575
G1 X88.066 Y96.218 E0.06294
G1 X88.617 Y95.817 E0.09694
G1 X88.961 Y95.613 E0.11689
G1 X89.684 Y95.217 E0.15802
G1 X90.299 Y94.926 E0.19196
G1 X90.788 Y94.753 E0.21784
G1 X91.537 Y94.526 E0.25689
G1 X92.199 Y94.367 E0.29085
G1 X92.651 Y94.305 E0.31361
G1 X93.433 Y94.228 E0.35282
G1 X94.001 Y94.2 E0.38119
G1 X125.999 Y94.2 E1.97757
G1 X126.567 Y94.228 E2.00595
G1 X127.349 Y94.305 E2.04515
G1 X128.022 Y94.411 E2.07914
G1 X128.463 Y94.526 E2.10188
G1 X129.212 Y94.753 E2.14092
G1 X129.851 Y94.989 E2.17491
G1 X130.264 Y95.189 E2.1978
G1 X130.958 Y95.56 E2.23706
G1 X131.539 Y95.916 E2.27106
G1 X131.908 Y96.196 E2.29417
G1 X132.511 Y96.692 E2.33312
G1 X133.011 Y97.154 E2.36708
G1 X133.309 Y97.49 E2.38949
G1 X133.782 Y98.066 E2.42667
G1 X134.183 Y98.617 E2.46067
G1 X134.391 Y98.968 E2.48103
G1 X134.765 Y99.653 E2.51996
G1 X135.055 Y100.268 E2.55389
G1 X135.204 Y100.683 E2.57589
G1 X135.439 Y101.426 E2.61476
G1 X135.606 Y102.086 E2.64873
G1 X135.674 Y102.539 E2.67158
G1 X135.76 Y103.319 E2.71073
G1 X135.795 Y103.954 E2.74246
G1 X135.8 Y135.998 E4.34114
G1 X135.773 Y136.563 E4.36936
G1 X135.701 Y137.3 E4.40631
G1 X135.595 Y137.973 E4.4403
G1 X135.497 Y138.355 E4.45997
G1 X135.279 Y139.105 E4.49894
G1 X135.051 Y139.746 E4.53288
G1 X134.853 Y140.168 E4.55614
G1 X134.49 Y140.864 E4.5953
G1 X134.14 Y141.448 E4.62927
G1 X133.869 Y141.814 E4.65199
G1 X133.351 Y142.459 E4.69326
G1 X132.894 Y142.964 E4.72724
G1 X132.51 Y143.309 E4.75299
G1 X131.934 Y143.782 E4.79018
G1 X131.383 Y144.183 E4.82418
G1 X131.039 Y144.387 E4.84413
G1 X130.316 Y144.783 E4.88526
G1 X129.701 Y145.074 E4.9192
G1 X129.212 Y145.247 E4.94508
G1 X128.463 Y145.474 E4.98412
G1 X127.801 Y145.633 E5.01809
G1 X127.349 Y145.695 E5.04085
G1 X126.567 Y145.772 E5.08006
G1 X125.999 Y145.8 E5.10843
G1 X94.001 Y145.8 E6.70481
G1 X93.433 Y145.772 E6.73319
G1 X92.651 Y145.695 E6.77239
G1 X91.978 Y145.589 E6.80638
G1 X91.537 Y145.474 E6.82912
G1 X90.788 Y145.247 E6.86816
G1 X90.149 Y145.011 E6.90215
G1 X89.736 Y144.811 E6.92504
G1 X89.042 Y144.44 E6.9643
G1 X88.461 Y144.084 E6.9983
G1 X88.09 Y143.803 E7.02152
G1 X87.485 Y143.305 E7.06061
G1 X86.986 Y142.842 E7.09457
G1 X86.687 Y142.506 E7.11701
G1 X86.216 Y141.932 E7.15405
G1 X85.816 Y141.381 E7.18802
G1 X85.609 Y141.032 E7.20827
G1 X85.235 Y140.347 E7.2472
G1 X84.945 Y139.732 E7.28113
G1 X84.795 Y139.315 E7.30324
G1 X84.56 Y138.571 E7.34216
G1 X84.394 Y137.911 E7.37611
G1 X84.326 Y137.46 E7.39887
G1 X84.24 Y136.681 E7.43797
G1 X84.205 Y136.046 E7.4697
G1 X84.2 Y104.002 E9.06838
G1 X84.227 Y103.439 E9.0965
G1 X84.299 Y102.7 E9.13354
G1 X84.405 Y102.027 E9.16753
G1 X84.504 Y101.639 E9.18751
G1 X84.722 Y100.891 E9.22638
G1 X84.95 Y100.25 E9.26032
G1 X85.147 Y99.832 E9.28338
G1 X85.51 Y99.136 E9.32254
G1 X85.86 Y98.552 E9.35651
G1 X86.131 Y98.186 E9.37923
G1 X86.649 Y97.541 E9.4205
G1 X86.749 Y97.43 E9.42795
G0 F1080 X87.106 Y97.036
G0 F6000 X87.402 Y97.305
G1 F1200 X87.744 Y97 E9.45082
G1 X88.32 Y96.527 E9.488
G1 X88.852 Y96.142 E9.52076
G1 X89.153 Y95.964 E9.53821
G1 X89.876 Y95.568 E9.57934
G1 X90.47 Y95.288 E9.6121
G1 X90.904 Y95.136 E9.63504
G1 X91.653 Y94.909 E9.67409
G1 X92.292 Y94.757 E9.70686
G1 X92.69 Y94.703 E9.72689
G1 X93.472 Y94.626 E9.7661
G1 X94.001 Y94.6 E9.79252
G1 X125.999 Y94.6 E11.38891
G1 X126.528 Y94.626 E11.41533
G1 X127.31 Y94.703 E11.45453
G1 X127.959 Y94.807 E11.48733
G1 X128.347 Y94.909 E11.50734
G1 X129.096 Y95.136 E11.54639
G1 X129.712 Y95.365 E11.57917
G1 X130.076 Y95.542 E11.59937
G1 X130.77 Y95.913 E11.63863
G1 X131.329 Y96.257 E11.67137
G1 X131.654 Y96.505 E11.69177
G1 X132.257 Y97.001 E11.73072
G1 X132.738 Y97.448 E11.76348
G1 X133 Y97.744 E11.7832
G1 X133.473 Y98.32 E11.82039
G1 X133.858 Y98.852 E11.85315
G1 X134.04 Y99.159 E11.87096
G1 X134.414 Y99.844 E11.90989
G1 X134.693 Y100.439 E11.94268
G1 X134.823 Y100.804 E11.96201
G1 X135.058 Y101.547 E12.00089
G1 X135.217 Y102.184 E12.03364
G1 X135.276 Y102.583 E12.05377
G1 X135.362 Y103.363 E12.09292
G1 X135.395 Y103.954 E12.12245
G1 X135.4 Y135.998 E13.72113
G1 X135.374 Y136.524 E13.7474
G1 X135.302 Y137.261 E13.78435
G1 X135.199 Y137.91 E13.81713
G1 X135.113 Y138.243 E13.83429
G1 X134.895 Y138.993 E13.87326
G1 X134.674 Y139.612 E13.90605
G1 X134.498 Y139.983 E13.92653
G1 X134.135 Y140.679 E13.9657
G1 X133.796 Y141.242 E13.99848
G1 X133.557 Y141.563 E14.01845
G1 X133.039 Y142.208 E14.05972
G1 X132.598 Y142.695 E14.0925
G1 X132.256 Y143 E14.11536
G1 X131.68 Y143.473 E14.15255
G1 X131.148 Y143.858 E14.18531
G1 X130.847 Y144.036 E14.20276
G1 X130.124 Y144.432 E14.24388
G1 X129.53 Y144.712 E14.27664
G1 X129.096 Y144.864 E14.29959
G1 X128.347 Y145.091 E14.33863
G1 X127.708 Y145.243 E14.3714
G1 X127.31 Y145.297 E14.39144
G1 X126.528 Y145.374 E14.43064
G1 X125.999 Y145.4 E14.45707
G1 X94.001 Y145.4 E16.05345
G1 X93.472 Y145.374 E16.07988
G1 X92.69 Y145.297 E16.11908
G1 X92.041 Y145.193 E16.15187
G1 X91.653 Y145.091 E16.17189
G1 X90.904 Y144.864 E16.21093
G1 X90.288 Y144.635 E16.24372
G1 X89.924 Y144.458 E16.26391
G1 X89.23 Y144.087 E16.30317
G1 X88.671 Y143.743 E16.33592
G1 X88.344 Y143.494 E16.35643
G1 X87.739 Y142.996 E16.39552
G1 X87.258 Y142.549 E16.42828
G1 X86.996 Y142.252 E16.44804
G1 X86.525 Y141.678 E16.48508
G1 X86.14 Y141.146 E16.51784
G1 X85.96 Y140.841 E16.53551
G1 X85.586 Y140.156 E16.57445
G1 X85.307 Y139.561 E16.60724
G1 X85.177 Y139.194 E16.62666
G1 X84.942 Y138.45 E16.66559
G1 X84.782 Y137.813 E16.69835
G1 X84.724 Y137.417 E16.71832
G1 X84.638 Y136.638 E16.75742
G1 X84.605 Y136.046 E16.787
G1 X84.6 Y104.002 E18.38568
G1 X84.625 Y103.477 E18.41191
G1 X84.697 Y102.738 E18.44895
G1 X84.801 Y102.09 E18.48169
G1 X84.888 Y101.751 E18.49915
G1 X85.106 Y101.003 E18.53802
G1 X85.328 Y100.385 E18.57078
G1 X85.502 Y100.017 E18.59109
G1 X85.865 Y99.321 E18.63026
G1 X86.204 Y98.758 E18.66304
G1 X86.443 Y98.437 E18.68301
G1 X86.961 Y97.792 E18.72428
G1 X87.045 Y97.699 E18.73053
G0 F1080 X87.402 Y97.305
G0 F6000 X87.699 Y97.575
G1 F1200 X87.998 Y97.309 E18.7505
G1 X88.574 Y96.836 E18.78768
G1 X89.345 Y96.315 E18.83411
G1 X90.068 Y95.919 E18.87523
G1 X90.641 Y95.651 E18.90679
G1 X91.02 Y95.519 E18.92682
G1 X91.769 Y95.292 E18.96586
G1 X92.384 Y95.147 E18.99739
G1 X92.729 Y95.101 E19.01475
G1 X93.511 Y95.024 E19.05395
G1 X94.001 Y95 E19.07843
G1 X125.999 Y95 E20.67482
G1 X126.489 Y95.024 E20.69929
G1 X127.271 Y95.101 E20.73849
G1 X127.895 Y95.203 E20.77004
G1 X128.231 Y95.292 E20.78738
G1 X128.98 Y95.519 E20.82643
G1 X129.572 Y95.74 E20.85795
G1 X129.887 Y95.895 E20.87547
G1 X130.581 Y96.266 E20.91473
G1 X131.119 Y96.598 E20.94627
G1 X131.4 Y96.814 E20.96395
G1 X132.003 Y97.31 E21.0029
G1 X132.465 Y97.741 E21.03443
G1 X132.691 Y97.998 E21.0515
G1 X133.164 Y98.574 E21.08868
G1 X133.688 Y99.351 E21.13544
G1 X134.062 Y100.036 E21.17438
G1 X134.33 Y100.609 E21.20594
G1 X134.441 Y100.924 E21.2226
G1 X134.676 Y101.667 E21.26148
G1 X134.828 Y102.281 E21.29303
G1 X134.879 Y102.627 E21.31048
G1 X134.965 Y103.407 E21.34963
G1 X134.995 Y103.954 E21.37696
G1 X135 Y135.998 E22.97565
G1 X134.976 Y136.485 E22.99997
G1 X134.904 Y137.222 E23.03692
G1 X134.729 Y138.132 E23.08315
G1 X134.511 Y138.882 E23.12211
G1 X134.297 Y139.476 E23.15361
G1 X134.143 Y139.798 E23.17142
G1 X133.78 Y140.494 E23.21058
G1 X133.453 Y141.035 E23.24212
G1 X133.245 Y141.313 E23.25944
G1 X132.727 Y141.958 E23.30071
G1 X132.301 Y142.425 E23.33225
G1 X132.002 Y142.691 E23.35222
G1 X131.426 Y143.164 E23.3894
G1 X130.655 Y143.685 E23.43583
G1 X129.932 Y144.081 E23.47695
G1 X129.359 Y144.349 E23.50851
G1 X128.98 Y144.481 E23.52853
G1 X128.231 Y144.708 E23.56758
G1 X127.616 Y144.853 E23.5991
G1 X127.271 Y144.899 E23.61647
G1 X126.489 Y144.976 E23.65567
G1 X125.999 Y145 E23.68015
G1 X94.001 Y145 E25.27653
G1 X93.511 Y144.976 E25.30101
G1 X92.729 Y144.899 E25.34021
G1 X92.105 Y144.797 E25.37176
G1 X91.769 Y144.708 E25.3891
G1 X91.02 Y144.481 E25.42814
G1 X90.428 Y144.26 E25.45967
G1 X90.113 Y144.105 E25.47718
G1 X89.419 Y143.734 E25.51645
G1 X88.881 Y143.402 E25.54799
G1 X88.598 Y143.185 E25.56578
G1 X87.993 Y142.687 E25.60487
G1 X87.532 Y142.256 E25.63636
G1 X87.306 Y141.999 E25.65343
G1 X86.835 Y141.425 E25.69047
G1 X86.312 Y140.649 E25.73716
G1 X85.938 Y139.964 E25.7761
G1 X85.67 Y139.391 E25.80766
G1 X85.558 Y139.074 E25.82443
G1 X85.323 Y138.33 E25.86336
G1 X85.171 Y137.716 E25.89491
G1 X85.121 Y137.373 E25.91221
G1 X85.035 Y136.594 E25.95131
G1 X85.005 Y136.046 E25.97869
G1 X85 Y104.002 E27.57737
G1 X85.024 Y103.516 E27.60165
G1 X85.096 Y102.777 E27.63869
G1 X85.272 Y101.863 E27.68513
G1 X85.49 Y101.115 E27.724
G1 X85.705 Y100.52 E27.75556
G1 X85.857 Y100.202 E27.77315
G1 X86.22 Y99.506 E27.81231
G1 X86.547 Y98.965 E27.84385
G1 X86.755 Y98.687 E27.86117
G1 X87.273 Y98.042 E27.90244
G1 X87.341 Y97.968 E27.90745
G0 F1080 X87.699 Y97.575
G0 F6000 X87.994 Y97.846
G1 F1200 X88.252 Y97.618 E27.92463
G1 X88.828 Y97.145 E27.96182
G1 X89.537 Y96.666 E28.0045
G1 X90.26 Y96.27 E28.04563
G1 X90.81 Y96.014 E28.0759
G1 X91.136 Y95.902 E28.09309
G1 X91.885 Y95.675 E28.13214
G1 X92.768 Y95.499 E28.17706
G1 X93.55 Y95.422 E28.21626
G1 X94.001 Y95.4 E28.23879
G1 X125.999 Y95.4 E29.83518
G1 X126.45 Y95.422 E29.8577
G1 X127.232 Y95.499 E29.89691
G1 X128.115 Y95.675 E29.94183
G1 X128.864 Y95.902 E29.98087
G1 X129.699 Y96.247 E30.02595
G1 X130.393 Y96.618 E30.06521
G1 X131.146 Y97.122 E30.11041
G1 X131.749 Y97.618 E30.14937
G1 X132.382 Y98.252 E30.19406
G1 X132.855 Y98.828 E30.23125
G1 X133.337 Y99.543 E30.27427
G1 X133.711 Y100.228 E30.3132
G1 X134.06 Y101.045 E30.35753
G1 X134.295 Y101.788 E30.39641
G1 X134.481 Y102.671 E30.44143
G1 X134.567 Y103.451 E30.48058
G1 X134.595 Y103.954 E30.50571
G1 X134.6 Y135.998 E32.10439
G1 X134.578 Y136.446 E32.12677
G1 X134.506 Y137.183 E32.16371
G1 X134.345 Y138.02 E32.20624
G1 X134.127 Y138.77 E32.2452
G1 X133.92 Y139.34 E32.27546
G1 X133.789 Y139.613 E32.29056
G1 X133.426 Y140.309 E32.32973
G1 X132.934 Y141.062 E32.3746
G1 X132.416 Y141.707 E32.41587
G1 X132.006 Y142.154 E32.44614
G1 X131.748 Y142.382 E32.46331
G1 X131.172 Y142.855 E32.5005
G1 X130.463 Y143.334 E32.54319
G1 X129.74 Y143.73 E32.58431
G1 X129.19 Y143.986 E32.61458
G1 X128.864 Y144.098 E32.63178
G1 X128.115 Y144.325 E32.67082
G1 X127.232 Y144.501 E32.71574
G1 X126.45 Y144.578 E32.75494
G1 X125.999 Y144.6 E32.77747
G1 X94.001 Y144.6 E34.37386
G1 X93.55 Y144.578 E34.39639
G1 X92.768 Y144.501 E34.43559
G1 X91.885 Y144.325 E34.48051
G1 X91.136 Y144.098 E34.51955
G1 X90.301 Y143.753 E34.56463
G1 X89.607 Y143.382 E34.60389
G1 X88.853 Y142.877 E34.64916
G1 X88.248 Y142.379 E34.68826
G1 X87.615 Y141.745 E34.73295
G1 X87.144 Y141.171 E34.77
G1 X86.663 Y140.457 E34.81295
G1 X86.289 Y139.772 E34.85189
G1 X85.94 Y138.953 E34.8963
G1 X85.705 Y138.209 E34.93523
G1 X85.519 Y137.329 E34.9801
G1 X85.433 Y136.55 E35.0192
G1 X85.405 Y136.046 E35.04438
G1 X85.4 Y104.002 E36.64307
G1 X85.422 Y103.555 E36.66539
G1 X85.494 Y102.816 E36.70244
G1 X85.656 Y101.975 E36.74517
G1 X85.874 Y101.227 E36.78404
G1 X86.211 Y100.387 E36.82919
G1 X86.574 Y99.691 E36.86835
G1 X87.066 Y98.938 E36.91323
G1 X87.584 Y98.293 E36.9545
G1 X87.635 Y98.238 E36.95824
G0 F1080 X87.994 Y97.846
G0 F6000 X88.506 Y97.927
G1 F1200 X89.082 Y97.454 E36.99543
G1 X89.729 Y97.016 E37.03441
G1 X90.452 Y96.62 E37.07553
G1 X91.252 Y96.285 E37.1188
G1 X92.001 Y96.058 E37.15785
G1 X92.807 Y95.897 E37.19886
G1 X93.589 Y95.82 E37.23806
G1 X94.001 Y95.8 E37.25864
G1 X125.999 Y95.8 E38.85503
G1 X126.411 Y95.82 E38.8756
G1 X127.193 Y95.897 E38.91481
G1 X127.999 Y96.058 E38.95581
G1 X128.748 Y96.285 E38.99486
G1 X129.51 Y96.6 E39.036
G1 X130.204 Y96.971 E39.07526
G1 X130.892 Y97.431 E39.11655
G1 X131.495 Y97.927 E39.1555
G1 X132.073 Y98.506 E39.19632
G1 X132.546 Y99.082 E39.2335
G1 X132.986 Y99.734 E39.27274
G1 X133.36 Y100.419 E39.31168
G1 X133.678 Y101.165 E39.35214
G1 X133.913 Y101.908 E39.39102
G1 X134.084 Y102.715 E39.43217
G1 X134.17 Y103.495 E39.47132
G1 X134.195 Y103.954 E39.49426
G1 X134.2 Y135.998 E41.09294
G1 X134.18 Y136.407 E41.11337
G1 X134.108 Y137.144 E41.15031
G1 X133.961 Y137.908 E41.18913
G1 X133.743 Y138.658 E41.22809
G1 X133.434 Y139.428 E41.26949
G1 X133.071 Y140.124 E41.30865
G1 X132.622 Y140.812 E41.34964
G1 X132.104 Y141.457 E41.39091
G1 X131.494 Y142.073 E41.43416
G1 X130.918 Y142.546 E41.47134
G1 X130.271 Y142.984 E41.51032
G1 X129.548 Y143.38 E41.55145
G1 X128.748 Y143.715 E41.59472
G1 X127.999 Y143.942 E41.63377
G1 X127.193 Y144.103 E41.67477
G1 X126.411 Y144.18 E41.71397
G1 X125.999 Y144.2 E41.73455
G1 X94.001 Y144.2 E43.33094
G1 X93.589 Y144.18 E43.35152
G1 X92.807 Y144.103 E43.39072
G1 X92.001 Y143.942 E43.43173
G1 X91.252 Y143.715 E43.47077
G1 X90.49 Y143.4 E43.51191
G1 X89.796 Y143.029 E43.55117
G1 X89.107 Y142.568 E43.59253
G1 X88.502 Y142.07 E43.63162
G1 X87.924 Y141.491 E43.67244
G1 X87.453 Y140.917 E43.70948
G1 X87.014 Y140.266 E43.74866
G1 X86.64 Y139.581 E43.78759
G1 X86.321 Y138.833 E43.82816
G1 X86.086 Y138.089 E43.86709
G1 X85.916 Y137.285 E43.90809
G1 X85.83 Y136.506 E43.94719
G1 X85.805 Y136.046 E43.97017
G1 X85.8 Y104.002 E45.56885
G1 X85.82 Y103.594 E45.58923
G1 X85.892 Y102.855 E45.62628
G1 X86.04 Y102.087 E45.6653
G1 X86.258 Y101.339 E45.70417
G1 X86.566 Y100.572 E45.7454
G1 X86.929 Y99.876 E45.78457
G1 X87.378 Y99.188 E45.82555
G1 X87.896 Y98.543 E45.86683
G1 X88.132 Y98.305 E45.88355
G0 F1080 X88.506 Y97.927
G0 F6000 X88.759 Y98.236
G1 F1200 X89.335 Y97.763 E45.92073
G1 X89.922 Y97.367 E45.95606
G1 X90.645 Y96.971 E45.99719
G1 X91.368 Y96.667 E46.03631
G1 X92.117 Y96.44 E46.07536
G1 X92.847 Y96.295 E46.11249
G1 X93.629 Y96.218 E46.1517
G1 X94.001 Y96.2 E46.17028
G1 X125.999 Y96.2 E47.76666
G1 X126.371 Y96.218 E47.78524
G1 X127.153 Y96.295 E47.82445
G1 X127.883 Y96.44 E47.86158
G1 X128.632 Y96.667 E47.90062
G1 X129.321 Y96.953 E47.93784
G1 X130.015 Y97.324 E47.9771
G1 X130.638 Y97.74 E48.01448
G1 X131.241 Y98.236 E48.05343
G1 X131.764 Y98.759 E48.09033
G1 X132.237 Y99.335 E48.12751
G1 X132.635 Y99.926 E48.16306
G1 X133.009 Y100.611 E48.202
G1 X133.297 Y101.286 E48.23861
G1 X133.532 Y102.029 E48.27749
G1 X133.686 Y102.759 E48.31471
G1 X133.772 Y103.539 E48.35386
G1 X133.795 Y103.954 E48.3746
G1 X133.8 Y135.998 E49.97328
G1 X133.782 Y136.368 E49.99176
G1 X133.71 Y137.105 E50.02871
G1 X133.577 Y137.797 E50.06386
G1 X133.359 Y138.547 E50.10283
G1 X133.079 Y139.243 E50.14026
G1 X132.716 Y139.939 E50.17942
G1 X132.31 Y140.561 E50.21648
