;FLAVOR:Marlin
;TIME:3781
;Filament used: 2.3103m
;Layer height: 0.2
;MINX:87.937
;MINY:97.991
;MINZ:0.3
;MAXX:132.063
;MAXY:142.015
;MAXZ:12.7
;Generated with Cura_SteamEngine 4.4.1
M140 S60
M105
M190 S60
M104 S205
M105
M109 S205
M82 ;absolute extrusion mode
M201 X500.00 Y500.00 Z100.00 E5000.00 ;Setup machine max acceleration
M203 X500.00 Y500.00 Z10.00 E75.00 ;Setup machine max feedrate
M204 P500.00 R1000.00 T500.00 ;Setup Print/Retract/Travel acceleration
M205 X8.00 Y8.00 Z0.40 E5.00 ;Setup Jerk
M220 S100 ;Reset Feedrate
M221 S100 ;Reset Flowrate

G21 ; (metric values)
G90 ; (absolute positioning)
M82 ; (set extruder to absolute mode)
G28 ; (home all axis)
G29 ; (Auto Level)

G92 E0 ;Reset Extruder
G1 Z2.0 F3000 ;Move Z Axis up
G1 X1.1 Y50 Z0.28 F5000.0 ;Move to start position
G1 X1.1 Y200.0 Z0.28 F1500.0 E15 ;Draw the first line
G1 X1.4 Y200.0 Z0.28 F5000.0 ;Move to side a little
G1 X1.4 Y100 Z0.28 F1500.0 E30 ;Draw the second line
G92 E0 ;Reset Extruder
G1 Z2.0 F3000 ;Move Z Axis up
G92 E0
G92 E0
G1 F3000 E-6
;LAYER_COUNT:63
;LAYER:0
M107
G1 F300 Z0.65
G0 F6000 X95.418 Y103.351 Z0.65
;TYPE:SKIRT
G1 F300 Z0.3
G1 F3000 E0
G1 F1200 X95.555 Y103.236 E0.00892
G1 X95.717 Y103.113 E0.01907
G1 X96.041 Y102.917 E0.03796
G1 X96.401 Y102.793 E0.05696
G1 X96.722 Y102.719 E0.07339
G1 X97.098 Y102.673 E0.09229
G1 X97.638 Y102.747 E0.11949
G1 X97.948 Y102.839 E0.13562
G1 X98.031 Y102.874 E0.14011
G1 X98.483 Y102.565 E0.16743
G1 X98.472 Y102.435 E0.17394
G1 X98.568 Y101.896 E0.20125
G1 X98.675 Y101.581 E0.21785
G1 X98.834 Y101.237 E0.23676
G1 X99.061 Y100.934 E0.25564
G1 X99.201 Y100.799 E0.26535
G1 X99.446 Y100.587 E0.28151
G1 X99.843 Y100.326 E0.30521
G1 X100.954 Y99.791 E0.36673
G1 X101.127 Y99.719 E0.37608
G1 X101.322 Y99.649 E0.38642
G1 X101.69 Y99.559 E0.40532
G1 X102.045 Y99.547 E0.42304
G1 X102.373 Y99.568 E0.43944
G1 X102.747 Y99.632 E0.45837
G1 X103.098 Y99.772 E0.47722
G1 X103.265 Y99.872 E0.48693
G1 X103.533 Y100.053 E0.50307
G1 X103.593 Y100.104 E0.507
G1 X104.115 Y99.943 E0.53425
G1 X104.14 Y99.824 E0.54032
G1 X104.395 Y99.326 E0.56823
G1 X104.592 Y99.055 E0.58494
G1 X104.846 Y98.773 E0.60388
G1 X105.153 Y98.551 E0.62278
G1 X105.324 Y98.465 E0.63233
G1 X105.62 Y98.335 E0.64846
G1 X106.076 Y98.203 E0.67214
G1 X107.298 Y98.019 E0.73379
G1 X107.469 Y98.002 E0.74237
G1 X107.672 Y97.991 E0.75251
G1 X108.05 Y98.01 E0.77139
G1 X108.427 Y98.113 E0.79089
G1 X108.735 Y98.234 E0.8074
G1 X109.071 Y98.409 E0.8263
G1 X109.477 Y98.778 E0.85367
G1 X109.679 Y99.028 E0.86971
G1 X109.722 Y99.095 E0.87368
G1 X110.27 Y99.095 E0.90102
G1 X110.33 Y98.988 E0.90714
G1 X110.58 Y98.703 E0.92605
G1 X110.732 Y98.578 E0.93587
G1 X111.001 Y98.38 E0.95254
G1 X111.328 Y98.189 E0.97143
G1 X111.85 Y98.043 E0.99847
G1 X112.17 Y98.004 E1.01455
G1 X112.655 Y98.011 E1.03875
G1 X113.877 Y98.194 E1.1004
G1 X114.053 Y98.229 E1.10935
G1 X114.25 Y98.279 E1.11949
G1 X114.605 Y98.411 E1.13839
G1 X114.93 Y98.617 E1.15758
G1 X115.188 Y98.823 E1.17406
G1 X115.458 Y99.09 E1.193
G1 X115.736 Y99.561 E1.22029
G1 X115.856 Y99.861 E1.23641
G1 X115.879 Y99.941 E1.24056
G1 X116.402 Y100.102 E1.26786
G1 X116.496 Y100.013 E1.27432
G1 X116.985 Y99.748 E1.30207
G1 X117.296 Y99.637 E1.31854
G1 X117.664 Y99.548 E1.33743
G1 X118.224 Y99.561 E1.36538
G1 X118.542 Y99.619 E1.3815
G1 X118.998 Y99.767 E1.40542
G1 X120.113 Y100.302 E1.46712
G1 X120.272 Y100.389 E1.47616
G1 X120.444 Y100.494 E1.48622
G1 X120.745 Y100.724 E1.50512
G1 X120.991 Y101.013 E1.52405
G1 X121.176 Y101.283 E1.54038
G1 X121.356 Y101.616 E1.55926
G1 X121.484 Y102.142 E1.58627
G1 X121.513 Y102.472 E1.6028
G1 X121.511 Y102.561 E1.60724
G1 X121.966 Y102.87 E1.63468
G1 X122.085 Y102.812 E1.64129
G1 X122.616 Y102.705 E1.66831
G1 X122.945 Y102.689 E1.68474
G1 X123.323 Y102.711 E1.70363
G1 X123.848 Y102.883 E1.7312
G1 X124.139 Y103.031 E1.74748
G1 X124.55 Y103.318 E1.77249
G1 X125.454 Y104.16 E1.83413
G1 X125.572 Y104.281 E1.84256
G1 X125.708 Y104.434 E1.85277
G1 X125.929 Y104.742 E1.87168
G1 X126.084 Y105.102 E1.89124
G1 X126.181 Y105.418 E1.90773
G1 X126.253 Y105.79 E1.92663
G1 X126.218 Y106.333 E1.95378
G1 X126.148 Y106.651 E1.97002
G1 X126.123 Y106.726 E1.97397
G1 X126.466 Y107.155 E2.00137
G1 X126.603 Y107.134 E2.00829
G1 X127.144 Y107.19 E2.03542
G1 X127.463 Y107.273 E2.05187
G1 X127.818 Y107.406 E2.07078
G1 X128.137 Y107.611 E2.0897
G1 X128.28 Y107.739 E2.09927
G1 X128.511 Y107.969 E2.11554
G1 X128.799 Y108.344 E2.13913
G1 X129.416 Y109.411 E2.20062
G1 X129.505 Y109.587 E2.21046
G1 X129.586 Y109.771 E2.22049
G1 X129.702 Y110.132 E2.2394
G1 X129.739 Y110.469 E2.25632
G1 X129.744 Y110.799 E2.27278
G1 X129.71 Y111.176 E2.29167
G1 X129.597 Y111.538 E2.31059
G1 X129.509 Y111.715 E2.32045
G1 X129.347 Y112 E2.33681
G1 X129.299 Y112.066 E2.34088
G1 X129.5 Y112.576 E2.36823
G1 X129.635 Y112.595 E2.37503
G1 X130.143 Y112.81 E2.40255
G1 X130.422 Y112.983 E2.41893
G1 X130.721 Y113.216 E2.43784
G1 X130.965 Y113.506 E2.45675
G1 X131.064 Y113.671 E2.46635
G1 X131.217 Y113.96 E2.48266
G1 X131.38 Y114.399 E2.50602
G1 X131.656 Y115.599 E2.56745
G1 X131.691 Y115.799 E2.57758
G1 X131.714 Y116.002 E2.58778
G1 X131.716 Y116.381 E2.60668
G1 X131.651 Y116.716 E2.62371
G1 X131.558 Y117.03 E2.64005
G1 X131.413 Y117.38 E2.65895
G1 X131.069 Y117.827 E2.68709
G1 X130.831 Y118.052 E2.70343
G1 X130.762 Y118.105 E2.70777
G1 X130.806 Y118.651 E2.7351
G1 X130.923 Y118.706 E2.74155
G1 X131.353 Y119.069 E2.76962
G1 X131.569 Y119.319 E2.78611
G1 X131.785 Y119.63 E2.805
G1 X131.975 Y120.157 E2.83295
G1 X132.036 Y120.475 E2.8491
G1 X132.063 Y120.945 E2.87259
G1 X131.973 Y122.174 E2.93407
G1 X131.949 Y122.367 E2.94377
G1 X131.912 Y122.569 E2.95401
G1 X131.804 Y122.933 E2.97296
G1 X131.635 Y123.249 E2.99084
G1 X131.453 Y123.52 E3.00712
G1 X131.21 Y123.81 E3.026
G1 X130.753 Y124.131 E3.05386
G1 X130.458 Y124.276 E3.07026
G1 X130.382 Y124.304 E3.0743
G1 X130.259 Y124.839 E3.10169
G1 X130.355 Y124.926 E3.10815
G1 X130.66 Y125.4 E3.13627
G1 X130.791 Y125.697 E3.15247
G1 X130.906 Y126.057 E3.17132
G1 X130.934 Y126.61 E3.19895
G1 X130.9 Y126.936 E3.2153
G1 X130.786 Y127.407 E3.23948
G1 X130.32 Y128.594 E3.30309
G1 X130.096 Y129 E3.32623
G1 X129.901 Y129.266 E3.34268
G1 X129.646 Y129.547 E3.36161
G1 X129.168 Y129.852 E3.3899
G1 X128.872 Y129.981 E3.40601
G1 X128.511 Y130.095 E3.4249
G1 X128.193 Y130.111 E3.44078
G1 X127.915 Y130.593 E3.46854
G1 X127.981 Y130.706 E3.47507
G1 X128.132 Y131.247 E3.5031
G1 X128.17 Y131.576 E3.51962
G1 X128.174 Y131.955 E3.53853
G1 X128.031 Y132.504 E3.56683
G1 X127.902 Y132.799 E3.58289
G1 X127.662 Y133.199 E3.60617
G1 X126.868 Y134.197 E3.66979
G1 X126.532 Y134.521 E3.69308
G1 X126.268 Y134.717 E3.70948
G1 X125.942 Y134.91 E3.72839
G1 X125.404 Y135.06 E3.75625
G1 X125.079 Y135.098 E3.77257
G1 X124.7 Y135.102 E3.79148
G1 X124.371 Y135.036 E3.80823
G1 X123.977 Y135.402 E3.83505
G1 X124.008 Y135.535 E3.84187
G1 X123.994 Y136.076 E3.86887
G1 X123.937 Y136.396 E3.88508
G1 X123.832 Y136.76 E3.90398
G1 X123.653 Y137.094 E3.92289
G1 X123.536 Y137.247 E3.9325
G1 X123.324 Y137.496 E3.94881
G1 X122.967 Y137.816 E3.97273
G1 X121.911 Y138.536 E4.0365
G1 X121.493 Y138.748 E4.05988
G1 X121.185 Y138.856 E4.07616
G1 X120.816 Y138.943 E4.09508
G1 X120.266 Y138.928 E4.12253
G1 X119.948 Y138.87 E4.13865
G1 X119.584 Y138.763 E4.15758
G1 X119.302 Y138.592 E4.17404
G1 X118.8 Y138.833 E4.20182
G1 X118.791 Y138.963 E4.20832
G1 X118.613 Y139.49 E4.23607
G1 X118.46 Y139.783 E4.25256
G1 X118.25 Y140.099 E4.27149
G1 X117.829 Y140.47 E4.29949
G1 X117.555 Y140.644 E4.31568
G1 X117.124 Y140.843 E4.33936
G1 X115.906 Y141.221 E4.40299
G1 X115.444 Y141.301 E4.42638
G1 X115.117 Y141.314 E4.44271
G1 X114.738 Y141.289 E4.46166
G1 X114.216 Y141.113 E4.48914
G1 X113.927 Y140.963 E4.50539
G1 X113.611 Y140.754 E4.52429
G1 X113.39 Y140.505 E4.5409
G1 X112.839 Y140.588 E4.5687
G1 X112.796 Y140.702 E4.57477
G1 X112.466 Y141.16 E4.60294
G1 X112.233 Y141.395 E4.61945
G1 X111.94 Y141.635 E4.63834
G1 X111.426 Y141.865 E4.66644
G1 X111.109 Y141.951 E4.68282
G1 X110.639 Y142.014 E4.70648
G1 X109.388 Y142.015 E4.7689
G1 X108.955 Y141.962 E4.79066
G1 X108.619 Y141.879 E4.80793
G1 X108.263 Y141.75 E4.82682
G1 X107.942 Y141.55 E4.84569
G1 X107.784 Y141.41 E4.85622
G1 X107.55 Y141.178 E4.87266
G1 X107.31 Y140.885 E4.89155
G1 X107.178 Y140.591 E4.90763
G1 X106.626 Y140.507 E4.93549
G1 X106.547 Y140.608 E4.94189
G1 X106.099 Y140.946 E4.96988
G1 X105.808 Y141.101 E4.98633
G1 X105.457 Y141.243 E5.00522
G1 X104.918 Y141.311 E5.03233
G1 X104.59 Y141.303 E5.0487
G1 X104.102 Y141.224 E5.07336
G1 X102.884 Y140.847 E5.13697
G1 X102.464 Y140.655 E5.16001
G1 X102.188 Y140.483 E5.17623
G1 X101.889 Y140.249 E5.19518
G1 X101.55 Y139.799 E5.22328
G1 X101.396 Y139.509 E5.23967
G1 X101.255 Y139.158 E5.25854
G1 X101.215 Y138.84 E5.27453
G1 X100.711 Y138.598 E5.30242
G1 X100.594 Y138.678 E5.30949
G1 X100.09 Y138.86 E5.33623
G1 X99.77 Y138.924 E5.35251
G1 X99.393 Y138.959 E5.3714
G1 X99.016 Y138.914 E5.39034
G1 X98.828 Y138.86 E5.4001
G1 X98.519 Y138.753 E5.41641
G1 X98.095 Y138.54 E5.44008
G1 X97.039 Y137.821 E5.50382
G1 X96.689 Y137.509 E5.52721
G1 X96.475 Y137.261 E5.54356
G1 X96.259 Y136.95 E5.56245
G1 X96.07 Y136.422 E5.59042
G1 X96.01 Y136.107 E5.60642
G1 X95.978 Y135.729 E5.62535
G1 X96.034 Y135.412 E5.64141
G1 X95.623 Y135.031 E5.66937
G1 X95.501 Y135.07 E5.67576
G1 X94.962 Y135.098 E5.70269
G1 X94.637 Y135.066 E5.71898
G1 X94.266 Y134.99 E5.73787
G1 X93.919 Y134.837 E5.75679
G1 X93.755 Y134.731 E5.76653
G1 X93.488 Y134.537 E5.783
G1 X93.138 Y134.203 E5.80714
G1 X92.343 Y133.205 E5.87079
G1 X92.103 Y132.807 E5.89398
G1 X91.972 Y132.509 E5.91022
G1 X91.857 Y132.148 E5.92912
G1 X91.829 Y131.601 E5.95645
G1 X91.862 Y131.28 E5.97255
G1 X91.941 Y130.909 E5.99147
G1 X92.095 Y130.607 E6.00839
G1 X91.817 Y130.125 E6.03615
G1 X91.686 Y130.126 E6.04268
G1 X91.139 Y129.986 E6.07085
G1 X90.839 Y129.856 E6.08716
G1 X90.509 Y129.669 E6.10609
G1 X90.115 Y129.284 E6.13357
G1 X89.92 Y129.024 E6.14978
G1 X89.685 Y128.603 E6.17384
G1 X89.217 Y127.413 E6.23763
G1 X89.103 Y126.956 E6.26113
G1 X89.066 Y126.629 E6.27755
G1 X89.064 Y126.25 E6.29646
G1 X89.203 Y125.713 E6.32413
G1 X89.331 Y125.417 E6.34022
G1 X89.517 Y125.087 E6.35912
G1 X89.743 Y124.856 E6.37524
G1 X89.618 Y124.311 E6.40314
G1 X89.496 Y124.274 E6.4095
G1 X89.024 Y123.985 E6.43711
G1 X88.772 Y123.771 E6.45361
G1 X88.51 Y123.497 E6.47252
G1 X88.312 Y123.174 E6.49142
G1 X88.238 Y122.993 E6.50118
G1 X88.13 Y122.684 E6.51751
G1 X88.034 Y122.227 E6.5408
G1 X87.937 Y120.958 E6.6043
G1 X87.962 Y120.495 E6.62743
G1 X88.021 Y120.175 E6.64367
G1 X88.128 Y119.811 E6.66259
G1 X88.42 Y119.334 E6.6905
G1 X88.632 Y119.085 E6.70681
G1 X88.907 Y118.824 E6.72573
G1 X89.194 Y118.668 E6.74202
G1 X89.235 Y118.109 E6.76999
G1 X89.13 Y118.039 E6.77628
G1 X88.762 Y117.62 E6.80411
G1 X88.586 Y117.343 E6.82048
G1 X88.417 Y117.004 E6.83938
G1 X88.307 Y116.471 E6.86653
G1 X88.29 Y116.141 E6.88301
G1 X88.333 Y115.648 E6.9077
G1 X88.616 Y114.407 E6.97121
G1 X88.777 Y113.971 E6.99439
G1 X88.928 Y113.683 E7.01062
G1 X89.138 Y113.368 E7.02951
G1 X89.56 Y112.998 E7.05751
G1 X89.835 Y112.824 E7.07374
G1 X90.174 Y112.656 E7.09262
G1 X90.494 Y112.59 E7.10892
G1 X90.698 Y112.068 E7.13688
G1 X90.611 Y111.96 E7.1438
G1 X90.386 Y111.455 E7.17138
G1 X90.3 Y111.137 E7.18782
G1 X90.241 Y110.763 E7.2067
G1 X90.294 Y110.22 E7.23392
G1 X90.374 Y109.908 E7.24999
G1 X90.559 Y109.455 E7.27441
G1 X91.197 Y108.35 E7.33806
G1 X91.478 Y107.983 E7.36112
G1 X91.707 Y107.752 E7.37735
G1 X92 Y107.512 E7.39625
G1 X92.51 Y107.283 E7.42414
G1 X92.828 Y107.196 E7.44059
G1 X93.202 Y107.135 E7.45949
G1 X93.527 Y107.167 E7.47578
G1 X93.874 Y106.729 E7.50366
G1 X93.824 Y106.605 E7.51033
G1 X93.757 Y106.054 E7.53803
G1 X93.768 Y105.723 E7.55455
G1 X93.82 Y105.348 E7.57344
G1 X94.042 Y104.827 E7.60169
G1 X94.213 Y104.554 E7.61776
G1 X94.513 Y104.191 E7.64126
G1 X95.028 Y103.713 E7.67631
G0 F1080 X95.418 Y103.351
G0 F6000 X95.691 Y103.644
G1 F1200 X95.796 Y103.555 E7.68318
G1 X95.958 Y103.432 E7.69333
G1 X96.247 Y103.263 E7.71003
G1 X96.491 Y103.183 E7.72284
G1 X96.812 Y103.109 E7.73927
G1 X97.144 Y103.073 E7.75594
G1 X97.524 Y103.131 E7.77511
G1 X97.834 Y103.223 E7.79125
G1 X98.076 Y103.327 E7.80439
G1 X98.894 Y102.768 E7.85382
G1 X98.902 Y102.763 E7.85429
G1 X98.897 Y102.738 E7.85556
G1 X98.874 Y102.404 E7.87226
G1 X98.946 Y102.025 E7.89151
G1 X99.053 Y101.71 E7.90811
G1 X99.198 Y101.408 E7.92482
G1 X99.463 Y101.101 E7.94505
G1 X99.708 Y100.889 E7.96122
G1 X100.017 Y100.687 E7.97963
G1 X101.128 Y100.152 E8.04115
G1 X101.262 Y100.095 E8.04842
G1 X101.457 Y100.025 E8.05875
G1 X101.783 Y99.951 E8.07543
G1 X102.019 Y99.946 E8.08721
G1 X102.347 Y99.967 E8.10361
G1 X102.676 Y100.028 E8.1203
G1 X103.042 Y100.204 E8.14056
G1 X103.31 Y100.385 E8.1567
G1 X103.501 Y100.551 E8.16932
G1 X104.449 Y100.258 E8.21882
G1 X104.457 Y100.256 E8.21924
G1 X104.459 Y100.237 E8.22019
G1 X104.533 Y99.911 E8.23687
G1 X104.719 Y99.561 E8.25664
G1 X104.916 Y99.29 E8.27336
G1 X105.143 Y99.045 E8.29002
G1 X105.485 Y98.831 E8.31015
G1 X105.781 Y98.701 E8.32628
G1 X106.136 Y98.599 E8.3447
G1 X107.358 Y98.415 E8.40636
G1 X107.49 Y98.401 E8.41298
G1 X107.693 Y98.39 E8.42312
G1 X108.027 Y98.412 E8.43982
G1 X108.281 Y98.485 E8.45301
G1 X108.589 Y98.606 E8.46952
G1 X108.883 Y98.764 E8.48617
G1 X109.166 Y99.029 E8.50551
G1 X109.368 Y99.279 E8.52155
G1 X109.503 Y99.495 E8.53425
G1 X110.504 Y99.495 E8.58419
G1 X110.512 Y99.476 E8.58522
G1 X110.68 Y99.187 E8.6019
G1 X110.969 Y98.901 E8.62218
G1 X111.238 Y98.703 E8.63885
G1 X111.529 Y98.538 E8.65554
G1 X111.899 Y98.44 E8.67463
G1 X112.219 Y98.401 E8.69072
G1 X112.595 Y98.406 E8.70948
G1 X113.817 Y98.589 E8.77112
G1 X113.954 Y98.617 E8.7781
G1 X114.151 Y98.667 E8.78824
G1 X114.463 Y98.787 E8.80492
G1 X114.681 Y98.93 E8.81792
G1 X114.939 Y99.136 E8.83439
G1 X115.173 Y99.374 E8.85105
G1 X115.365 Y99.71 E8.87035
G1 X115.485 Y100.01 E8.88647
G1 X115.551 Y100.258 E8.89928
G1 X116.51 Y100.553 E8.94933
G1 X116.526 Y100.534 E8.95057
G1 X116.771 Y100.307 E8.96724
G1 X117.119 Y100.124 E8.98685
G1 X117.43 Y100.013 E9.00333
G1 X117.756 Y99.94 E9.01999
G1 X118.152 Y99.955 E9.03976
G1 X118.47 Y100.013 E9.05589
G1 X118.825 Y100.128 E9.07451
G1 X119.94 Y100.663 E9.13621
G1 X120.063 Y100.73 E9.1432
G1 X120.235 Y100.835 E9.15325
G1 X120.498 Y101.042 E9.16995
G1 X120.661 Y101.239 E9.1827
G1 X120.846 Y101.509 E9.19903
G1 X121.001 Y101.805 E9.2157
G1 X121.086 Y102.177 E9.23474
G1 X121.115 Y102.507 E9.25127
G1 X121.106 Y102.769 E9.26435
G1 X121.923 Y103.324 E9.31362
G1 X121.935 Y103.333 E9.31437
G1 X121.958 Y103.318 E9.31574
G1 X122.26 Y103.175 E9.33241
G1 X122.635 Y103.105 E9.35144
G1 X122.964 Y103.089 E9.36788
G1 X123.297 Y103.112 E9.38453
G1 X123.667 Y103.239 E9.40405
G1 X123.958 Y103.387 E9.42033
G1 X124.277 Y103.611 E9.43978
G1 X125.181 Y104.453 E9.50141
G1 X125.273 Y104.547 E9.50798
G1 X125.409 Y104.7 E9.51819
G1 X125.6 Y104.974 E9.53485
G1 X125.701 Y105.219 E9.54807
G1 X125.798 Y105.535 E9.56456
G1 X125.858 Y105.864 E9.58125
G1 X125.827 Y106.247 E9.60042
G1 X125.757 Y106.565 E9.61666
G1 X125.673 Y106.804 E9.6293
G1 X126.299 Y107.588 E9.67936
G1 X126.331 Y107.579 E9.68101
G1 X126.662 Y107.532 E9.69769
G1 X127.044 Y107.577 E9.71688
G1 X127.363 Y107.66 E9.73333
G1 X127.673 Y107.782 E9.74995
G1 X127.998 Y108.023 E9.77013
G1 X128.229 Y108.253 E9.7864
G1 X128.453 Y108.544 E9.80472
G1 X129.07 Y109.611 E9.86621
G1 X129.139 Y109.748 E9.87386
G1 X129.22 Y109.932 E9.88389
G1 X129.317 Y110.252 E9.90058
G1 X129.339 Y110.475 E9.91176
G1 X129.344 Y110.805 E9.92822
