;FLAVOR:Marlin
;TIME:20595
;Filament used: 25.7077m
;Layer height: 0.3
;MINX:55.759
;MINY:62.286
;MINZ:0.4
;MAXX:164.327
;MAXY:172.714
;MAXZ:51.1
;Generated with Cura_SteamEngine 4.4.1
M140 S60
M105
M190 S60
M104 S205
M105
M109 S205
M82 ;absolute extrusion mode
M201 X500.00 Y500.00 Z100.00 E5000.00 ;Setup machine max acceleration
M203 X500.00 Y500.00 Z10.00 E75.00 ;Setup machine max feedrate
M204 P500.00 R1000.00 T500.00 ;Setup Print/Retract/Travel acceleration
M205 X8.00 Y8.00 Z0.40 E5.00 ;Setup Jerk
M220 S100 ;Reset Feedrate
M221 S100 ;Reset Flowrate

G21 ; (metric values)
G90 ; (absolute positioning)
M82 ; (set extruder to absolute mode)
G28 ; (home all axis)
G29 ; (Auto Level)

G92 E0 ;Reset Extruder
G1 Z2.0 F3000 ;Move Z Axis up
G1 X1.1 Y50 Z0.28 F5000.0 ;Move to start position
G1 X1.1 Y200.0 Z0.28 F1500.0 E15 ;Draw the first line
G1 X1.4 Y200.0 Z0.28 F5000.0 ;Move to side a little
G1 X1.4 Y100 Z0.28 F1500.0 E30 ;Draw the second line
G92 E0 ;Reset Extruder
G1 Z2.0 F3000 ;Move Z Axis up
G92 E0
G92 E0
G1 F3000 E-6
;LAYER_COUNT:169
;LAYER:0
M107
G1 F300 Z0.7
G0 F6000 X74.792 Y70.031 Z0.7
;TYPE:SKIRT
G1 F300 Z0.4
G1 F3000 E0
G1 F900 X75.329 Y69.518 E0.07558
G1 X75.918 Y69.065 E0.15121
G1 X76.552 Y68.679 E0.22675
G1 X77.224 Y68.362 E0.30238
G1 X77.926 Y68.12 E0.37795
G1 X78.65 Y67.954 E0.45355
G1 X79.388 Y67.868 E0.52917
G1 X79.823 Y67.854 E0.57346
G1 X90.852 Y67.854 E1.69595
G1 X95.561 Y63.902 E2.32163
G1 X96.155 Y63.456 E2.39723
G1 X96.793 Y63.076 E2.4728
G1 X97.468 Y62.767 E2.54836
G1 X98.173 Y62.532 E2.62399
G1 X98.899 Y62.375 E2.69959
G1 X99.997 Y62.287 E2.8117
G1 X118.04 Y62.286 E4.64804
G1 X118.259 Y62.289 E4.67033
G1 X118.58 Y62.299 E4.70302
G1 X120.916 Y62.286 E4.94077
G1 X122.042 Y62.286 E5.05537
G1 X122.784 Y62.326 E5.131
G1 X123.517 Y62.445 E5.20658
G1 X124.233 Y62.643 E5.28218
G1 X124.923 Y62.916 E5.35771
G1 X125.58 Y63.262 E5.43328
G1 X126.476 Y63.899 E5.54517
G1 X126.754 Y64.132 E5.58208
G1 X131.194 Y67.854 E6.17174
G1 X142.153 Y67.854 E7.28711
G1 X142.895 Y67.894 E7.36273
G1 X143.628 Y68.013 E7.43831
G1 X144.344 Y68.211 E7.51392
G1 X145.034 Y68.484 E7.58944
G1 X145.691 Y68.83 E7.66501
G1 X146.308 Y69.245 E7.74069
G1 X146.876 Y69.723 E7.81625
G1 X147.389 Y70.26 E7.89183
G1 X147.842 Y70.849 E7.96746
G1 X148.228 Y71.483 E8.043
G1 X148.545 Y72.155 E8.11862
G1 X148.787 Y72.857 E8.1942
G1 X148.953 Y73.581 E8.26979
G1 X149.039 Y74.319 E8.34541
G1 X149.053 Y74.754 E8.38971
G1 X149.053 Y81.375 E9.06357
G1 X157.427 Y81.375 E9.91584
G1 X158.169 Y81.415 E9.99147
G1 X158.902 Y81.534 E10.06705
G1 X159.618 Y81.732 E10.14265
G1 X160.308 Y82.005 E10.21818
G1 X160.965 Y82.351 E10.29375
G1 X161.582 Y82.766 E10.36943
G1 X162.15 Y83.244 E10.44498
G1 X162.663 Y83.781 E10.52057
G1 X163.116 Y84.37 E10.59619
G1 X163.502 Y85.004 E10.67174
G1 X163.819 Y85.676 E10.74736
G1 X164.061 Y86.378 E10.82293
G1 X164.227 Y87.102 E10.89853
G1 X164.313 Y87.84 E10.97415
G1 X164.327 Y88.275 E11.01844
G1 X164.327 Y129.075 E15.1709
G1 X164.287 Y129.817 E15.24653
G1 X164.168 Y130.55 E15.32211
G1 X163.97 Y131.266 E15.39772
G1 X163.697 Y131.956 E15.47324
G1 X163.351 Y132.613 E15.54881
G1 X162.936 Y133.23 E15.62449
G1 X162.458 Y133.798 E15.70005
G1 X161.921 Y134.311 E15.77563
G1 X161.332 Y134.764 E15.85125
G1 X160.698 Y135.15 E15.9268
G1 X160.026 Y135.467 E16.00242
G1 X159.324 Y135.709 E16.07799
G1 X158.6 Y135.875 E16.15359
G1 X157.862 Y135.961 E16.22921
G1 X157.427 Y135.975 E16.27351
G1 X149.044 Y135.975 E17.12669
G1 X149.013 Y136.556 E17.18591
G1 X148.894 Y137.289 E17.26149
G1 X148.696 Y138.005 E17.3371
G1 X148.423 Y138.695 E17.41262
G1 X148.077 Y139.352 E17.48819
G1 X147.662 Y139.969 E17.56387
G1 X147.184 Y140.537 E17.63942
G1 X146.647 Y141.05 E17.71501
G1 X146.058 Y141.503 E17.79063
G1 X145.424 Y141.889 E17.86618
G1 X144.752 Y142.206 E17.9418
G1 X144.05 Y142.448 E18.01737
G1 X143.326 Y142.614 E18.09297
G1 X142.588 Y142.7 E18.16859
G1 X142.153 Y142.714 E18.21288
G1 X139.003 Y142.714 E18.53348
G1 X139.003 Y163.813 E20.68085
G1 X138.981 Y164.359 E20.73647
G1 X138.956 Y164.674 E20.76863
G1 X138.79 Y165.728 E20.87722
G1 X138.718 Y166.03 E20.90882
G1 X138.385 Y167.06 E21.01899
G1 X138.265 Y167.351 E21.05103
G1 X137.771 Y168.323 E21.162
G1 X137.607 Y168.591 E21.19397
G1 X136.961 Y169.479 E21.30574
G1 X136.757 Y169.717 E21.33764
G1 X135.999 Y170.474 E21.44667
G1 X135.759 Y170.679 E21.47879
G1 X134.899 Y171.305 E21.58705
G1 X134.633 Y171.469 E21.61886
G1 X133.642 Y171.975 E21.7321
G1 X133.351 Y172.095 E21.76414
G1 X132.332 Y172.425 E21.87315
G1 X132.028 Y172.498 E21.90497
G1 X130.963 Y172.667 E22.01472
G1 X130.648 Y172.692 E22.04688
G1 X130.102 Y172.714 E22.10249
G1 X129.121 Y172.714 E22.20234
G1 X128.604 Y172.695 E22.25499
G1 X128.271 Y172.67 E22.28898
G1 X127.172 Y172.497 E22.40221
G1 X126.869 Y172.424 E22.43393
G1 X125.855 Y172.095 E22.54242
G1 X125.564 Y171.975 E22.57446
G1 X124.583 Y171.475 E22.68652
G1 X124.316 Y171.311 E22.71841
G1 X123.435 Y170.669 E22.82936
G1 X123.196 Y170.464 E22.86141
G1 X122.449 Y169.717 E22.96892
G1 X122.245 Y169.479 E23.00083
G1 X121.599 Y168.591 E23.11259
G1 X121.435 Y168.323 E23.14457
G1 X120.941 Y167.351 E23.25554
G1 X120.821 Y167.06 E23.28757
G1 X120.493 Y166.051 E23.39555
G1 X120.42 Y165.749 E23.42718
G1 X120.247 Y164.656 E23.5398
G1 X120.223 Y164.343 E23.57175
G1 X120.203 Y163.814 E23.62563
G1 X120.205 Y142.714 E25.7731
G1 X101.303 Y142.714 E27.69687
G1 X100.698 Y142.681 E27.75854
G1 X100.538 Y142.7 E27.77494
G1 X100.103 Y142.714 E27.81923
G1 X79.823 Y142.714 E29.88325
G1 X79.081 Y142.674 E29.95888
G1 X78.348 Y142.555 E30.03446
G1 X77.632 Y142.357 E30.11006
G1 X76.942 Y142.084 E30.18559
G1 X76.285 Y141.738 E30.26116
G1 X75.668 Y141.323 E30.33684
G1 X75.1 Y140.845 E30.41239
G1 X74.975 Y140.714 E30.43082
G1 X62.744 Y140.714 E31.67564
G1 X62.002 Y140.674 E31.75127
G1 X61.269 Y140.555 E31.82685
G1 X60.553 Y140.357 E31.90246
G1 X59.863 Y140.084 E31.97798
G1 X59.206 Y139.738 E32.05355
G1 X58.589 Y139.323 E32.12923
G1 X58.021 Y138.845 E32.20479
G1 X57.508 Y138.308 E32.28037
G1 X57.055 Y137.719 E32.35599
G1 X56.669 Y137.085 E32.43154
G1 X56.352 Y136.413 E32.50716
G1 X56.11 Y135.711 E32.58273
G1 X55.944 Y134.987 E32.65833
G1 X55.858 Y134.249 E32.73395
G1 X55.844 Y133.814 E32.77825
G1 X55.844 Y131.814 E32.9818
G1 X55.759 Y121.295 E34.05241
G1 X55.759 Y121.174 E34.06473
G1 X55.823 Y114.545 E34.73943
G1 X55.795 Y109.627 E35.23998
G1 X55.831 Y108.885 E35.31558
G1 X56.019 Y107.843 E35.42335
G1 X56.099 Y107.536 E35.45563
G1 X56.192 Y107.044 E35.5066
G1 X56.368 Y106.323 E35.58213
G1 X56.622 Y105.625 E35.65773
G1 X56.948 Y104.958 E35.73329
G1 X57.556 Y104.047 E35.84476
G1 X57.826 Y103.705 E35.8891
G1 X57.953 Y103.55 E35.9095
G1 X58.923 Y102.392 E36.06324
G1 X58.923 Y89.604 E37.36475
G1 X58.963 Y88.862 E37.44038
G1 X59.082 Y88.129 E37.51596
G1 X59.28 Y87.413 E37.59156
G1 X59.553 Y86.723 E37.66709
G1 X59.899 Y86.066 E37.74266
G1 X60.314 Y85.449 E37.81834
G1 X60.792 Y84.881 E37.89389
G1 X61.329 Y84.368 E37.96948
G1 X61.918 Y83.915 E38.0451
G1 X62.552 Y83.529 E38.12065
G1 X63.224 Y83.212 E38.19627
G1 X63.926 Y82.97 E38.27184
G1 X64.65 Y82.804 E38.34744
G1 X65.388 Y82.718 E38.42306
G1 X65.837 Y82.704 E38.46878
G1 X70.837 Y82.714 E38.97766
G1 X72.923 Y82.714 E39.18996
G1 X72.923 Y74.754 E40.0001
G1 X72.963 Y74.012 E40.07573
G1 X73.082 Y73.279 E40.15131
G1 X73.28 Y72.563 E40.22691
G1 X73.553 Y71.873 E40.30244
G1 X73.899 Y71.216 E40.37801
G1 X74.314 Y70.599 E40.45369
G1 X74.621 Y70.234 E40.50223
G0 F810 X74.792 Y70.031
G0 F6000 X75.384 Y70.284
G1 F900 X75.915 Y69.813 E40.57447
G1 X76.495 Y69.405 E40.64664
G1 X77.118 Y69.064 E40.71892
G1 X77.775 Y68.796 E40.79114
G1 X78.458 Y68.604 E40.86335
G1 X79.159 Y68.489 E40.93565
G1 X79.823 Y68.454 E41.00332
G1 X91.07 Y68.454 E42.14799
G1 X95.947 Y64.361 E42.79599
G1 X96.515 Y63.937 E42.86813
G1 X97.128 Y63.578 E42.94043
G1 X97.777 Y63.291 E43.01266
G1 X98.454 Y63.079 E43.08486
G1 X99.151 Y62.944 E43.15711
G1 X99.997 Y62.887 E43.24341
G1 X118.04 Y62.886 E45.07976
G1 X118.24 Y62.889 E45.10011
G1 X118.564 Y62.899 E45.13311
G1 X120.919 Y62.886 E45.37279
G1 X122.042 Y62.886 E45.48709
G1 X122.751 Y62.926 E45.55936
G1 X123.45 Y63.045 E45.63153
G1 X124.132 Y63.243 E45.7038
G1 X124.787 Y63.515 E45.77599
G1 X125.407 Y63.86 E45.8482
G1 X126.09 Y64.359 E45.93429
G1 X126.368 Y64.592 E45.9712
G1 X130.975 Y68.454 E46.58304
G1 X142.153 Y68.454 E47.72069
G1 X142.862 Y68.494 E47.79297
G1 X143.561 Y68.613 E47.86513
G1 X144.243 Y68.811 E47.93741
G1 X144.898 Y69.083 E48.00959
G1 X145.518 Y69.428 E48.08181
G1 X146.096 Y69.84 E48.15405
G1 X146.623 Y70.315 E48.22625
G1 X147.094 Y70.846 E48.29849
G1 X147.502 Y71.426 E48.37067
G1 X147.843 Y72.049 E48.44295
G1 X148.111 Y72.706 E48.51517
G1 X148.303 Y73.389 E48.58737
G1 X148.418 Y74.09 E48.65967
G1 X148.453 Y74.754 E48.72735
G1 X148.453 Y81.975 E49.46227
G1 X157.427 Y81.975 E50.37561
G1 X158.136 Y82.015 E50.44788
G1 X158.835 Y82.134 E50.52005
G1 X159.517 Y82.332 E50.59232
G1 X160.172 Y82.604 E50.66451
G1 X160.792 Y82.949 E50.73672
G1 X161.37 Y83.361 E50.80896
G1 X161.897 Y83.836 E50.88117
G1 X162.368 Y84.367 E50.95341
G1 X162.776 Y84.947 E51.02558
G1 X163.117 Y85.57 E51.09786
G1 X163.385 Y86.227 E51.17008
G1 X163.577 Y86.91 E51.24229
G1 X163.692 Y87.611 E51.31459
G1 X163.727 Y88.275 E51.38226
G1 X163.727 Y129.075 E55.53472
G1 X163.687 Y129.784 E55.60699
G1 X163.568 Y130.483 E55.67916
G1 X163.37 Y131.165 E55.75144
G1 X163.098 Y131.82 E55.82362
G1 X162.753 Y132.44 E55.89583
G1 X162.341 Y133.018 E55.96807
G1 X161.866 Y133.545 E56.04028
G1 X161.335 Y134.016 E56.11252
G1 X160.755 Y134.424 E56.18469
G1 X160.132 Y134.765 E56.25698
G1 X159.475 Y135.033 E56.32919
G1 X158.792 Y135.225 E56.4014
G1 X158.091 Y135.34 E56.4737
G1 X157.427 Y135.375 E56.54137
G1 X148.453 Y135.375 E57.45471
G1 X148.453 Y135.814 E57.49939
G1 X148.413 Y136.523 E57.57166
G1 X148.294 Y137.222 E57.64383
G1 X148.096 Y137.904 E57.7161
G1 X147.824 Y138.559 E57.78829
G1 X147.479 Y139.179 E57.8605
G1 X147.067 Y139.757 E57.93274
G1 X146.592 Y140.284 E58.00495
G1 X146.061 Y140.755 E58.07719
G1 X145.481 Y141.163 E58.14936
G1 X144.858 Y141.504 E58.22164
G1 X144.201 Y141.772 E58.29386
G1 X143.518 Y141.964 E58.36607
G1 X142.817 Y142.079 E58.43837
G1 X142.153 Y142.114 E58.50604
G1 X138.403 Y142.114 E58.8877
G1 X138.403 Y163.813 E61.09614
G1 X138.383 Y164.311 E61.14686
G1 X138.358 Y164.626 E61.17902
G1 X138.206 Y165.589 E61.27825
G1 X138.134 Y165.891 E61.30984
G1 X137.83 Y166.832 E61.41049
G1 X137.71 Y167.123 E61.44252
G1 X137.26 Y168.009 E61.54366
G1 X137.096 Y168.277 E61.57564
G1 X136.505 Y169.089 E61.67785
G1 X136.301 Y169.327 E61.70976
G1 X135.61 Y170.017 E61.80914
G1 X135.37 Y170.222 E61.84127
G1 X134.584 Y170.795 E61.94026
G1 X134.318 Y170.959 E61.97207
G1 X133.414 Y171.42 E62.07535
G1 X133.123 Y171.54 E62.10738
G1 X132.192 Y171.842 E62.207
G1 X131.888 Y171.915 E62.23882
G1 X130.915 Y172.069 E62.33908
G1 X130.6 Y172.094 E62.37124
G1 X130.102 Y172.114 E62.42196
G1 X129.121 Y172.114 E62.5218
G1 X128.649 Y172.096 E62.56988
G1 X128.316 Y172.071 E62.60386
G1 X127.312 Y171.914 E62.70729
G1 X127.009 Y171.841 E62.73901
G1 X126.083 Y171.54 E62.83811
G1 X125.792 Y171.42 E62.87014
G1 X124.897 Y170.964 E62.97238
G1 X124.63 Y170.8 E63.00427
G1 X123.825 Y170.214 E63.10561
G1 X123.586 Y170.009 E63.13765
G1 X122.905 Y169.327 E63.23574
G1 X122.701 Y169.089 E63.26765
G1 X122.11 Y168.277 E63.36986
G1 X121.946 Y168.009 E63.40184
G1 X121.496 Y167.123 E63.50297
G1 X121.376 Y166.832 E63.53501
G1 X121.076 Y165.91 E63.63369
G1 X121.003 Y165.608 E63.66531
G1 X120.845 Y164.61 E63.76815
G1 X120.821 Y164.297 E63.8001
G1 X120.803 Y163.814 E63.84929
G1 X120.805 Y142.114 E66.05783
G1 X101.303 Y142.114 E68.04267
G1 X100.723 Y142.081 E68.10179
G1 X100.103 Y142.114 E68.16498
G1 X79.823 Y142.114 E70.229
G1 X79.114 Y142.074 E70.30127
G1 X78.415 Y141.955 E70.37344
G1 X77.733 Y141.757 E70.44572
G1 X77.078 Y141.485 E70.5179
G1 X76.458 Y141.14 E70.59011
G1 X75.88 Y140.728 E70.66235
G1 X75.353 Y140.253 E70.73456
G1 X75.23 Y140.114 E70.75345
G1 X62.744 Y140.114 E72.02423
G1 X62.035 Y140.074 E72.0965
G1 X61.336 Y139.955 E72.16867
G1 X60.654 Y139.757 E72.24094
G1 X59.999 Y139.485 E72.31313
G1 X59.379 Y139.14 E72.38534
G1 X58.801 Y138.728 E72.45758
G1 X58.274 Y138.253 E72.52979
G1 X57.803 Y137.722 E72.60203
G1 X57.395 Y137.142 E72.6742
G1 X57.054 Y136.519 E72.74648
G1 X56.786 Y135.862 E72.8187
G1 X56.594 Y135.179 E72.89091
G1 X56.479 Y134.478 E72.9632
G1 X56.444 Y133.814 E73.03088
G1 X56.444 Y131.814 E73.23443
G1 X56.359 Y121.291 E74.30545
G1 X56.359 Y121.18 E74.31675
G1 X56.423 Y114.547 E74.99186
G1 X56.395 Y109.623 E75.49302
G1 X56.431 Y108.915 E75.56517
G1 X56.6 Y107.995 E75.66037
G1 X56.681 Y107.685 E75.69298
G1 X56.781 Y107.155 E75.74787
G1 X56.952 Y106.467 E75.82002
G1 X57.199 Y105.801 E75.89232
G1 X57.519 Y105.168 E75.9645
G1 X58.027 Y104.419 E76.05661
G1 X58.297 Y104.077 E76.10096
G1 X58.413 Y103.935 E76.11962
G1 X59.523 Y102.61 E76.29554
G1 X59.523 Y89.604 E77.61924
G1 X59.563 Y88.895 E77.69152
G1 X59.682 Y88.196 E77.76368
G1 X59.88 Y87.514 E77.83596
G1 X60.152 Y86.859 E77.90814
G1 X60.497 Y86.239 E77.98035
G1 X60.909 Y85.661 E78.05259
G1 X61.384 Y85.134 E78.1248
G1 X61.915 Y84.663 E78.19704
G1 X62.495 Y84.255 E78.26921
G1 X63.118 Y83.914 E78.3415
G1 X63.775 Y83.646 E78.41371
G1 X64.458 Y83.454 E78.48592
G1 X65.159 Y83.339 E78.55822
G1 X65.836 Y83.304 E78.62721
G1 X70.836 Y83.314 E79.13609
G1 X73.523 Y83.314 E79.40957
G1 X73.523 Y74.754 E80.28077
G1 X73.563 Y74.045 E80.35304
G1 X73.682 Y73.346 E80.42521
G1 X73.88 Y72.664 E80.49749
G1 X74.152 Y72.009 E80.56967
G1 X74.497 Y71.389 E80.64188
G1 X74.909 Y70.811 E80.71412
G1 X75.206 Y70.481 E80.75931
G0 F810 X75.384 Y70.284
G0 F6000 X75.504 Y71.035
G1 F900 X75.974 Y70.55 E80.82804
G1 X76.498 Y70.125 E80.89671
G1 X77.068 Y69.764 E80.96538
G1 X77.677 Y69.473 E81.03407
G1 X78.317 Y69.257 E81.10282
G1 X78.977 Y69.117 E81.17149
G1 X79.823 Y69.054 E81.25783
G1 X91.29 Y69.054 E82.42489
G1 X96.333 Y64.821 E83.09499
G1 X96.874 Y64.418 E83.16365
G1 X97.46 Y64.083 E83.23235
G1 X98.081 Y63.819 E83.30103
G1 X98.729 Y63.63 E83.36973
G1 X99.395 Y63.519 E83.43845
G1 X99.997 Y63.487 E83.4998
G1 X118.04 Y63.486 E85.33615
G1 X118.221 Y63.489 E85.35457
G1 X118.549 Y63.499 E85.38797
G1 X120.923 Y63.486 E85.62959
G1 X122.042 Y63.486 E85.74347
G1 X122.716 Y63.526 E85.81219
G1 X123.38 Y63.645 E85.88085
G1 X124.026 Y63.842 E85.94959
G1 X124.643 Y64.114 E86.01821
G1 X125.225 Y64.457 E86.08697
G1 X125.705 Y64.819 E86.14816
G1 X125.983 Y65.052 E86.18507
G1 X130.757 Y69.054 E86.81909
G1 X142.153 Y69.054 E87.97893
G1 X142.827 Y69.094 E88.04765
G1 X143.491 Y69.213 E88.1163
G1 X144.137 Y69.41 E88.18504
G1 X144.754 Y69.682 E88.25367
G1 X145.336 Y70.025 E88.32242
G1 X145.872 Y70.435 E88.3911
G1 X146.357 Y70.905 E88.45984
G1 X146.782 Y71.429 E88.52851
G1 X147.143 Y71.999 E88.59717
G1 X147.434 Y72.608 E88.66587
G1 X147.65 Y73.248 E88.73461
G1 X147.79 Y73.908 E88.80328
G1 X147.853 Y74.754 E88.88962
G1 X147.853 Y82.575 E89.68561
G1 X157.427 Y82.575 E90.66002
G1 X158.101 Y82.615 E90.72873
G1 X158.765 Y82.734 E90.79739
G1 X159.411 Y82.931 E90.86613
G1 X160.028 Y83.203 E90.93475
G1 X160.61 Y83.546 E91.00351
G1 X161.146 Y83.956 E91.07219
G1 X161.631 Y84.426 E91.14093
G1 X162.056 Y84.95 E91.20959
G1 X162.417 Y85.52 E91.27826
G1 X162.708 Y86.129 E91.34696
G1 X162.924 Y86.769 E91.4157
G1 X163.064 Y87.429 E91.48437
G1 X163.127 Y88.275 E91.57071
G1 X163.127 Y129.075 E95.72317
G1 X163.087 Y129.749 E95.79189
G1 X162.968 Y130.413 E95.86055
G1 X162.771 Y131.059 E95.92928
G1 X162.499 Y131.676 E95.99791
