;FLAVOR:Marlin
;TIME:13338
;Filament used: 10.3191m
;Layer height: 0.2
;MINX:70.2
;MINY:10.2
;MINZ:0.2
;MAXX:149.8
;MAXY:229.8
;MAXZ:10.1
;Generated with Cura_SteamEngine 4.4.1
M140 S60
M105
M190 S60
M104 S205
M105
M109 S205
M82 ;absolute extrusion mode
M82 ;absolute extrusion mode
M201 X500.00 Y500.00 Z100.00 E5000.00 ;Setup machine max acceleration
M203 X500.00 Y500.00 Z10.00 E75.00 ;Setup machine max feedrate
M204 P500.00 R1000.00 T500.00 ;Setup Print/Retract/Travel acceleration
M205 X8.00 Y8.00 Z0.40 E5.00 ;Setup Jerk
M220 S100 ;Reset Feedrate
M221 S100 ;Reset Flowrate

G21 ; (metric values)
G90 ; (absolute positioning)
M82 ; (set extruder to absolute mode)
G28 ; (home all axis)
G29 ; (Auto Level)

G92 E0 ;Reset Extruder
G1 Z2.0 F3000 ;Move Z Axis up
G1 X1.1 Y50 Z0.28 F5000.0 ;Move to start position
G1 X1.1 Y200.0 Z0.28 F1500.0 E15 ;Draw the first line
G1 X1.4 Y200.0 Z0.28 F5000.0 ;Move to side a little
G1 X1.4 Y100 Z0.28 F1500.0 E30 ;Draw the second line
G92 E0 ;Reset Extruder
G1 Z2.0 F3000 ;Move Z Axis up

G92 E0
G1 F3000 E-6
;LAYER_COUNT:49
;LAYER:0
M107
G1 F300 Z0.5
;MESH:front.stl
G0 F6000 X82.935 Y98.935 Z0.5
;TYPE:WALL-INNER
G1 F300 Z0.2
G1 F3000 E0
G1 F1200 X82.935 Y145.935 E1.56323
G1 X110.935 Y145.935 E2.49451
G1 X110.935 Y98.935 E4.05774
G1 X83.735 Y98.935 E4.96241
G0 F1080 X82.935 Y98.935
G0 F6000 X83.335 Y99.335
G1 F1200 X83.335 Y145.535 E6.49903
G1 X110.535 Y145.535 E7.40371
G1 X110.535 Y99.335 E8.94032
G1 X84.135 Y99.335 E9.81839
G0 F1080 X83.335 Y99.335
G0 F6000 X83.735 Y99.735
;TYPE:WALL-OUTER
G1 F1200 X83.735 Y145.135 E11.3284
G1 X110.135 Y145.135 E12.20647
G1 X110.135 Y99.735 E13.71648
G1 X84.535 Y99.735 E14.56794
G0 F1080 X83.735 Y99.735
G0 F6000 X83.735 Y100.135
G0 X83.295 Y100.135
G1 F3000 E8.56794
G1 F300 Z0.5
G0 F6000 X148.678 Y228.18 Z0.5
;TYPE:WALL-INNER
G1 F300 Z0.2
G1 F3000 E14.56794
G1 F1200 X148.546 Y228.419 E14.57702
G1 X148.416 Y228.601 E14.58446
G1 X148.285 Y228.745 E14.59093
G1 X148.142 Y228.864 E14.59712
G1 X148.026 Y228.934 E14.60163
G1 X147.913 Y228.978 E14.60566
G1 X147.823 Y228.996 E14.60871
G1 X144.113 Y229 E14.73211
G1 X72.189 Y229 E17.12431
G1 X72.102 Y228.984 E17.12725
G1 X71.994 Y228.943 E17.1311
G1 X71.867 Y228.87 E17.13597
G1 X71.733 Y228.762 E17.14169
G1 X71.602 Y228.622 E17.14807
G1 X71.457 Y228.421 E17.15631
G1 X71.321 Y228.179 E17.16554
G1 X71.218 Y227.936 E17.17432
G1 X71.123 Y227.631 E17.18495
G1 X71.057 Y227.328 E17.19526
G1 X71.016 Y227.009 E17.20596
G1 X71 Y226.628 E17.21864
G1 X71 Y13.38 E24.3113
G1 X71.016 Y12.991 E24.32425
G1 X71.057 Y12.672 E24.33495
G1 X71.123 Y12.369 E24.34526
G1 X71.218 Y12.065 E24.35585
G1 X71.322 Y11.82 E24.36471
G1 X71.454 Y11.581 E24.37379
G1 X71.584 Y11.399 E24.38123
G1 X71.717 Y11.253 E24.3878
G1 X71.858 Y11.137 E24.39387
G1 X71.977 Y11.064 E24.39851
G1 X72.084 Y11.022 E24.40233
G1 X72.177 Y11.004 E24.40549
G1 X75.887 Y11 E24.52888
G1 X147.811 Y11 E26.92108
G1 X147.898 Y11.016 E26.92402
G1 X148.006 Y11.057 E26.92787
G1 X148.133 Y11.13 E26.93274
G1 X148.271 Y11.241 E26.93863
G1 X148.4 Y11.38 E26.94494
G1 X148.539 Y11.571 E26.95279
G1 X148.676 Y11.814 E26.96207
G1 X148.782 Y12.064 E26.9711
G1 X148.877 Y12.369 E26.98173
G1 X148.943 Y12.672 E26.99204
G1 X148.984 Y12.991 E27.00274
G1 X149 Y13.372 E27.01542
G1 X149 Y226.62 E34.10808
G1 X148.984 Y227.009 E34.12103
G1 X148.943 Y227.328 E34.13173
G1 X148.922 Y227.42 E34.13487
G0 F1080 X148.877 Y227.631
G0 X148.782 Y227.935
G0 X148.678 Y228.18
G0 F6000 X149.036 Y228.359
G1 F1200 X148.885 Y228.632 E34.14524
G1 X148.729 Y228.851 E34.15418
G1 X148.563 Y229.034 E34.1624
G1 X148.375 Y229.19 E34.17053
G1 X148.203 Y229.294 E34.17721
G1 X148.028 Y229.363 E34.18347
G1 X147.861 Y229.396 E34.18913
G1 X144.113 Y229.4 E34.31379
G1 X72.152 Y229.4 E36.70722
G1 X71.992 Y229.37 E36.71264
G1 X71.823 Y229.307 E36.71864
G1 X71.642 Y229.202 E36.7256
G1 X71.456 Y229.052 E36.73354
G1 X71.292 Y228.877 E36.74152
G1 X71.12 Y228.638 E36.75131
G1 X70.964 Y228.36 E36.76192
G1 X70.84 Y228.067 E36.7725
G1 X70.736 Y227.736 E36.78404
G1 X70.662 Y227.394 E36.79568
G1 X70.617 Y227.042 E36.80748
G1 X70.6 Y226.645 E36.8207
G1 X70.6 Y13.363 E43.91448
G1 X70.617 Y12.958 E43.92797
G1 X70.662 Y12.606 E43.93977
G1 X70.736 Y12.264 E43.95141
G1 X70.84 Y11.933 E43.96295
G1 X70.964 Y11.641 E43.9735
G1 X71.115 Y11.368 E43.98387
G1 X71.271 Y11.149 E43.99282
G1 X71.439 Y10.964 E44.00113
G1 X71.625 Y10.81 E44.00916
G1 X71.799 Y10.705 E44.01592
G1 X71.972 Y10.637 E44.0221
G1 X72.139 Y10.604 E44.02776
G1 X75.887 Y10.6 E44.15242
G1 X147.848 Y10.6 E46.54586
G1 X148.008 Y10.63 E46.55127
G1 X148.177 Y10.693 E46.55727
G1 X148.358 Y10.798 E46.56423
G1 X148.544 Y10.948 E46.57218
G1 X148.712 Y11.128 E46.58037
G1 X148.872 Y11.349 E46.58944
G1 X149.036 Y11.64 E46.60055
G1 X149.16 Y11.933 E46.61113
G1 X149.264 Y12.264 E46.62267
G1 X149.338 Y12.606 E46.63431
G1 X149.383 Y12.958 E46.64611
G1 X149.4 Y13.355 E46.65933
G1 X149.4 Y226.637 E53.75312
G1 X149.383 Y227.042 E53.7666
G1 X149.338 Y227.394 E53.7784
G1 X149.293 Y227.602 E53.78548
G0 F1080 X149.264 Y227.736
G0 X149.16 Y228.067
G0 X149.036 Y228.359
G0 F6000 X149.394 Y228.538
;TYPE:WALL-OUTER
G1 F1200 X149.224 Y228.845 E53.79715
G1 X149.042 Y229.101 E53.8076
G1 X148.839 Y229.325 E53.81765
G1 X148.608 Y229.516 E53.82762
G1 X148.38 Y229.654 E53.83649
G1 X148.141 Y229.748 E53.84503
G1 X147.899 Y229.796 E53.85324
G1 X144.113 Y229.8 E53.97916
G1 X72.117 Y229.8 E56.37375
G1 X71.884 Y229.757 E56.38164
G1 X71.648 Y229.668 E56.39002
G1 X71.417 Y229.534 E56.39891
G1 X71.183 Y229.345 E56.40891
G1 X70.979 Y229.127 E56.41884
G1 X70.783 Y228.855 E56.42999
G1 X70.607 Y228.541 E56.44196
G1 X70.466 Y228.208 E56.45399
G1 X70.348 Y227.834 E56.46704
G1 X70.267 Y227.459 E56.4798
G1 X70.218 Y227.073 E56.49274
G1 X70.2 Y226.663 E56.50639
G1 X70.2 Y13.346 E63.60134
G1 X70.218 Y12.927 E63.61529
G1 X70.267 Y12.541 E63.62823
G1 X70.348 Y12.166 E63.64099
G1 X70.466 Y11.792 E63.65403
G1 X70.606 Y11.462 E63.66596
G1 X70.776 Y11.155 E63.67763
G1 X70.958 Y10.899 E63.68808
G1 X71.161 Y10.675 E63.69813
G1 X71.392 Y10.484 E63.7081
G1 X71.62 Y10.346 E63.71696
G1 X71.859 Y10.252 E63.72551
G1 X72.101 Y10.204 E63.73371
G1 X75.887 Y10.2 E63.85963
G1 X147.883 Y10.2 E66.25423
G1 X148.116 Y10.243 E66.26211
G1 X148.352 Y10.332 E66.2705
G1 X148.583 Y10.466 E66.27938
G1 X148.817 Y10.655 E66.28939
G1 X149.021 Y10.873 E66.29932
G1 X149.215 Y11.142 E66.31035
G1 X149.393 Y11.459 E66.32244
G1 X149.534 Y11.792 E66.33447
G1 X149.652 Y12.166 E66.34751
G1 X149.733 Y12.541 E66.36027
G1 X149.782 Y12.927 E66.37321
G1 X149.8 Y13.337 E66.38686
G1 X149.8 Y226.654 E73.48181
G1 X149.782 Y227.073 E73.49576
G1 X149.733 Y227.459 E73.50871
G1 X149.662 Y227.786 E73.51983
G0 F1080 X149.652 Y227.834
G0 X149.534 Y228.208
G0 X149.394 Y228.538
G0 F6000 X149.224 Y228.845
G0 X149.196 Y228.885
G0 X148.839 Y228.629
G0 X148.216 Y228.208
;TYPE:SKIN
G1 F1200 X148.115 Y228.351 E73.52566
G1 X148.01 Y228.466 E73.53084
G1 X147.912 Y228.547 E73.53507
G1 X147.857 Y228.582 E73.53723
G1 X147.784 Y228.606 E73.53979
G1 X144.113 Y228.61 E73.66189
G1 X72.228 Y228.61 E76.05279
G1 X72.208 Y228.606 E76.05347
G1 X72.157 Y228.587 E76.05528
G1 X72.095 Y228.552 E76.05765
G1 X71.997 Y228.472 E76.06186
G1 X71.9 Y228.368 E76.06659
G1 X71.787 Y228.213 E76.07297
G1 X71.671 Y228.006 E76.08086
G1 X71.586 Y227.806 E76.08809
G1 X71.5 Y227.529 E76.09773
G1 X71.44 Y227.252 E76.10716
G1 X71.406 Y226.99 E76.11595
G1 X71.39 Y226.628 E76.128
G1 X71.39 Y13.396 E83.22012
G1 X71.406 Y13.007 E83.23307
G1 X71.44 Y12.747 E83.2418
G1 X71.488 Y12.523 E83.24941
G1 X71.505 Y12.507 E83.25019
G1 X71.505 Y12.454 E83.25195
G1 X71.585 Y12.199 E83.26084
G1 X71.673 Y11.992 E83.26832
G1 X71.784 Y11.792 E83.27593
G1 X71.885 Y11.649 E83.28175
G1 X71.991 Y11.533 E83.28698
G1 X72.087 Y11.454 E83.29112
G1 X72.152 Y11.414 E83.29365
G1 X72.213 Y11.394 E83.29579
G1 X75.887 Y11.39 E83.41799
G1 X147.772 Y11.39 E85.80889
G1 X147.792 Y11.394 E85.80957
G1 X147.843 Y11.413 E85.81138
G1 X147.912 Y11.452 E85.81402
G1 X148.004 Y11.526 E85.81794
G1 X148.097 Y11.628 E85.82254
G1 X148.215 Y11.789 E85.82917
G1 X148.323 Y11.98 E85.83647
G1 X148.414 Y12.194 E85.84421
G1 X148.499 Y12.469 E85.85378
G1 X148.56 Y12.748 E85.86328
G1 X148.594 Y13.007 E85.87197
G1 X148.61 Y13.372 E85.88412
G1 X148.61 Y226.604 E92.97624
G1 X148.594 Y226.99 E92.98909
G1 X148.56 Y227.253 E92.99791
G1 X148.513 Y227.468 E93.00523
G0 F1080 X148.5 Y227.531
G0 X148.415 Y227.801
G0 X148.327 Y228.008
G0 X148.216 Y228.208
G1 F3000 E87.00523
G1 F300 Z0.5
G0 F6000 X111.325 Y146.325 Z0.5
G1 F300 Z0.2
G1 F3000 E93.00523
G1 F1200 X111.325 Y98.545 E94.5944
G1 X82.545 Y98.545 E95.55163
G1 X82.545 Y146.325 E97.1408
G1 X110.525 Y146.325 E98.07142
G0 F1080 X111.325 Y146.325
G1 F3000 E92.07142
G1 F300 Z0.5
G0 F6000 X110.25 Y60.185 Z0.5
G1 F300 Z0.2
G1 F3000 E98.07142
G1 F1200 X109.75 Y60.185 E98.08805
G1 X109.75 Y49.75 E98.43512
G1 X110.25 Y49.75 E98.45175
G1 X110.25 Y59.385 E98.77221
G0 F1080 X110.25 Y60.185
G0 F6000 X110.65 Y60.585
G1 F1200 X109.35 Y60.585 E98.81545
G1 X109.35 Y49.35 E99.18912
G1 X110.65 Y49.35 E99.23236
G1 X110.65 Y59.785 E99.57943
G0 F1080 X110.65 Y60.585
G0 F6000 X111.05 Y60.985
G1 F1200 X108.95 Y60.985 E99.64928
G1 X108.95 Y48.95 E100.04956
G1 X111.05 Y48.95 E100.11941
G1 X111.05 Y60.185 E100.49309
G0 F1080 X111.05 Y60.985
G0 F6000 X111.45 Y61.385
G1 F1200 X108.55 Y61.385 E100.58954
G1 X108.55 Y48.55 E101.01644
G1 X111.45 Y48.55 E101.11289
G1 X111.45 Y60.585 E101.51318
G0 F1080 X111.45 Y61.385
G0 F6000 X111.85 Y61.785
G1 F1200 X108.15 Y61.785 E101.63624
G1 X108.15 Y48.15 E102.08974
G1 X111.85 Y48.15 E102.2128
G1 X111.85 Y60.985 E102.6397
G0 F1080 X111.85 Y61.785
G0 F6000 X112.25 Y62.185
G1 F1200 X107.75 Y62.185 E102.78937
G1 X107.75 Y47.75 E103.26948
G1 X112.25 Y47.75 E103.41915
G1 X112.25 Y61.385 E103.87265
G0 F1080 X112.25 Y62.185
G0 F6000 X112.65 Y62.585
G1 F1200 X107.35 Y62.585 E104.04893
G1 X107.35 Y47.35 E104.55565
G1 X112.65 Y47.35 E104.73193
G1 X112.65 Y61.785 E105.21204
G0 F1080 X112.65 Y62.585
G0 F6000 X113.05 Y62.985
G1 F1200 X106.95 Y62.985 E105.41492
G1 X106.95 Y46.95 E105.94825
G1 X113.05 Y46.95 E106.15114
G1 X113.05 Y62.185 E106.65785
G0 F1080 X113.05 Y62.985
G0 F6000 X113.45 Y63.385
G1 F1200 X106.55 Y63.385 E106.88735
G1 X106.55 Y46.55 E107.44728
G1 X113.45 Y46.55 E107.67678
G1 X113.45 Y62.585 E108.2101
G0 F1080 X113.45 Y63.385
G0 F6000 X113.85 Y63.785
G1 F1200 X106.15 Y63.785 E108.46621
G1 X106.15 Y46.15 E109.05275
G1 X113.85 Y46.15 E109.30885
G1 X113.85 Y62.985 E109.86879
G0 F1080 X113.85 Y63.785
G0 F6000 X114.25 Y64.185
G1 F1200 X105.75 Y64.185 E110.1515
G1 X105.75 Y45.75 E110.76465
G1 X114.25 Y45.75 E111.04736
G1 X114.25 Y63.385 E111.6339
G0 F1080 X114.25 Y64.185
G0 F6000 X114.65 Y64.585
G1 F1200 X105.35 Y64.585 E111.94322
G1 X105.35 Y45.35 E112.58298
G1 X114.65 Y45.35 E112.8923
G1 X114.65 Y63.785 E113.50545
G0 F1080 X114.65 Y64.585
G0 F6000 X115.05 Y64.985
G1 F1200 X104.95 Y64.985 E113.84138
G1 X104.95 Y44.95 E114.50774
G1 X115.05 Y44.95 E114.84367
G1 X115.05 Y64.185 E115.48343
G0 F1080 X115.05 Y64.985
G0 F6000 X115.45 Y65.385
G1 F1200 X104.55 Y65.385 E115.84597
G1 X104.55 Y44.55 E116.53894
G1 X115.45 Y44.55 E116.90148
G1 X115.45 Y64.585 E117.56784
G0 F1080 X115.45 Y65.385
G0 F6000 X115.85 Y65.785
G1 F1200 X104.15 Y65.785 E117.95699
G1 X104.15 Y44.15 E118.67657
G1 X115.85 Y44.15 E119.06571
G1 X115.85 Y64.985 E119.75869
G0 F1080 X115.85 Y65.785
G0 F6000 X116.25 Y66.185
G1 F1200 X103.75 Y66.185 E120.17444
G1 X103.75 Y43.75 E120.92063
G1 X116.25 Y43.75 E121.33638
G1 X116.25 Y65.385 E122.05597
G0 F1080 X116.25 Y66.185
G0 F6000 X116.65 Y66.585
G1 F1200 X103.35 Y66.585 E122.49833
G1 X103.35 Y43.35 E123.27112
G1 X116.65 Y43.35 E123.71348
G1 X116.65 Y65.785 E124.45968
G0 F1080 X116.65 Y66.585
G0 F6000 X117.05 Y66.985
G1 F1200 X102.95 Y66.985 E124.92864
G1 X102.95 Y42.95 E125.72805
G1 X117.05 Y42.95 E126.19702
G1 X117.05 Y66.185 E126.96982
G0 F1080 X117.05 Y66.985
G0 F6000 X117.45 Y67.385
G1 F1200 X102.55 Y67.385 E127.46539
G1 X102.55 Y42.55 E128.29141
G1 X117.45 Y42.55 E128.78699
G1 X117.45 Y66.585 E129.58639
G0 F1080 X117.45 Y67.385
G0 F6000 X117.85 Y67.785
G1 F1200 X102.15 Y67.785 E130.10858
G1 X102.15 Y42.15 E130.9612
G1 X117.85 Y42.15 E131.48338
G1 X117.85 Y66.985 E132.3094
G0 F1080 X117.85 Y67.785
G0 F6000 X118.25 Y68.185
G1 F1200 X101.75 Y68.185 E132.85819
G1 X101.75 Y41.75 E133.73742
G1 X118.25 Y41.75 E134.28622
G1 X118.25 Y67.385 E135.13884
G0 F1080 X118.25 Y68.185
G0 F6000 X118.65 Y68.585
G1 F1200 X101.35 Y68.585 E135.71424
G1 X101.35 Y41.35 E136.62008
G1 X118.65 Y41.35 E137.19548
G1 X118.65 Y67.785 E138.07471
G0 F1080 X118.65 Y68.585
G0 F6000 X119.05 Y68.985
G1 F1200 X100.95 Y68.985 E138.67672
G1 X100.95 Y40.95 E139.60917
G1 X119.05 Y40.95 E140.21118
G1 X119.05 Y68.185 E141.11702
G0 F1080 X119.05 Y68.985
G0 F6000 X119.45 Y69.385
G1 F1200 X100.55 Y69.385 E141.74563
G1 X100.55 Y40.55 E142.70469
G1 X119.45 Y40.55 E143.33331
G1 X119.45 Y68.585 E144.26575
G0 F1080 X119.45 Y69.385
G0 F6000 X119.85 Y69.785
G1 F1200 X100.15 Y69.785 E144.92098
G1 X100.15 Y40.15 E145.90664
G1 X119.85 Y40.15 E146.56187
G1 X119.85 Y68.985 E147.52092
G0 F1080 X119.85 Y69.785
G0 F6000 X120.25 Y70.185
G1 F1200 X99.75 Y70.185 E148.20276
G1 X99.75 Y39.75 E149.21503
G1 X120.25 Y39.75 E149.89686
G1 X120.25 Y69.385 E150.88252
G0 F1080 X120.25 Y70.185
G0 F6000 X120.65 Y70.585
G1 F1200 X99.35 Y70.585 E151.59097
G1 X99.35 Y39.35 E152.62985
G1 X120.65 Y39.35 E153.33829
G1 X120.65 Y69.785 E154.35056
G0 F1080 X120.65 Y70.585
G0 F6000 X121.05 Y70.985
G1 F1200 X98.95 Y70.985 E155.08561
G1 X98.95 Y38.95 E156.1511
G1 X121.05 Y38.95 E156.88615
G1 X121.05 Y70.185 E157.92503
G0 F1080 X121.05 Y70.985
G0 F6000 X121.45 Y71.385
G1 F1200 X98.55 Y71.385 E158.68668
G1 X98.55 Y38.55 E159.77878
G1 X121.45 Y38.55 E160.54044
G1 X121.45 Y70.585 E161.60592
G0 F1080 X121.45 Y71.385
G0 F6000 X121.85 Y71.785
G1 F1200 X98.15 Y71.785 E162.39419
G1 X98.15 Y38.15 E163.51289
G1 X121.85 Y38.15 E164.30116
G1 X121.85 Y70.985 E165.39326
G0 F1080 X121.85 Y71.785
G0 F6000 X122.25 Y72.185
G1 F1200 X97.75 Y72.185 E166.20813
G1 X97.75 Y37.75 E167.35344
G1 X122.25 Y37.75 E168.16832
G1 X122.25 Y71.385 E169.28702
G0 F1080 X122.25 Y72.185
G0 F6000 X122.65 Y72.585
G1 F1200 X97.35 Y72.585 E170.1285
G1 X97.35 Y37.35 E171.30042
G1 X122.65 Y37.35 E172.1419
G1 X122.65 Y71.785 E173.28722
G0 F1080 X122.65 Y72.585
G0 F6000 X123.05 Y72.985
G1 F1200 X96.95 Y72.985 E174.15531
G1 X96.95 Y36.95 E175.35384
G1 X123.05 Y36.95 E176.22192
G1 X123.05 Y72.185 E177.39385
G0 F1080 X123.05 Y72.985
G0 F6000 X123.45 Y73.385
G1 F1200 X96.55 Y73.385 E178.28854
G1 X96.55 Y36.55 E179.51368
G1 X123.45 Y36.55 E180.40838
G1 X123.45 Y72.585 E181.60691
G0 F1080 X123.45 Y73.385
G0 F6000 X123.85 Y73.785
G1 F1200 X96.15 Y73.785 E182.52821
G1 X96.15 Y36.15 E183.77996
G1 X123.85 Y36.15 E184.70126
G1 X123.85 Y72.985 E185.9264
G0 F1080 X123.85 Y73.785
G0 F6000 X124.25 Y74.185
G1 F1200 X95.75 Y74.185 E186.87431
G1 X95.75 Y35.75 E188.15267
G1 X124.25 Y35.75 E189.10058
G1 X124.25 Y73.385 E190.35233
G0 F1080 X124.25 Y74.185
G0 F6000 X124.65 Y74.585
G1 F1200 X95.35 Y74.585 E191.32685
G1 X95.35 Y35.35 E192.63181
G1 X124.65 Y35.35 E193.60633
G1 X124.65 Y73.785 E194.88469
G0 F1080 X124.65 Y74.585
G0 F6000 X125.05 Y74.985
G1 F1200 X94.95 Y74.985 E195.88582
G1 X94.95 Y34.95 E197.21739
G1 X125.05 Y34.95 E198.21852
G1 X125.05 Y74.185 E199.52348
G0 F1080 X125.05 Y74.985
G0 F6000 X125.45 Y75.385
G1 F1200 X94.55 Y75.385 E200.55121
G1 X94.55 Y34.55 E201.90939
G1 X125.45 Y34.55 E202.93713
G1 X125.45 Y74.585 E204.2687
