;FLAVOR:Marlin
;TIME:13414
;Filament used: 10.2849m
;Layer height: 0.2
;MINX:70.2
;MINY:10.2
;MINZ:0.2
;MAXX:149.8
;MAXY:229.8
;MAXZ:10.3
;Generated with Cura_SteamEngine 4.4.1
M140 S60
M105
M190 S60
M104 S205
M105
M109 S205
M82 ;absolute extrusion mode
M82 ;absolute extrusion mode
M201 X500.00 Y500.00 Z100.00 E5000.00 ;Setup machine max acceleration
M203 X500.00 Y500.00 Z10.00 E75.00 ;Setup machine max feedrate
M204 P500.00 R1000.00 T500.00 ;Setup Print/Retract/Travel acceleration
M205 X8.00 Y8.00 Z0.40 E5.00 ;Setup Jerk
M220 S100 ;Reset Feedrate
M221 S100 ;Reset Flowrate

G21 ; (metric values)
G90 ; (absolute positioning)
M82 ; (set extruder to absolute mode)
G28 ; (home all axis)
G29 ; (Auto Level)

G92 E0 ;Reset Extruder
G1 Z2.0 F3000 ;Move Z Axis up
G1 X1.1 Y50 Z0.28 F5000.0 ;Move to start position
G1 X1.1 Y200.0 Z0.28 F1500.0 E15 ;Draw the first line
G1 X1.4 Y200.0 Z0.28 F5000.0 ;Move to side a little
G1 X1.4 Y100 Z0.28 F1500.0 E30 ;Draw the second line
G92 E0 ;Reset Extruder
G1 Z2.0 F3000 ;Move Z Axis up

G92 E0
G1 F3000 E-6
;LAYER_COUNT:50
;LAYER:0
M107
G1 F300 Z0.5
;MESH:back.stl
G0 F6000 X103.376 Y16.967 Z0.5
;TYPE:WALL-INNER
G1 F300 Z0.2
G1 F3000 E0
G1 F1200 X102.977 Y16.449 E0.02175
G1 X102.29 Y15.914 E0.05071
G1 X101.997 Y15.771 E0.06155
G1 X101.435 Y15.541 E0.08175
G1 X101.121 Y15.48 E0.09239
G1 X100.524 Y15.402 E0.11241
G1 X100.204 Y15.424 E0.12308
G1 X99.588 Y15.503 E0.14374
G1 X99.188 Y15.654 E0.15796
G1 X98.733 Y15.84 E0.17431
G1 X98.467 Y16.024 E0.18506
G1 X97.989 Y16.391 E0.20511
G1 X97.779 Y16.636 E0.21584
G1 X97.412 Y17.114 E0.23588
G1 X97.271 Y17.404 E0.24661
G1 X97.041 Y17.963 E0.26671
G1 X96.98 Y18.28 E0.27745
G1 X96.902 Y18.875 E0.29741
G1 X96.924 Y19.196 E0.30811
G1 X97.003 Y19.811 E0.32874
G1 X97.154 Y20.212 E0.34299
G1 X97.34 Y20.666 E0.3593
G1 X97.523 Y20.931 E0.37002
G1 X97.891 Y21.412 E0.39016
G1 X98.136 Y21.621 E0.40087
G1 X98.612 Y21.988 E0.42086
G1 X98.904 Y22.129 E0.43165
G1 X99.465 Y22.359 E0.45181
G1 X99.779 Y22.42 E0.46245
G1 X100.376 Y22.498 E0.48248
G1 X100.696 Y22.476 E0.49315
G1 X101.312 Y22.397 E0.5138
G1 X101.712 Y22.246 E0.52802
G1 X102.167 Y22.06 E0.54437
G1 X102.433 Y21.876 E0.55513
G1 X102.91 Y21.508 E0.57517
G1 X103.12 Y21.266 E0.58582
G1 X103.488 Y20.787 E0.60591
G1 X103.629 Y20.496 E0.61667
G1 X103.859 Y19.935 E0.63683
G1 X103.92 Y19.621 E0.64747
G1 X103.998 Y19.024 E0.6675
G1 X103.976 Y18.704 E0.67817
G1 X103.897 Y18.088 E0.69882
G1 X103.746 Y17.688 E0.71304
G1 X103.74 Y17.675 E0.71352
G0 F1080 X103.56 Y17.233
G0 X103.376 Y16.967
G0 F6000 X103.053 Y17.203
G1 F1200 X102.691 Y16.733 E0.73325
G1 X102.077 Y16.255 E0.75913
G1 X101.833 Y16.136 E0.76816
G1 X101.32 Y15.926 E0.7866
G1 X101.057 Y15.875 E0.79551
G1 X100.511 Y15.804 E0.81382
G1 X100.243 Y15.822 E0.82275
G1 X99.685 Y15.894 E0.84147
G1 X99.334 Y16.026 E0.85394
G1 X98.925 Y16.194 E0.86865
G1 X98.703 Y16.347 E0.87761
G1 X98.266 Y16.683 E0.89595
G1 X98.09 Y16.888 E0.90493
G1 X97.754 Y17.325 E0.92327
G1 X97.636 Y17.568 E0.93225
G1 X97.426 Y18.078 E0.9506
G1 X97.375 Y18.344 E0.95961
G1 X97.304 Y18.888 E0.97785
G1 X97.322 Y19.157 E0.98682
G1 X97.394 Y19.714 E1.0055
G1 X97.526 Y20.066 E1.018
G1 X97.694 Y20.474 E1.03268
G1 X97.847 Y20.696 E1.04165
G1 X98.183 Y21.135 E1.06003
G1 X98.388 Y21.31 E1.069
G1 X98.824 Y21.646 E1.08731
G1 X99.067 Y21.764 E1.09629
G1 X99.58 Y21.974 E1.11473
G1 X99.843 Y22.025 E1.12364
G1 X100.389 Y22.096 E1.14195
G1 X100.657 Y22.078 E1.15089
G1 X101.215 Y22.006 E1.1696
G1 X101.566 Y21.874 E1.18207
G1 X101.975 Y21.706 E1.19678
G1 X102.197 Y21.553 E1.20574
G1 X102.634 Y21.216 E1.2241
G1 X102.81 Y21.013 E1.23304
G1 X103.146 Y20.576 E1.25137
G1 X103.264 Y20.333 E1.26035
G1 X103.474 Y19.82 E1.27879
G1 X103.525 Y19.557 E1.2877
G1 X103.596 Y19.011 E1.30601
G1 X103.578 Y18.743 E1.31495
G1 X103.506 Y18.185 E1.33366
G1 X103.405 Y17.917 E1.34319
G0 F1080 X103.374 Y17.834
G0 X103.206 Y17.425
G0 X103.053 Y17.203
G0 F6000 X102.729 Y17.438
;TYPE:WALL-OUTER
G1 F1200 X102.405 Y17.017 E1.36086
G1 X101.864 Y16.596 E1.38366
G1 X101.669 Y16.501 E1.39087
G1 X101.205 Y16.311 E1.40755
G1 X100.993 Y16.27 E1.41473
G1 X100.498 Y16.206 E1.43133
G1 X100.282 Y16.22 E1.43853
G1 X99.782 Y16.285 E1.4553
G1 X99.481 Y16.398 E1.46599
G1 X99.117 Y16.548 E1.47909
G1 X98.938 Y16.671 E1.48631
G1 X98.542 Y16.975 E1.50292
G1 X98.4 Y17.14 E1.51016
G1 X98.096 Y17.536 E1.52676
G1 X98.001 Y17.732 E1.534
G1 X97.811 Y18.193 E1.55059
G1 X97.77 Y18.407 E1.55784
G1 X97.706 Y18.901 E1.5744
G1 X97.72 Y19.118 E1.58164
G1 X97.785 Y19.617 E1.59837
G1 X97.898 Y19.919 E1.6091
G1 X98.048 Y20.282 E1.62216
G1 X98.171 Y20.461 E1.62939
G1 X98.475 Y20.858 E1.64602
G1 X98.64 Y20.999 E1.65323
G1 X99.036 Y21.304 E1.66986
G1 X99.231 Y21.399 E1.67707
G1 X99.695 Y21.589 E1.69375
G1 X99.907 Y21.63 E1.70093
G1 X100.402 Y21.694 E1.71753
G1 X100.618 Y21.68 E1.72473
G1 X101.118 Y21.615 E1.7415
G1 X101.419 Y21.502 E1.7522
G1 X101.783 Y21.352 E1.76529
G1 X101.962 Y21.229 E1.77251
G1 X102.358 Y20.924 E1.78914
G1 X102.5 Y20.76 E1.79635
G1 X102.804 Y20.364 E1.81296
G1 X102.899 Y20.169 E1.82017
G1 X103.089 Y19.705 E1.83685
G1 X103.13 Y19.493 E1.84403
G1 X103.194 Y18.998 E1.86063
G1 X103.18 Y18.782 E1.86783
G1 X103.115 Y18.282 E1.8846
G1 X103.068 Y18.159 E1.88898
G0 F1080 X103.002 Y17.981
G0 X102.852 Y17.617
G0 X102.729 Y17.438
G0 F6000 X102.485 Y17.121
G0 X102.833 Y16.853
G1 F3000 E-4.11102
G1 F300 Z0.5
G0 F6000 X117.805 Y24.45 Z0.5
;TYPE:WALL-INNER
G1 F300 Z0.2
G1 F3000 E1.88898
G1 F1200 X76.45 Y24.45 E3.26445
G1 X76.45 Y53.45 E4.229
G1 X117.805 Y53.45 E5.60447
G1 X118.506 Y52.882 E5.63448
G1 X125.45 Y47.27 E5.93143
G1 X125.45 Y30.63 E6.48488
G1 X124.654 Y29.985 E6.51896
G1 X118.427 Y24.952 E6.78526
G0 F1080 X117.805 Y24.45
G0 F6000 X117.663 Y24.85
G1 F1200 X76.85 Y24.85 E8.14271
G1 X76.85 Y53.05 E9.08064
G1 X117.663 Y53.05 E10.43809
G1 X118.254 Y52.571 E10.46339
G1 X125.05 Y47.079 E10.75401
G1 X125.05 Y30.821 E11.29475
G1 X124.402 Y30.296 E11.32249
G1 X118.285 Y25.352 E11.58409
G0 F1080 X117.663 Y24.85
G0 F6000 X117.521 Y25.25
;TYPE:WALL-OUTER
G1 F1200 X77.25 Y25.25 E12.9235
G1 X77.25 Y52.65 E13.83483
G1 X117.521 Y52.65 E15.17425
G1 X118.002 Y52.26 E15.19485
G1 X124.65 Y46.888 E15.47913
G1 X124.65 Y31.012 E16.00717
G1 X124.15 Y30.607 E16.02857
G1 X118.143 Y25.752 E16.28546
G0 F1080 X117.521 Y25.25
G0 F6000 X117.121 Y25.25
G0 X117.121 Y24.81
G1 F3000 E10.28546
G1 F300 Z0.5
G0 F6000 X103.976 Y58.704 Z0.5
;TYPE:WALL-INNER
G1 F300 Z0.2
G1 F3000 E16.28546
G1 F1200 X103.897 Y58.088 E16.30611
G1 X103.746 Y57.688 E16.32033
G1 X103.56 Y57.233 E16.33668
G1 X103.376 Y56.967 E16.34744
G1 X103.009 Y56.489 E16.36748
G1 X102.765 Y56.28 E16.37817
G1 X102.288 Y55.912 E16.39821
G1 X102.02 Y55.782 E16.40811
G1 X101.436 Y55.541 E16.42913
G1 X101.121 Y55.48 E16.4398
G1 X100.524 Y55.402 E16.45982
G1 X100.204 Y55.424 E16.47049
G1 X99.588 Y55.503 E16.49115
G1 X99.188 Y55.654 E16.50537
G1 X98.733 Y55.84 E16.52172
G1 X98.467 Y56.024 E16.53248
G1 X97.989 Y56.391 E16.55252
G1 X97.779 Y56.636 E16.56325
G1 X97.412 Y57.114 E16.5833
G1 X97.271 Y57.404 E16.59402
G1 X97.041 Y57.963 E16.61413
G1 X96.98 Y58.28 E16.62486
G1 X96.902 Y58.876 E16.64485
G1 X96.924 Y59.196 E16.65552
G1 X97.003 Y59.811 E16.67615
G1 X97.154 Y60.213 E16.69043
G1 X97.359 Y60.71 E16.70831
G1 X97.599 Y61.031 E16.72164
G1 X97.891 Y61.412 E16.73761
G1 X98.136 Y61.621 E16.74832
G1 X98.613 Y61.988 E16.76833
G1 X98.905 Y62.129 E16.77912
G1 X99.459 Y62.356 E16.79903
G1 X99.736 Y62.414 E16.80845
G1 X100.376 Y62.498 E16.82991
G1 X100.696 Y62.476 E16.84058
G1 X101.312 Y62.397 E16.86124
G1 X101.712 Y62.246 E16.87546
G1 X102.167 Y62.06 E16.89181
G1 X102.433 Y61.876 E16.90257
G1 X102.91 Y61.508 E16.9226
G1 X103.12 Y61.266 E16.93326
G1 X103.488 Y60.787 E16.95335
G1 X103.629 Y60.496 E16.96411
G1 X103.859 Y59.935 E16.98427
G1 X103.92 Y59.621 E16.99491
G1 X103.936 Y59.5 E16.99897
G0 F1080 X103.998 Y59.024
G0 X103.976 Y58.704
G0 F6000 X103.578 Y58.743
G1 F1200 X103.506 Y58.185 E17.01768
G1 X103.374 Y57.834 E17.03016
G1 X103.206 Y57.425 E17.04486
G1 X103.053 Y57.203 E17.05383
G1 X102.717 Y56.766 E17.07216
G1 X102.512 Y56.59 E17.08115
G1 X102.076 Y56.254 E17.09946
G1 X101.856 Y56.147 E17.1076
G1 X101.321 Y55.926 E17.12685
G1 X101.057 Y55.875 E17.13579
G1 X100.511 Y55.804 E17.1541
G1 X100.243 Y55.822 E17.16304
G1 X99.685 Y55.894 E17.18175
G1 X99.334 Y56.026 E17.19422
G1 X98.925 Y56.194 E17.20893
G1 X98.703 Y56.347 E17.2179
G1 X98.266 Y56.683 E17.23623
G1 X98.09 Y56.888 E17.24522
G1 X97.754 Y57.325 E17.26355
G1 X97.636 Y57.568 E17.27254
G1 X97.426 Y58.078 E17.29088
G1 X97.375 Y58.344 E17.29989
G1 X97.304 Y58.889 E17.31817
G1 X97.322 Y59.157 E17.3271
G1 X97.394 Y59.714 E17.34578
G1 X97.526 Y60.066 E17.35829
G1 X97.71 Y60.511 E17.3743
G1 X97.918 Y60.79 E17.38588
G1 X98.183 Y61.135 E17.40035
G1 X98.388 Y61.31 E17.40931
G1 X98.824 Y61.646 E17.42762
G1 X99.068 Y61.764 E17.43663
G1 X99.576 Y61.972 E17.45489
G1 X99.803 Y62.019 E17.4626
G1 X100.389 Y62.096 E17.48226
G1 X100.657 Y62.078 E17.49119
G1 X101.215 Y62.006 E17.50991
G1 X101.566 Y61.874 E17.52238
G1 X101.975 Y61.706 E17.53709
G1 X102.197 Y61.553 E17.54605
G1 X102.634 Y61.216 E17.56441
G1 X102.81 Y61.013 E17.57334
G1 X103.146 Y60.576 E17.59168
G1 X103.264 Y60.333 E17.60066
G1 X103.474 Y59.82 E17.6191
G1 X103.525 Y59.557 E17.62801
G1 X103.528 Y59.539 E17.62862
G0 F1080 X103.596 Y59.011
G0 X103.578 Y58.743
G0 F6000 X103.18 Y58.782
;TYPE:WALL-OUTER
G1 F1200 X103.115 Y58.282 E17.64539
G1 X103.002 Y57.981 E17.65608
G1 X102.852 Y57.617 E17.66918
G1 X102.729 Y57.438 E17.6764
G1 X102.425 Y57.042 E17.693
G1 X102.26 Y56.9 E17.70024
G1 X101.864 Y56.596 E17.71685
G1 X101.692 Y56.512 E17.72321
G1 X101.206 Y56.311 E17.74071
G1 X100.993 Y56.27 E17.74792
G1 X100.498 Y56.206 E17.76452
G1 X100.282 Y56.22 E17.77172
G1 X99.782 Y56.285 E17.78849
G1 X99.481 Y56.398 E17.79919
G1 X99.117 Y56.548 E17.81228
G1 X98.938 Y56.671 E17.8195
G1 X98.542 Y56.975 E17.83611
G1 X98.4 Y57.14 E17.84335
G1 X98.096 Y57.536 E17.85995
G1 X98.001 Y57.732 E17.8672
G1 X97.811 Y58.193 E17.88378
G1 X97.77 Y58.407 E17.89103
G1 X97.706 Y58.902 E17.90763
G1 X97.72 Y59.118 E17.91483
G1 X97.785 Y59.617 E17.93157
G1 X97.898 Y59.919 E17.94229
G1 X98.061 Y60.312 E17.95644
G1 X98.237 Y60.549 E17.96626
G1 X98.475 Y60.858 E17.97923
G1 X98.64 Y60.999 E17.98645
G1 X99.036 Y61.304 E18.00308
G1 X99.231 Y61.399 E18.01029
G1 X99.693 Y61.588 E18.02689
G1 X99.869 Y61.624 E18.03287
G1 X100.402 Y61.694 E18.05075
G1 X100.618 Y61.68 E18.05795
G1 X101.118 Y61.615 E18.07472
G1 X101.419 Y61.502 E18.08541
G1 X101.783 Y61.352 E18.0985
G1 X101.962 Y61.229 E18.10573
G1 X102.358 Y60.924 E18.12235
G1 X102.5 Y60.76 E18.12957
G1 X102.804 Y60.364 E18.14617
G1 X102.899 Y60.169 E18.15339
G1 X103.089 Y59.705 E18.17006
G1 X103.114 Y59.576 E18.17443
G0 F1080 X103.13 Y59.493
G0 X103.194 Y58.998
G0 X103.18 Y58.782
G0 F6000 X103.129 Y58.386
G0 X103.565 Y58.331
G1 F3000 E12.17443
G1 F300 Z0.5
G0 F6000 X147.894 Y11.017 Z0.5
;TYPE:WALL-INNER
G1 F300 Z0.2
G1 F3000 E18.17443
G1 F1200 X148.003 Y11.059 E18.17832
G1 X148.122 Y11.129 E18.18291
G1 X148.26 Y11.244 E18.18889
G1 X148.396 Y11.392 E18.19557
G1 X148.535 Y11.589 E18.20359
G1 X148.667 Y11.829 E18.2127
G1 X148.782 Y12.109 E18.22277
G1 X148.875 Y12.406 E18.23312
G1 X148.944 Y12.731 E18.24417
G1 X148.983 Y13.051 E18.25489
G1 X149 Y13.447 E18.26807
G1 X149 Y226.545 E25.35574
G1 X148.982 Y226.951 E25.36926
G1 X148.944 Y227.268 E25.37988
G1 X148.873 Y227.601 E25.3912
G1 X148.788 Y227.879 E25.40087
G1 X148.668 Y228.165 E25.41119
G1 X148.535 Y228.413 E25.42055
G1 X148.417 Y228.583 E25.42743
G1 X148.283 Y228.734 E25.43414
G1 X148.133 Y228.863 E25.44073
G1 X148.018 Y228.933 E25.4452
G1 X147.903 Y228.98 E25.44933
G1 X147.822 Y228.996 E25.45208
G1 X144.113 Y229 E25.57544
G1 X72.196 Y229 E27.96741
G1 X72.106 Y228.983 E27.97046
G1 X71.997 Y228.941 E27.97434
G1 X71.878 Y228.871 E27.97894
G1 X71.74 Y228.756 E27.98491
G1 X71.602 Y228.605 E27.99171
G1 X71.472 Y228.421 E27.99921
G1 X71.328 Y228.158 E28.00918
G1 X71.214 Y227.885 E28.01902
G1 X71.126 Y227.597 E28.02904
G1 X71.056 Y227.269 E28.04019
G1 X71.017 Y226.949 E28.05091
G1 X71 Y226.553 E28.0641
G1 X71 Y13.455 E35.15176
G1 X71.018 Y13.049 E35.16528
G1 X71.056 Y12.732 E35.1759
G1 X71.125 Y12.406 E35.18698
G1 X71.218 Y12.109 E35.19733
G1 X71.334 Y11.827 E35.20748
G1 X71.46 Y11.596 E35.21623
G1 X71.588 Y11.413 E35.22366
G1 X71.721 Y11.263 E35.23032
G1 X71.867 Y11.137 E35.23674
G1 X71.982 Y11.067 E35.24122
G1 X72.097 Y11.02 E35.24535
G1 X72.178 Y11.004 E35.24809
G1 X75.887 Y11 E35.37146
G1 X147.095 Y11 E37.73984
G0 F1080 X147.804 Y11
G0 X147.894 Y11.017
G0 F6000 X148.005 Y10.631
G1 F1200 X148.175 Y10.696 E37.7459
G1 X148.356 Y10.803 E37.75289
G1 X148.533 Y10.95 E37.76054
G1 X148.711 Y11.144 E37.7693
G1 X148.874 Y11.375 E37.7787
G1 X149.028 Y11.656 E37.78936
G1 X149.159 Y11.974 E37.8008
G1 X149.261 Y12.301 E37.81219
G1 X149.339 Y12.668 E37.82467
G1 X149.383 Y13.022 E37.83654
G1 X149.4 Y13.43 E37.85012
G1 X149.4 Y226.562 E44.93892
G1 X149.382 Y226.978 E44.95277
G1 X149.339 Y227.332 E44.96463
G1 X149.261 Y227.699 E44.97711
G1 X149.162 Y228.022 E44.98834
G1 X149.029 Y228.339 E44.99978
G1 X148.881 Y228.615 E45.01019
G1 X148.728 Y228.835 E45.01911
G1 X148.561 Y229.022 E45.02744
G1 X148.369 Y229.187 E45.03586
G1 X148.198 Y229.292 E45.04254
G1 X148.02 Y229.364 E45.04892
G1 X147.861 Y229.396 E45.05432
G1 X144.113 Y229.4 E45.17898
G1 X72.156 Y229.4 E47.57228
G1 X71.995 Y229.369 E47.57773
G1 X71.825 Y229.304 E47.58378
G1 X71.644 Y229.197 E47.59078
G1 X71.466 Y229.049 E47.59848
G1 X71.287 Y228.853 E47.60731
G1 X71.133 Y228.635 E47.61618
G1 X70.968 Y228.333 E47.62763
G1 X70.838 Y228.021 E47.63887
G1 X70.739 Y227.699 E47.65008
G1 X70.661 Y227.332 E47.66255
G1 X70.617 Y226.978 E47.67442
G1 X70.6 Y226.57 E47.688
G1 X70.6 Y13.438 E54.7768
G1 X70.618 Y13.022 E54.79065
G1 X70.661 Y12.668 E54.80251
G1 X70.739 Y12.301 E54.81499
G1 X70.841 Y11.974 E54.82638
G1 X70.971 Y11.658 E54.83775
G1 X71.121 Y11.382 E54.84819
G1 X71.274 Y11.163 E54.85708
G1 X71.439 Y10.978 E54.86533
G1 X71.631 Y10.813 E54.87375
G1 X71.802 Y10.708 E54.88042
G1 X71.98 Y10.636 E54.88681
G1 X72.139 Y10.604 E54.8922
G1 X75.887 Y10.6 E55.01686
G1 X147.207 Y10.6 E57.38897
G0 F1080 X147.844 Y10.6
G0 X148.005 Y10.631
G0 F6000 X148.112 Y10.244
;TYPE:WALL-OUTER
G1 F1200 X148.354 Y10.337 E57.39759
G1 X148.588 Y10.475 E57.40663
G1 X148.807 Y10.657 E57.4161
G1 X149.025 Y10.895 E57.42684
G1 X149.213 Y11.161 E57.43767
G1 X149.391 Y11.486 E57.44999
G1 X149.535 Y11.835 E57.46255
G1 X149.647 Y12.196 E57.47512
G1 X149.734 Y12.605 E57.48903
G1 X149.782 Y12.993 E57.50203
G1 X149.8 Y13.413 E57.51602
G1 X149.8 Y226.579 E64.60595
G1 X149.782 Y227.007 E64.62019
G1 X149.734 Y227.395 E64.6332
G1 X149.648 Y227.801 E64.647
G1 X149.538 Y228.158 E64.65943
G1 X149.39 Y228.513 E64.67222
G1 X149.222 Y228.825 E64.684
G1 X149.043 Y229.082 E64.69442
G1 X148.835 Y229.315 E64.70481
G1 X148.609 Y229.509 E64.71472
G1 X148.376 Y229.652 E64.72381
G1 X148.14 Y229.748 E64.73228
G1 X147.899 Y229.796 E64.74046
G1 X144.113 Y229.8 E64.86638
G1 X72.118 Y229.8 E67.26094
G1 X71.888 Y229.756 E67.26873
G1 X71.646 Y229.663 E67.27735
G1 X71.412 Y229.525 E67.28639
G1 X71.193 Y229.343 E67.29586
G1 X70.975 Y229.105 E67.30659
G1 X70.792 Y228.845 E67.31717
G1 X70.608 Y228.508 E67.32994
G1 X70.462 Y228.158 E67.34255
G1 X70.352 Y227.801 E67.35498
G1 X70.266 Y227.395 E67.36878
G1 X70.218 Y227.007 E67.38178
G1 X70.2 Y226.587 E67.39577
G1 X70.2 Y13.421 E74.4857
G1 X70.218 Y12.993 E74.49994
G1 X70.266 Y12.605 E74.51295
G1 X70.353 Y12.196 E74.52685
