;FLAVOR:Marlin
;TIME:15478
;Filament used: 35.9876m
;Layer height: 0.4
;MINX:35.4
;MINY:10.4
;MINZ:0.2
;MAXX:184.6
;MAXY:229.6
;MAXZ:46.92
;Generated with Cura_SteamEngine 4.4.1
M140 S60
M105
M190 S60
M104 S237
M105
M109 S237
M82 ;absolute extrusion mode
M82 ;absolute extrusion mode
M201 X500.00 Y500.00 Z100.00 E5000.00 ;Setup machine max acceleration
M203 X500.00 Y500.00 Z10.00 E75.00 ;Setup machine max feedrate
M204 P500.00 R1000.00 T500.00 ;Setup Print/Retract/Travel acceleration
M205 X8.00 Y8.00 Z0.40 E5.00 ;Setup Jerk
M220 S100 ;Reset Feedrate
M221 S100 ;Reset Flowrate

G21 ; (metric values)
G90 ; (absolute positioning)
M82 ; (set extruder to absolute mode)
G28 ; (home all axis)
G29 ; (Auto Level)

G92 E0 ;Reset Extruder
G1 Z2.0 F3000 ;Move Z Axis up
G1 X1.1 Y50 Z0.28 F5000.0 ;Move to start position
G1 X1.1 Y200.0 Z0.28 F1500.0 E15 ;Draw the first line
G1 X1.4 Y200.0 Z0.28 F5000.0 ;Move to side a little
G1 X1.4 Y100 Z0.28 F1500.0 E30 ;Draw the second line
G92 E0 ;Reset Extruder
G1 Z2.0 F3000 ;Move Z Axis up

G92 E0
G1 F3000 E-8
;LAYER_COUNT:117
;LAYER:0
M107
G1 F300 Z0.52
;MESH:top.stl
G0 F6000 X54.286 Y68.216 Z0.52
;TYPE:WALL-INNER
G1 F300 Z0.2
G1 F3000 E0
G1 F1200 X53.556 Y69.31 E0.08924
G1 X53.475 Y69.678 E0.1148
G1 X53.286 Y70.627 E0.18046
G1 X53.541 Y71.937 E0.27101
G1 X54.281 Y73.049 E0.36164
G1 X55.394 Y73.798 E0.45267
G1 X56.706 Y74.06 E0.54344
G1 X58.017 Y73.798 E0.63415
G1 X59.128 Y73.056 E0.7248
G1 X59.866 Y71.951 E0.81496
G1 X60.126 Y70.658 E0.90445
G1 X60.062 Y70.288 E0.92993
G1 X59.873 Y69.332 E0.99605
G1 X59.137 Y68.227 E1.08613
G1 X58.828 Y68.015 E1.11156
G1 X58.017 Y67.472 E1.17778
G1 X56.707 Y67.212 E1.2684
G1 X55.397 Y67.472 E1.35902
G1 X54.618 Y67.994 E1.42264
G0 F1080 X54.286 Y68.216
G0 F6000 X54.863 Y68.792
;TYPE:WALL-OUTER
G1 F1200 X54.305 Y69.629 E1.49089
G1 X54.258 Y69.842 E1.50569
G1 X54.101 Y70.629 E1.56015
G1 X54.296 Y71.627 E1.62914
G1 X54.859 Y72.474 E1.69815
G1 X55.708 Y73.045 E1.76757
G1 X56.706 Y73.244 E1.83662
G1 X57.705 Y73.045 E1.90573
G1 X58.551 Y72.479 E1.9748
G1 X59.113 Y71.638 E2.04343
G1 X59.312 Y70.647 E2.11201
G1 X59.275 Y70.434 E2.12668
G1 X59.119 Y69.643 E2.18138
G1 X58.557 Y68.799 E2.25018
G1 X58.379 Y68.677 E2.26482
G1 X57.705 Y68.226 E2.31985
G1 X56.707 Y68.028 E2.38888
G1 X55.709 Y68.226 E2.45792
G1 X55.195 Y68.57 E2.49988
G0 F1080 X54.863 Y68.792
G0 F6000 X54.241 Y68.171
G0 X60.914 Y63.856
;TYPE:WALL-INNER
G1 F1200 X60.302 Y65.341 E2.60886
G1 X61.381 Y66.413 E2.71206
G1 X61.803 Y66.933 E2.7575
G1 X62.161 Y67.483 E2.80203
G1 X62.456 Y68.063 E2.84618
G1 X62.695 Y68.686 E2.89145
G1 X62.865 Y69.316 E2.93573
G1 X62.969 Y69.974 E2.98093
G1 X63.004 Y70.623 E3.02503
G1 X62.971 Y71.301 E3.07109
G1 X62.871 Y71.937 E3.11477
G1 X62.701 Y72.572 E3.15937
G1 X62.464 Y73.193 E3.20447
G1 X62.163 Y73.783 E3.24941
G1 X61.805 Y74.335 E3.29405
G1 X61.397 Y74.84 E3.3381
G1 X60.926 Y75.311 E3.3833
G1 X60.4 Y75.737 E3.42922
G1 X59.903 Y76.067 E3.4697
G1 X59.272 Y76.387 E3.51771
G1 X58.657 Y76.625 E3.56245
G1 X58.013 Y76.797 E3.60768
G1 X57.367 Y76.899 E3.65205
G1 X56.707 Y76.935 E3.6969
G1 X56.047 Y76.899 E3.74175
G1 X55.978 Y76.889 E3.74648
G1 X55.402 Y76.797 E3.78606
G1 X54.754 Y76.623 E3.83158
G1 X54.162 Y76.397 E3.87458
G1 X53.546 Y76.084 E3.92146
G1 X53.014 Y75.738 E3.96452
G1 X52.492 Y75.315 E4.0101
G1 X51.413 Y74.234 E4.11374
G1 X49.931 Y74.849 E4.2226
G1 X49.927 Y134.596 E8.27648
G1 X49.927 Y171.426 E10.77542
G1 X51.409 Y172.041 E10.88429
G1 X52.489 Y170.959 E10.98802
G1 X53.009 Y170.537 E11.03346
G1 X53.554 Y170.182 E11.07759
G1 X54.124 Y169.887 E11.12113
G1 X54.754 Y169.649 E11.16683
G1 X54.832 Y169.626 E11.17235
G1 X55.393 Y169.477 E11.21173
G1 X56.052 Y169.372 E11.25701
G1 X56.707 Y169.337 E11.30151
G1 X57.364 Y169.372 E11.34615
G1 X58.018 Y169.476 E11.39109
G1 X58.663 Y169.648 E11.43638
G1 X58.717 Y169.668 E11.44029
G1 X59.265 Y169.879 E11.48013
G1 X59.432 Y169.966 E11.49291
G1 X59.815 Y170.157 E11.52195
G1 X60.412 Y170.542 E11.57015
G1 X60.914 Y170.948 E11.61395
G1 X61.386 Y171.42 E11.65924
G1 X61.802 Y171.933 E11.70406
G1 X62.158 Y172.478 E11.74822
G1 X62.456 Y173.063 E11.79277
G1 X62.695 Y173.686 E11.83805
G1 X62.865 Y174.316 E11.88232
G1 X62.969 Y174.974 E11.92752
G1 X63.004 Y175.623 E11.97162
G1 X62.971 Y176.301 E12.01768
G1 X62.871 Y176.937 E12.06136
G1 X62.701 Y177.572 E12.10596
G1 X62.464 Y178.193 E12.15106
G1 X62.163 Y178.783 E12.196
G1 X61.805 Y179.335 E12.24064
G1 X61.393 Y179.845 E12.28513
G1 X60.317 Y180.922 E12.38842
G1 X60.923 Y182.4 E12.49681
G1 X63.643 Y182.416 E12.68137
G1 X157.498 Y182.416 E19.04949
G1 X158.113 Y180.934 E19.15836
G1 X157.032 Y179.855 E19.26199
G1 X156.619 Y179.344 E19.30657
G1 X156.252 Y178.783 E19.35206
G1 X155.957 Y178.204 E19.39615
G1 X155.72 Y177.587 E19.44099
G1 X155.547 Y176.946 E19.48604
G1 X155.445 Y176.298 E19.53055
G1 X155.41 Y175.645 E19.57492
G1 X155.443 Y174.971 E19.62071
G1 X155.544 Y174.332 E19.6646
G1 X155.716 Y173.69 E19.7097
G1 X155.948 Y173.083 E19.75379
G1 X156.249 Y172.492 E19.79879
G1 X156.61 Y171.937 E19.84371
G1 X157.019 Y171.43 E19.88791
G1 X157.494 Y170.955 E19.93349
G1 X158.001 Y170.543 E19.97782
G1 X158.565 Y170.177 E20.02344
G1 X159.141 Y169.885 E20.06725
G1 X159.765 Y169.645 E20.11262
G1 X160.396 Y169.476 E20.15694
G1 X161.052 Y169.372 E20.202
G1 X161.707 Y169.337 E20.24651
G1 X162.364 Y169.372 E20.29115
G1 X163.02 Y169.476 E20.33622
G1 X163.651 Y169.644 E20.38052
G1 X164.251 Y169.874 E20.42412
G1 X164.861 Y170.184 E20.47055
G1 X165.407 Y170.539 E20.51474
G1 X165.918 Y170.952 E20.55932
G1 X166.996 Y172.029 E20.66271
G1 X168.477 Y171.414 E20.77152
G1 X168.487 Y154.934 E21.88969
G1 X168.487 Y74.845 E27.32379
G1 X167.004 Y74.23 E27.43272
G1 X165.931 Y75.307 E27.53587
G1 X165.402 Y75.736 E27.58208
G1 X164.857 Y76.09 E27.62618
G1 X164.29 Y76.383 E27.66948
G1 X163.66 Y76.622 E27.7152
G1 X163.591 Y76.642 E27.72008
G1 X163.011 Y76.798 E27.76083
G1 X162.367 Y76.899 E27.80506
G1 X161.707 Y76.935 E27.84991
G1 X161.047 Y76.899 E27.89475
G1 X160.978 Y76.889 E27.89948
G1 X160.402 Y76.797 E27.93906
G1 X159.755 Y76.623 E27.98452
G1 X159.695 Y76.601 E27.98886
G1 X159.155 Y76.394 E28.0281
G1 X158.516 Y76.066 E28.07683
G1 X158.008 Y75.732 E28.11808
G1 X157.5 Y75.322 E28.16238
G1 X157.027 Y74.849 E28.20776
G1 X156.619 Y74.344 E28.25181
G1 X156.252 Y73.783 E28.2973
G1 X155.957 Y73.204 E28.34139
G1 X155.72 Y72.587 E28.38623
G1 X155.547 Y71.946 E28.43128
G1 X155.445 Y71.298 E28.47579
G1 X155.41 Y70.645 E28.52016
G1 X155.443 Y69.971 E28.56595
G1 X155.544 Y69.332 E28.60984
G1 X155.716 Y68.69 E28.65494
G1 X155.948 Y68.083 E28.69903
G1 X156.249 Y67.492 E28.74403
G1 X156.61 Y66.936 E28.78901
G1 X157.022 Y66.426 E28.8335
G1 X158.098 Y65.349 E28.93679
G1 X157.492 Y63.87 E29.04524
G1 X154.772 Y63.856 E29.2298
G1 X61.314 Y63.856 E35.57098
G0 F1080 X60.914 Y63.856
G0 F6000 X61.45 Y64.656
;TYPE:WALL-OUTER
G1 F1200 X61.246 Y65.151 E35.60731
G1 X61.975 Y65.876 E35.67707
G1 X62.451 Y66.463 E35.72835
G1 X62.853 Y67.08 E35.77831
G1 X63.19 Y67.743 E35.82878
G1 X63.458 Y68.44 E35.87944
G1 X63.647 Y69.143 E35.92884
G1 X63.766 Y69.893 E35.98036
G1 X63.805 Y70.623 E36.02996
G1 X63.768 Y71.38 E36.08139
G1 X63.653 Y72.11 E36.13153
G1 X63.464 Y72.816 E36.18112
G1 X63.195 Y73.52 E36.23225
G1 X62.856 Y74.185 E36.2829
G1 X62.454 Y74.804 E36.33298
G1 X61.991 Y75.378 E36.38301
G1 X61.462 Y75.907 E36.43378
G1 X60.878 Y76.38 E36.48477
G1 X60.584 Y76.575 E36.5087
G1 X60.584 Y77.917 E36.59976
G1 X60.567 Y110.135 E38.78577
G1 X60.567 Y169.69 E42.82662
G1 X60.879 Y169.891 E42.8518
G1 X61.454 Y170.356 E42.90198
G1 X61.978 Y170.88 E42.95226
G1 X62.45 Y171.463 E43.00315
G1 X62.506 Y171.547 E43.01
G1 X62.853 Y172.08 E43.05316
G1 X63.19 Y172.743 E43.10362
G1 X63.458 Y173.44 E43.15429
G1 X63.647 Y174.143 E43.20368
G1 X63.766 Y174.893 E43.2552
G1 X63.805 Y175.623 E43.30481
G1 X63.768 Y176.38 E43.35623
G1 X63.653 Y177.11 E43.40637
G1 X63.464 Y177.816 E43.45596
G1 X63.195 Y178.52 E43.5071
G1 X62.856 Y179.185 E43.55774
G1 X62.454 Y179.804 E43.60782
G1 X61.991 Y180.378 E43.65786
G1 X61.259 Y181.111 E43.72814
G1 X61.461 Y181.603 E43.76423
G1 X63.645 Y181.616 E43.91242
G1 X67.367 Y181.616 E44.16496
G1 X67.367 Y64.656 E52.10078
G1 X61.85 Y64.656 E52.47511
G0 F1080 X61.45 Y64.656
G1 F3000 E44.47511
G0 F6000 X61.45 Y64.156
G0 X67.395 Y64.228
G0 X67.427 Y64.656
G0 X67.527 Y64.656
G1 F3000 E52.47511
G1 F1200 X67.527 Y181.616 E60.41092
G1 X74.327 Y181.616 E60.87231
G1 X74.327 Y64.656 E68.80812
G1 X67.927 Y64.656 E69.24237
G0 F1080 X67.527 Y64.656
G0 F6000 X66.905 Y63.776
G1 F3000 E61.24237
G0 F6000 X74.355 Y64.228
G0 X74.387 Y64.656
G0 X74.487 Y64.656
G1 F3000 E69.24237
G1 F1200 X74.487 Y181.616 E77.17818
G1 X81.287 Y181.616 E77.63957
G1 X81.287 Y64.656 E85.57538
G1 X74.887 Y64.656 E86.00963
G0 F1080 X74.487 Y64.656
G0 F6000 X73.865 Y63.776
G1 F3000 E78.00963
G0 F6000 X81.315 Y64.228
G0 X81.347 Y64.656
G0 X81.447 Y64.656
G1 F3000 E86.00963
G1 F1200 X81.447 Y181.616 E93.94544
G1 X88.247 Y181.616 E94.40682
G1 X88.247 Y64.656 E102.34264
G1 X81.847 Y64.656 E102.77688
G0 F1080 X81.447 Y64.656
G0 F6000 X80.825 Y63.776
G1 F3000 E94.77688
G0 F6000 X88.275 Y64.228
G0 X88.307 Y64.656
G0 X88.407 Y64.656
G1 F3000 E102.77688
G1 F1200 X88.407 Y181.616 E110.7127
G1 X95.207 Y181.616 E111.17408
G1 X95.207 Y64.656 E119.1099
G1 X88.807 Y64.656 E119.54414
G0 F1080 X88.407 Y64.656
G0 F6000 X87.785 Y63.776
G1 F3000 E111.54414
G0 F6000 X95.235 Y64.228
G0 X95.267 Y64.656
G0 X95.367 Y64.656
G1 F3000 E119.54414
G1 F1200 X95.367 Y181.616 E127.47996
G1 X102.167 Y181.616 E127.94134
G1 X102.167 Y64.656 E135.87716
G1 X95.767 Y64.656 E136.3114
G0 F1080 X95.367 Y64.656
G0 F6000 X94.745 Y63.776
G1 F3000 E128.3114
G0 F6000 X102.195 Y64.228
G0 X102.227 Y64.656
G0 X102.327 Y64.656
G1 F3000 E136.3114
G1 F1200 X102.327 Y181.616 E144.24722
G1 X109.127 Y181.616 E144.7086
G1 X109.127 Y64.656 E152.64442
G1 X102.727 Y64.656 E153.07866
G0 F1080 X102.327 Y64.656
G0 F6000 X101.705 Y63.776
G1 F3000 E145.07866
G0 F6000 X109.155 Y64.228
G0 X109.187 Y64.656
G0 X109.287 Y64.656
G1 F3000 E153.07866
G1 F1200 X109.287 Y181.616 E161.01448
G1 X116.087 Y181.616 E161.47586
G1 X116.087 Y64.656 E169.41168
G1 X109.687 Y64.656 E169.84592
G0 F1080 X109.287 Y64.656
G0 F6000 X108.665 Y63.776
G1 F3000 E161.84592
G0 F6000 X116.115 Y64.228
G0 X116.147 Y64.656
G0 X116.247 Y64.656
G1 F3000 E169.84592
G1 F1200 X116.247 Y181.616 E177.78173
G1 X123.047 Y181.616 E178.24312
G1 X123.047 Y64.656 E186.17893
G1 X116.647 Y64.656 E186.61318
G0 F1080 X116.247 Y64.656
G0 F6000 X115.625 Y63.776
G1 F3000 E178.61318
G0 F6000 X123.075 Y64.228
G0 X123.107 Y64.656
G0 X123.207 Y64.656
G1 F3000 E186.61318
G1 F1200 X123.207 Y181.616 E194.54899
G1 X130.007 Y181.616 E195.01038
G1 X130.007 Y64.656 E202.94619
G1 X123.607 Y64.656 E203.38044
G0 F1080 X123.207 Y64.656
G0 F6000 X122.585 Y63.776
G1 F3000 E195.38044
G0 F6000 X130.035 Y64.228
G0 X130.067 Y64.656
G0 X130.167 Y64.656
G1 F3000 E203.38044
G1 F1200 X130.167 Y181.616 E211.31625
G1 X136.967 Y181.616 E211.77764
G1 X136.967 Y64.656 E219.71345
G1 X130.567 Y64.656 E220.1477
G0 F1080 X130.167 Y64.656
G0 F6000 X129.545 Y63.776
G1 F3000 E212.1477
G0 F6000 X136.995 Y64.228
G0 X137.027 Y64.656
G0 X137.127 Y64.656
G1 F3000 E220.1477
G1 F1200 X137.127 Y181.616 E228.08351
G1 X143.927 Y181.616 E228.5449
G1 X143.927 Y64.656 E236.48071
G1 X137.527 Y64.656 E236.91496
G0 F1080 X137.127 Y64.656
G0 F6000 X136.505 Y63.776
G1 F3000 E228.91496
G0 F6000 X143.955 Y64.228
G0 X143.987 Y64.656
G0 X144.087 Y64.656
G1 F3000 E236.91496
G1 F1200 X144.087 Y181.616 E244.85077
G1 X150.887 Y181.616 E245.31216
G1 X150.887 Y64.656 E253.24797
G1 X144.487 Y64.656 E253.68221
G0 F1080 X144.087 Y64.656
G0 F6000 X143.465 Y63.776
G1 F3000 E245.68221
G0 F6000 X150.915 Y64.228
G0 X150.947 Y64.656
G0 X151.047 Y64.656
G1 F3000 E253.68221
G1 F1200 X151.047 Y181.616 E261.61803
G1 X156.964 Y181.616 E262.0195
G1 X157.169 Y181.122 E262.05579
G1 X156.436 Y180.39 E262.12608
G1 X155.968 Y179.812 E262.17654
G1 X155.562 Y179.191 E262.22688
G1 X155.223 Y178.524 E262.27765
G1 X154.957 Y177.833 E262.32789
G1 X154.765 Y177.119 E262.37805
G1 X154.648 Y176.379 E262.42889
G1 X154.609 Y175.649 E262.47849
G1 X154.646 Y174.892 E262.52991
G1 X154.761 Y174.161 E262.58012
G1 X154.953 Y173.446 E262.63035
G1 X155.217 Y172.756 E262.68048
G1 X155.556 Y172.09 E262.73119
G1 X155.961 Y171.467 E262.7816
G1 X156.425 Y170.892 E262.83174
G1 X156.953 Y170.364 E262.8824
G1 X157.533 Y169.893 E262.93309
G1 X157.847 Y169.689 E262.9585
G1 X157.847 Y76.584 E269.27574
G1 X157.538 Y76.381 E269.30082
G1 X156.961 Y75.915 E269.35115
G1 X156.436 Y75.39 E269.40152
G1 X155.968 Y74.812 E269.45199
G1 X155.562 Y74.191 E269.50233
G1 X155.223 Y73.524 E269.55309
G1 X154.957 Y72.833 E269.60333
G1 X154.765 Y72.119 E269.6535
G1 X154.648 Y71.379 E269.70433
G1 X154.609 Y70.649 E269.75393
G1 X154.646 Y69.892 E269.80536
G1 X154.761 Y69.161 E269.85557
G1 X154.953 Y68.446 E269.9058
G1 X155.217 Y67.756 E269.95592
G1 X155.556 Y67.09 E270.00663
G1 X155.961 Y66.467 E270.05705
G1 X156.424 Y65.893 E270.10709
G1 X157.156 Y65.16 E270.17737
G1 X156.954 Y64.667 E270.21352
G1 X154.77 Y64.656 E270.36171
G1 X151.447 Y64.656 E270.58718
G0 F1080 X151.047 Y64.656
G0 F6000 X150.425 Y63.776
G1 F3000 E262.58718
G0 F6000 X157.246 Y64.235
G0 X157.666 Y65.262
G0 X158.248 Y76.412
G0 X157.956 Y76.619
G0 X158.007 Y76.704
G1 F3000 E270.58718
G1 F1200 X158.007 Y169.562 E276.88766
G1 X158.817 Y169.152 E276.94925
G1 X159.517 Y168.883 E277.00014
G1 X160.227 Y168.693 E277.05
G1 X160.969 Y168.575 E277.10098
G1 X161.707 Y168.536 E277.15113
G1 X162.445 Y168.575 E277.20127
G1 X163.188 Y168.693 E277.25231
G1 X163.893 Y168.881 E277.30182
G1 X164.807 Y169.23 E277.3682
G1 X164.807 Y77.043 E283.62315
G1 X163.908 Y77.383 E283.68837
G1 X163.799 Y77.415 E283.69608
G1 X163.185 Y77.58 E283.73921
G1 X162.446 Y77.696 E283.78997
G1 X161.707 Y77.736 E283.84019
G1 X160.97 Y77.696 E283.89026
G1 X160.865 Y77.681 E283.89746
G1 X160.23 Y77.58 E283.94109
G1 X159.513 Y77.387 E283.99147
G1 X159.418 Y77.352 E283.99834
G1 X158.824 Y77.123 E284.04153
G1 X158.362 Y76.886 E284.07676
G0 F1080 X158.007 Y76.704
G0 F6000 X157.889 Y75.533
G1 F3000 E276.07676
G0 F6000 X164.51 Y76.697
G0 X164.867 Y76.934
G0 X164.967 Y76.934
G1 F3000 E284.07676
G1 F1200 X164.967 Y169.34 E290.34657
G1 X165.259 Y169.488 E290.36879
G1 X165.876 Y169.889 E290.41871
G1 X166.458 Y170.36 E290.46951
G1 X167.183 Y171.085 E290.53908
G1 X167.677 Y170.88 E290.57537
G1 X167.687 Y154.933 E291.65739
G1 X167.687 Y75.379 E297.05518
G1 X167.193 Y75.174 E297.09147
G1 X166.467 Y75.903 E297.16128
G1 X165.876 Y76.382 E297.21289
G1 X165.319 Y76.744 E297.25797
G0 F1080 X165.261 Y76.782
G0 X164.967 Y76.934
G0 F6000 X164.167 Y76.344
G0 X159.542 Y72.79
G0 X158.881 Y71.797
G0 X158.697 Y70.852
G0 X158.556 Y69.31
;TYPE:WALL-INNER
G1 F1200 X158.475 Y69.678 E297.28353
G1 X158.286 Y70.627 E297.34919
G1 X158.541 Y71.937 E297.43974
G1 X159.281 Y73.049 E297.53037
G1 X160.395 Y73.798 E297.62145
G1 X161.707 Y74.06 E297.71223
G1 X163.018 Y73.797 E297.80295
G1 X164.129 Y73.056 E297.89356
G1 X164.866 Y71.95 E297.98374
G1 X165.126 Y70.658 E298.07316
G1 X165.062 Y70.288 E298.09864
G1 X164.873 Y69.332 E298.16476
G1 X164.137 Y68.227 E298.25484
G1 X163.828 Y68.015 E298.28027
G1 X163.017 Y67.472 E298.34649
G1 X161.707 Y67.212 E298.43711
G1 X160.397 Y67.472 E298.52773
G1 X159.286 Y68.216 E298.61845
G1 X158.778 Y68.978 E298.68059
G0 F1080 X158.556 Y69.31
G0 F6000 X159.305 Y69.629
;TYPE:WALL-OUTER
G1 F1200 X159.258 Y69.842 E298.69539
G1 X159.101 Y70.629 E298.74984
G1 X159.296 Y71.627 E298.81884
