;FLAVOR:Marlin
;TIME:18426
;Filament used: 45.205m
;Layer height: 0.4
;MINX:35.4
;MINY:10.4
;MINZ:0.2
;MAXX:184.6
;MAXY:229.6
;MAXZ:46.92
;Generated with Cura_SteamEngine 4.4.1
M140 S60
M105
M190 S60
M104 S237
M105
M109 S237
M82 ;absolute extrusion mode
M82 ;absolute extrusion mode
M201 X500.00 Y500.00 Z100.00 E5000.00 ;Setup machine max acceleration
M203 X500.00 Y500.00 Z10.00 E75.00 ;Setup machine max feedrate
M204 P500.00 R1000.00 T500.00 ;Setup Print/Retract/Travel acceleration
M205 X8.00 Y8.00 Z0.40 E5.00 ;Setup Jerk
M220 S100 ;Reset Feedrate
M221 S100 ;Reset Flowrate

G21 ; (metric values)
G90 ; (absolute positioning)
M82 ; (set extruder to absolute mode)
G28 ; (home all axis)
G29 ; (Auto Level)

G92 E0 ;Reset Extruder
G1 Z2.0 F3000 ;Move Z Axis up
G1 X1.1 Y50 Z0.28 F5000.0 ;Move to start position
G1 X1.1 Y200.0 Z0.28 F1500.0 E15 ;Draw the first line
G1 X1.4 Y200.0 Z0.28 F5000.0 ;Move to side a little
G1 X1.4 Y100 Z0.28 F1500.0 E30 ;Draw the second line
G92 E0 ;Reset Extruder
G1 Z2.0 F3000 ;Move Z Axis up

G92 E0
G1 F3000 E-8
;LAYER_COUNT:117
;LAYER:0
M107
G1 F300 Z0.52
;MESH:bottom.stl
G0 F6000 X36.2 Y13.508 Z0.52
;TYPE:WALL-INNER
G1 F300 Z0.2
G1 F3000 E0
G1 F1200 X85 Y13.506 E3.31111
G1 X141.481 Y13.508 E7.14339
G1 X183.401 Y13.507 E9.98769
G1 X183.8 Y13.507 E10.01476
G1 X183.8 Y13.906 E10.03227
G1 X183.8 Y226.493 E24.45644
G1 X135 Y226.493 E27.76755
G1 X78.519 Y226.492 E31.59982
G1 X36.599 Y226.493 E34.44412
G1 X36.2 Y226.493 E34.4712
G1 X36.2 Y226.094 E34.4887
G1 X36.2 Y13.508 E48.91281
G0 F6000 X36.27 Y13.578
G0 X35.4 Y12.708
;TYPE:WALL-OUTER
G1 F1200 X85 Y12.706 E52.2782
G1 X141.481 Y12.708 E56.11047
G1 X184.6 Y12.707 E59.03613
G1 X184.6 Y227.293 E73.59593
G1 X135 Y227.293 E76.96132
G1 X78.519 Y227.292 E80.7936
G1 X35.4 Y227.293 E83.71925
G1 X35.4 Y13.108 E98.25185
G0 F1080 X35.4 Y12.708
G0 F6000 X36.27 Y13.578
G0 X36.99 Y14.298
;TYPE:SKIN
G1 F1200 X85 Y14.296 E101.50936
G1 X141.481 Y14.298 E105.34163
G1 X180.6 Y14.297 E107.99588
G1 X183.01 Y14.297 E108.1594
G1 X183.01 Y225.703 E122.50344
G1 X135 Y225.703 E125.76096
G1 X78.519 Y225.702 E129.59323
G1 X36.99 Y225.703 E132.411
G1 X36.99 Y14.698 E146.72783
G0 F1080 X36.99 Y14.298
G0 F6000 X182.06 Y14.617
G1 F1200 X182.69 Y15.247 E146.78828
G0 F6000 X182.69 Y16.378
G1 F1200 X180.928 Y14.617 E146.95731
G0 F6000 X179.798 Y14.618
G1 F1200 X182.69 Y17.51 E147.23481
G0 F6000 X182.69 Y18.641
G1 F1200 X178.666 Y14.618 E147.62089
G0 F6000 X177.535 Y14.618
G1 F1200 X182.69 Y19.772 E148.11549
G0 F6000 X182.69 Y20.904
G1 F1200 X176.404 Y14.618 E148.71867
G0 F6000 X175.272 Y14.618
G1 F1200 X182.69 Y22.035 E149.43041
G0 F6000 X182.69 Y23.166
G1 F1200 X174.141 Y14.618 E150.25069
G0 F6000 X173.009 Y14.618
G1 F1200 X182.69 Y24.298 E151.17958
G0 F6000 X182.69 Y25.429
G1 F1200 X171.878 Y14.618 E152.21701
G0 F6000 X170.747 Y14.618
G1 F1200 X182.69 Y26.561 E153.363
G0 F6000 X182.69 Y27.692
G1 F1200 X169.615 Y14.618 E154.61757
G0 F6000 X168.484 Y14.618
G1 F1200 X182.69 Y28.823 E155.98066
G0 F6000 X182.69 Y29.955
G1 F1200 X167.353 Y14.618 E157.45233
G0 F6000 X166.221 Y14.618
G1 F1200 X182.69 Y31.086 E159.03257
G0 F6000 X182.69 Y32.217
G1 F1200 X165.09 Y14.618 E160.72134
G0 F6000 X163.958 Y14.618
G1 F1200 X182.69 Y33.349 E162.51872
G0 F6000 X182.69 Y34.48
G1 F1200 X162.827 Y14.618 E164.42464
G0 F6000 X161.696 Y14.618
G1 F1200 X182.69 Y35.612 E166.43912
G0 F6000 X182.69 Y36.743
G1 F1200 X160.564 Y14.618 E168.56218
G0 F6000 X159.433 Y14.618
G1 F1200 X182.69 Y37.874 E170.79377
G0 F6000 X182.69 Y39.006
G1 F1200 X158.302 Y14.618 E173.13393
G0 F6000 X157.17 Y14.618
G1 F1200 X182.69 Y40.137 E175.58266
G0 F6000 X182.69 Y41.268
G1 F1200 X156.039 Y14.618 E178.13992
G0 F6000 X154.908 Y14.618
G1 F1200 X182.69 Y42.4 E180.80575
G0 F6000 X182.69 Y43.531
G1 F1200 X153.776 Y14.618 E183.58015
G0 F6000 X152.645 Y14.618
G1 F1200 X182.69 Y44.662 E186.46308
G0 F6000 X182.69 Y45.794
G1 F1200 X151.513 Y14.618 E189.45464
G0 F6000 X150.382 Y14.618
G1 F1200 X182.69 Y46.925 E192.55471
G0 F6000 X182.69 Y48.057
G1 F1200 X149.251 Y14.618 E195.76336
G0 F6000 X148.119 Y14.618
G1 F1200 X182.69 Y49.188 E199.08059
G0 F6000 X182.69 Y50.319
G1 F1200 X146.988 Y14.618 E202.50634
G0 F6000 X145.857 Y14.618
G1 F1200 X182.69 Y51.451 E206.04066
G0 F6000 X182.69 Y52.582
G1 F1200 X144.725 Y14.618 E209.68356
G0 F6000 X143.594 Y14.618
G1 F1200 X182.69 Y53.713 E213.43498
G0 F6000 X182.69 Y54.845
G1 F1200 X142.462 Y14.618 E217.29502
G0 F6000 X141.331 Y14.618
G1 F1200 X182.69 Y55.976 E221.26359
G0 F6000 X182.69 Y57.108
G1 F1200 X140.2 Y14.618 E225.34074
G0 F6000 X139.068 Y14.618
G1 F1200 X182.69 Y58.239 E229.52645
G0 F6000 X182.69 Y59.37
G1 F1200 X137.937 Y14.618 E233.82069
G0 F6000 X136.806 Y14.618
G1 F1200 X182.69 Y60.502 E238.22351
G0 F6000 X182.69 Y61.633
G1 F1200 X135.674 Y14.618 E242.7349
G0 F6000 X134.543 Y14.618
G1 F1200 X182.69 Y62.764 E247.35481
G0 F6000 X182.69 Y63.896
G1 F1200 X133.411 Y14.618 E252.08335
G0 F6000 X132.28 Y14.618
G1 F1200 X182.69 Y65.027 E256.92041
G0 F6000 X182.69 Y66.159
G1 F1200 X131.149 Y14.618 E261.86604
G0 F6000 X130.017 Y14.618
G1 F1200 X182.69 Y67.29 E266.92025
G0 F6000 X182.69 Y68.421
G1 F1200 X128.886 Y14.618 E272.08298
G0 F6000 X127.755 Y14.618
G1 F1200 X182.69 Y69.553 E277.35429
G0 F6000 X182.69 Y70.684
G1 F1200 X126.623 Y14.618 E282.73417
G0 F6000 X125.492 Y14.618
G1 F1200 X182.69 Y71.815 E288.22258
G0 F6000 X182.69 Y72.947
G1 F1200 X124.36 Y14.618 E293.8196
G0 F6000 X123.229 Y14.618
G1 F1200 X182.69 Y74.078 E299.52516
G0 F6000 X182.69 Y75.209
G1 F1200 X122.097 Y14.617 E305.33933
G0 F6000 X120.966 Y14.617
G1 F1200 X182.69 Y76.341 E311.26208
G0 F6000 X182.69 Y77.472
G1 F1200 X119.834 Y14.617 E317.2934
G0 F6000 X118.703 Y14.617
G1 F1200 X182.69 Y78.604 E323.4333
G0 F6000 X182.69 Y79.735
G1 F1200 X117.572 Y14.617 E329.68172
G0 F6000 X116.44 Y14.617
G1 F1200 X182.69 Y80.866 E336.03871
G0 F6000 X182.69 Y81.998
G1 F1200 X115.309 Y14.617 E342.50428
G0 F6000 X114.177 Y14.617
G1 F1200 X182.69 Y83.129 E349.07842
G0 F6000 X182.69 Y84.26
G1 F1200 X113.046 Y14.617 E355.76108
G0 F6000 X111.915 Y14.617
G1 F1200 X182.69 Y85.392 E362.55232
G0 F6000 X182.69 Y86.523
G1 F1200 X110.783 Y14.617 E369.45214
G0 F6000 X109.652 Y14.617
G1 F1200 X182.69 Y87.655 E376.46052
G0 F6000 X182.69 Y88.786
G1 F1200 X108.521 Y14.617 E383.57743
G0 F6000 X107.389 Y14.617
G1 F1200 X182.69 Y89.917 E390.80292
G0 F6000 X182.69 Y91.049
G1 F1200 X106.258 Y14.617 E398.13698
G0 F6000 X105.126 Y14.617
G1 F1200 X182.69 Y92.18 E405.57961
G0 F6000 X182.69 Y93.311
G1 F1200 X103.995 Y14.617 E413.13077
G0 F6000 X102.863 Y14.616
G1 F1200 X182.69 Y94.443 E420.7906
G0 F6000 X182.69 Y95.574
G1 F1200 X101.732 Y14.616 E428.55895
G0 F6000 X100.6 Y14.616
G1 F1200 X182.69 Y96.706 E436.43592
G0 F6000 X182.69 Y97.837
G1 F1200 X99.469 Y14.616 E444.42142
G0 F6000 X98.338 Y14.616
G1 F1200 X182.69 Y98.968 E452.51545
G0 F6000 X182.69 Y100.1
G1 F1200 X97.206 Y14.616 E460.7181
G0 F6000 X96.075 Y14.616
G1 F1200 X182.69 Y101.231 E469.02927
G0 F6000 X182.69 Y102.362
G1 F1200 X94.943 Y14.616 E477.44901
G0 F6000 X93.812 Y14.616
G1 F1200 X182.69 Y103.494 E485.97733
G0 F6000 X182.69 Y104.625
G1 F1200 X92.681 Y14.616 E494.61418
G0 F6000 X91.549 Y14.616
G1 F1200 X182.69 Y105.757 E503.35964
G0 F6000 X182.69 Y106.888
G1 F1200 X90.418 Y14.616 E512.21363
G0 F6000 X89.287 Y14.616
G1 F1200 X182.69 Y108.019 E521.17615
G0 F6000 X182.69 Y109.151
G1 F1200 X88.155 Y14.616 E530.24729
G0 F6000 X87.024 Y14.616
G1 F1200 X182.69 Y110.282 E539.42695
G0 F6000 X182.69 Y111.413
G1 F1200 X85.892 Y14.616 E548.71519
G0 F6000 X84.761 Y14.616
G1 F1200 X182.69 Y112.545 E558.112
G0 F6000 X182.69 Y113.676
G1 F1200 X83.63 Y14.616 E567.61734
G0 F6000 X82.498 Y14.616
G1 F1200 X182.69 Y114.807 E577.23125
G0 F6000 X182.69 Y115.939
G1 F1200 X81.367 Y14.616 E586.95373
G0 F6000 X80.236 Y14.616
G1 F1200 X182.69 Y117.07 E596.78474
G0 F6000 X182.69 Y118.202
G1 F1200 X79.104 Y14.616 E606.72437
G0 F6000 X77.973 Y14.616
G1 F1200 X182.69 Y119.333 E616.77253
G0 F6000 X182.69 Y120.464
G1 F1200 X76.842 Y14.616 E626.92921
G0 F6000 X75.71 Y14.616
G1 F1200 X182.69 Y121.596 E637.19451
G0 F6000 X182.69 Y122.727
G1 F1200 X74.579 Y14.616 E647.56834
G0 F6000 X73.447 Y14.616
G1 F1200 X182.69 Y123.858 E658.05074
G0 F6000 X182.69 Y124.99
G1 F1200 X72.316 Y14.616 E668.64172
G0 F6000 X71.185 Y14.616
G1 F1200 X182.69 Y126.121 E679.34122
G0 F6000 X182.69 Y127.253
G1 F1200 X70.053 Y14.616 E690.14934
G0 F6000 X68.923 Y14.617
G1 F1200 X182.69 Y128.384 E701.06589
G0 F6000 X182.69 Y129.515
G1 F1200 X67.791 Y14.617 E712.09102
G0 F6000 X66.66 Y14.617
G1 F1200 X182.69 Y130.647 E723.22472
G0 F6000 X182.69 Y131.778
G1 F1200 X65.528 Y14.617 E734.46699
G0 F6000 X64.397 Y14.617
G1 F1200 X182.69 Y132.909 E745.81779
G0 F6000 X182.69 Y134.041
G1 F1200 X63.266 Y14.617 E757.27716
G0 F6000 X62.134 Y14.617
G1 F1200 X182.69 Y135.172 E768.8451
G0 F6000 X182.69 Y136.304
G1 F1200 X61.003 Y14.617 E780.52162
G0 F6000 X59.872 Y14.617
G1 F1200 X182.69 Y137.435 E792.30666
G0 F6000 X182.69 Y138.566
G1 F1200 X58.74 Y14.617 E804.20028
G0 F6000 X57.609 Y14.617
G1 F1200 X182.69 Y139.698 E816.20247
G0 F6000 X182.69 Y140.829
G1 F1200 X56.478 Y14.617 E828.31319
G0 F6000 X55.346 Y14.617
G1 F1200 X182.69 Y141.96 E840.53248
G0 F6000 X182.69 Y143.092
G1 F1200 X54.215 Y14.617 E852.86034
G0 F6000 X53.084 Y14.618
G1 F1200 X182.69 Y144.223 E865.29668
G0 F6000 X182.69 Y145.354
G1 F1200 X51.953 Y14.618 E877.84155
G0 F6000 X50.821 Y14.618
G1 F1200 X182.69 Y146.486 E890.49504
G0 F6000 X182.69 Y147.617
G1 F1200 X49.69 Y14.618 E903.25705
G0 F6000 X48.559 Y14.618
G1 F1200 X182.69 Y148.749 E916.12763
G0 F6000 X182.69 Y149.88
G1 F1200 X47.427 Y14.618 E929.10679
G0 F6000 X46.296 Y14.618
G1 F1200 X182.69 Y151.011 E942.19448
G0 F6000 X182.69 Y152.143
G1 F1200 X45.165 Y14.618 E955.39074
G0 F6000 X44.033 Y14.618
G1 F1200 X182.69 Y153.274 E968.69557
G0 F6000 X182.69 Y154.405
G1 F1200 X42.902 Y14.618 E982.10893
G0 F6000 X41.77 Y14.618
G1 F1200 X182.69 Y155.537 E995.63091
G0 F6000 X182.69 Y156.668
G1 F1200 X40.639 Y14.618 E1009.26141
G0 F6000 X39.508 Y14.618
G1 F1200 X182.69 Y157.8 E1023.00049
G0 F6000 X182.69 Y158.931
G1 F1200 X38.376 Y14.618 E1036.84814
G0 F6000 X37.309 Y14.681
G1 F1200 X182.69 Y160.062 E1050.79823
G0 F6000 X182.69 Y161.194
G1 F1200 X37.309 Y15.813 E1064.74831
G0 F6000 X37.309 Y16.944
G1 F1200 X182.69 Y162.325 E1078.6984
G0 F6000 X182.69 Y163.456
G1 F1200 X37.309 Y18.075 E1092.64848
G0 F6000 X37.309 Y19.207
G1 F1200 X182.69 Y164.588 E1106.59856
G0 F6000 X182.69 Y165.719
G1 F1200 X37.309 Y20.338 E1120.54865
G0 F6000 X37.309 Y21.469
G1 F1200 X182.69 Y166.851 E1134.49878
G0 F6000 X182.69 Y167.982
G1 F1200 X37.309 Y22.601 E1148.44886
G0 F6000 X37.309 Y23.732
G1 F1200 X182.69 Y169.113 E1162.39895
G0 F6000 X182.69 Y170.245
G1 F1200 X37.309 Y24.863 E1176.34908
G0 F6000 X37.309 Y25.995
G1 F1200 X182.69 Y171.376 E1190.29916
G0 F6000 X182.69 Y172.507
G1 F1200 X37.309 Y27.126 E1204.24925
G0 F6000 X37.309 Y28.258
G1 F1200 X182.69 Y173.639 E1218.19933
G0 F6000 X182.69 Y174.77
G1 F1200 X37.309 Y29.389 E1232.14942
G0 F6000 X37.309 Y30.52
G1 F1200 X182.69 Y175.902 E1246.09955
G0 F6000 X182.69 Y177.033
G1 F1200 X37.309 Y31.652 E1260.04963
G0 F6000 X37.309 Y32.783
G1 F1200 X182.69 Y178.164 E1273.99972
G0 F6000 X182.69 Y179.296
G1 F1200 X37.309 Y33.914 E1287.94985
G0 F6000 X37.309 Y35.046
G1 F1200 X182.69 Y180.427 E1301.89993
G0 F6000 X182.69 Y181.558
G1 F1200 X37.309 Y36.177 E1315.85002
G0 F6000 X37.309 Y37.309
G1 F1200 X182.69 Y182.69 E1329.8001
G0 F6000 X182.69 Y183.821
G1 F1200 X37.309 Y38.44 E1343.75018
G0 F6000 X37.309 Y39.571
G1 F1200 X182.69 Y184.952 E1357.70027
G0 F6000 X182.69 Y186.084
G1 F1200 X37.309 Y40.703 E1371.65035
G0 F6000 X37.309 Y41.834
G1 F1200 X182.69 Y187.215 E1385.60044
G0 F6000 X182.69 Y188.347
G1 F1200 X37.309 Y42.965 E1399.55057
G0 F6000 X37.309 Y44.097
G1 F1200 X182.69 Y189.478 E1413.50065
G0 F6000 X182.69 Y190.609
G1 F1200 X37.309 Y45.228 E1427.45074
G0 F6000 X37.309 Y46.36
G1 F1200 X182.69 Y191.741 E1441.40082
G0 F6000 X182.69 Y192.872
G1 F1200 X37.309 Y47.491 E1455.35091
G0 F6000 X37.309 Y48.622
G1 F1200 X182.69 Y194.003 E1469.30099
G0 F6000 X182.69 Y195.135
G1 F1200 X37.309 Y49.754 E1483.25107
G0 F6000 X37.309 Y50.885
G1 F1200 X182.69 Y196.266 E1497.20116
G0 F6000 X182.69 Y197.398
G1 F1200 X37.309 Y52.016 E1511.15129
G0 F6000 X37.309 Y53.148
G1 F1200 X182.69 Y198.529 E1525.10137
G0 F6000 X182.69 Y199.66
G1 F1200 X37.309 Y54.279 E1539.05146
G0 F6000 X37.309 Y55.411
G1 F1200 X182.69 Y200.792 E1553.00154
G0 F6000 X182.69 Y201.923
G1 F1200 X37.309 Y56.542 E1566.95163
G0 F6000 X37.309 Y57.673
G1 F1200 X182.69 Y203.054 E1580.90171
G0 F6000 X182.69 Y204.186
G1 F1200 X37.309 Y58.805 E1594.85179
G0 F6000 X37.309 Y59.936
G1 F1200 X182.69 Y205.317 E1608.80188
G0 F6000 X182.69 Y206.449
G1 F1200 X37.309 Y61.067 E1622.75201
G0 F6000 X37.309 Y62.199
G1 F1200 X182.69 Y207.58 E1636.70209
G0 F6000 X182.69 Y208.711
G1 F1200 X37.309 Y63.33 E1650.65218
G0 F6000 X37.309 Y64.461
G1 F1200 X182.69 Y209.843 E1664.60231
G0 F6000 X182.69 Y210.974
G1 F1200 X37.309 Y65.593 E1678.55239
G0 F6000 X37.309 Y66.724
G1 F1200 X182.69 Y212.105 E1692.50248
G0 F6000 X182.69 Y213.237
G1 F1200 X37.309 Y67.856 E1706.45256
G0 F6000 X37.309 Y68.987
G1 F1200 X182.69 Y214.368 E1720.40265
G0 F6000 X182.69 Y215.499
G1 F1200 X37.309 Y70.118 E1734.35273
G0 F6000 X37.309 Y71.25
G1 F1200 X182.69 Y216.631 E1748.30282
G0 F6000 X182.69 Y217.762
G1 F1200 X37.309 Y72.381 E1762.2529
G0 F6000 X37.309 Y73.512
G1 F1200 X182.69 Y218.894 E1776.20303
G0 F6000 X182.69 Y220.025
G1 F1200 X37.309 Y74.644 E1790.15312
G0 F6000 X37.309 Y75.775
G1 F1200 X182.69 Y221.156 E1804.1032
G0 F6000 X182.69 Y222.288
G1 F1200 X37.309 Y76.907 E1818.05328
G0 F6000 X37.309 Y78.038
G1 F1200 X182.69 Y223.419 E1832.00337
G0 F6000 X182.69 Y224.55
G1 F1200 X37.309 Y79.169 E1845.95345
G0 F6000 X37.309 Y80.301
G1 F1200 X182.39 Y225.382 E1859.87475
G0 F6000 X181.259 Y225.382
G1 F1200 X37.309 Y81.432 E1873.68752
G0 F6000 X37.309 Y82.563
G1 F1200 X180.127 Y225.382 E1887.39172
G0 F6000 X178.996 Y225.382
G1 F1200 X37.309 Y83.695 E1900.98734
G0 F6000 X37.309 Y84.826
G1 F1200 X177.864 Y225.382 E1914.4744
G0 F6000 X176.733 Y225.382
G1 F1200 X37.309 Y85.958 E1927.85287
G0 F6000 X37.309 Y87.089
G1 F1200 X175.602 Y225.382 E1941.12283
G0 F6000 X174.47 Y225.382
G1 F1200 X37.309 Y88.22 E1954.28421
G0 F6000 X37.309 Y89.352
G1 F1200 X173.339 Y225.382 E1967.33701
G0 F6000 X172.208 Y225.382
G1 F1200 X37.309 Y90.483 E1980.28129
G0 F6000 X37.309 Y91.614
G1 F1200 X171.076 Y225.382 E1993.117
G0 F6000 X169.945 Y225.382
G1 F1200 X37.309 Y92.746 E2005.84413
G0 F6000 X37.309 Y93.877
G1 F1200 X168.813 Y225.382 E2018.46269
G0 F6000 X167.682 Y225.382
G1 F1200 X37.309 Y95.008 E2030.97273
G0 F6000 X37.309 Y96.14
G1 F1200 X166.551 Y225.382 E2043.37419
G0 F6000 X165.419 Y225.382
G1 F1200 X37.309 Y97.271 E2055.66707
G0 F6000 X37.309 Y98.403
G1 F1200 X164.288 Y225.382 E2067.85139
G0 F6000 X163.157 Y225.382
G1 F1200 X37.309 Y99.534 E2079.92718
G0 F6000 X37.309 Y100.665
G1 F1200 X162.025 Y225.382 E2091.89439
G0 F6000 X160.894 Y225.382
G1 F1200 X37.309 Y101.797 E2103.75303
G0 F6000 X37.309 Y102.928
G1 F1200 X159.762 Y225.382 E2115.5031
G0 F6000 X158.631 Y225.382
G1 F1200 X37.309 Y104.059 E2127.14464
G0 F6000 X37.309 Y105.191
G1 F1200 X157.5 Y225.382 E2138.67761
G0 F6000 X156.368 Y225.382
G1 F1200 X37.309 Y106.322 E2150.10201
G0 F6000 X37.309 Y107.454
G1 F1200 X155.237 Y225.382 E2161.41783
G0 F6000 X154.106 Y225.382
G1 F1200 X37.309 Y108.585 E2172.62513
G0 F6000 X37.309 Y109.716
G1 F1200 X152.974 Y225.382 E2183.72385
G0 F6000 X151.843 Y225.382
