M201 X500.00 Y100.00 Z100.00 E5000.00 ;Setup machine max acceleration
M203 X500.00 Y500.00 Z10.00 E75.00 ;Setup machine max feedrate
M204 P100.00 R100.00 T100.00 ;Setup Print/Retract/Travel acceleration
M205 X8.00 Y8.00 Z0.40 E5.00 ;Setup Jerk
M220 S100 ;Reset Feedrate
M221 S100 ;Reset Flowrate

G21 ; (metric values)
G90 ; (absolute positioning)
M82 ; (set extruder to absolute mode)
G28 Y; (home only Y axis)

M140 S37
M105
M190 S37 ;Handwarme Temperatur

G0 F2000.00

G1 Y120
G1 Y100
G1 Y120
G1 Y100
G1 Y120
G1 Y100
G1 Y120
G1 Y100
G1 Y120
G1 Y100
G1 Y120
G1 Y100
G1 Y120
G1 Y100
G1 Y120
G1 Y100
G1 Y120
G1 Y100
G1 Y120
G1 Y100
G1 Y120
G1 Y100
G1 Y120
G1 Y100
G1 Y120
G1 Y100
G1 Y120
G1 Y100
G1 Y120
G1 Y100
G1 Y120
G1 Y100
G1 Y120
G1 Y100
G1 Y120
G1 Y100
G1 Y120
G1 Y100
G1 Y120
G1 Y100
G1 Y120
G1 Y100
G1 Y120
G1 Y100
G1 Y120
G1 Y100
G1 Y120
G1 Y100
G1 Y120
G1 Y100
G1 Y120
G1 Y100
G1 Y120
G1 Y100
G1 Y120
G1 Y100
G1 Y120
G1 Y100
G1 Y120
G1 Y100
G1 Y120
G1 Y100
G1 Y120
G1 Y100
G1 Y120
G1 Y100
G1 Y120
G1 Y100
G1 Y120
G1 Y100
G1 Y120
G1 Y100
G1 Y120
G1 Y100
G1 Y120
G1 Y100
G1 Y120
G1 Y100
G1 Y120
G1 Y100
G1 Y120
G1 Y100
G1 Y120
G1 Y100
G1 Y120
G1 Y100
G1 Y120
G1 Y100
G1 Y120
G1 Y100
G1 Y120
G1 Y100
G1 Y120
G1 Y100
G1 Y120
G1 Y100
G1 Y120
G1 Y100
G1 Y120
G1 Y100
G1 Y120
G1 Y100
G1 Y120
G1 Y100
G1 Y120
G1 Y100
G1 Y120
G1 Y100
G1 Y120
G1 Y100
G1 Y120
G1 Y100
G1 Y120
G1 Y100
G1 Y120
G1 Y100
G1 Y120
G1 Y100
G1 Y120
G1 Y100
G1 Y120
G1 Y100
G1 Y120
G1 Y100
G1 Y120
G1 Y100
G1 Y120
G1 Y100
G1 Y120
G1 Y100
G1 Y120
G1 Y100
G1 Y120
G1 Y100
G1 Y120
G1 Y100
G1 Y120
G1 Y100
G1 Y120
G1 Y100
G1 Y120
G1 Y100
G1 Y120
G1 Y100
G1 Y120
G1 Y100
G1 Y120
G1 Y100
G1 Y120
G1 Y100
G1 Y120
G1 Y100
G1 Y120
G1 Y100
G1 Y120
G1 Y100
G1 Y120
G1 Y100
G1 Y120
G1 Y100
G1 Y120
G1 Y100
G1 Y120
G1 Y100
G1 Y120
G1 Y100
G1 Y120
G1 Y100
G1 Y120
G1 Y100
G1 Y120
G1 Y100
G1 Y120
G1 Y100
G1 Y120
G1 Y100
G1 Y120
G1 Y100
G1 Y120
G1 Y100
G1 Y120
G1 Y100
G1 Y120
G1 Y100
G1 Y120
G1 Y100
G1 Y120
G1 Y100
G1 Y120
G1 Y100
G1 Y120
G1 Y100
G1 Y120
G1 Y100
G1 Y120
G1 Y100
G1 Y120
G1 Y100
G1 Y120
G1 Y100
G1 Y120
G1 Y100
G1 Y120
G1 Y100
G1 Y120
G1 Y100
G1 Y120
G1 Y100
G1 Y120
G1 Y100
G1 Y120
G1 Y100
G1 Y120
G1 Y100
G1 Y120
G1 Y100
G1 Y120
G1 Y100
G1 Y120
G1 Y100
G1 Y120
G1 Y100
G1 Y120
G1 Y100
G1 Y120
G1 Y100
G1 Y120
G1 Y100
G1 Y120
G1 Y100
G1 Y120
G1 Y100
G1 Y120
G1 Y100
G1 Y120
G1 Y100
G1 Y120
G1 Y100
G1 Y120
G1 Y100
G1 Y120
G1 Y100
G1 Y120
G1 Y100
G1 Y120
G1 Y100
G1 Y120
G1 Y100
G1 Y120
G1 Y100
G1 Y120
G1 Y100
G1 Y120
G1 Y100
G1 Y120
G1 Y100
G1 Y120
G1 Y100
G1 Y120
G1 Y100
G1 Y120
G1 Y100
G1 Y120
G1 Y100
G1 Y120
G1 Y100
G1 Y120
G1 Y100
G1 Y120
G1 Y100
G1 Y120
G1 Y100
G1 Y120
G1 Y100
G1 Y120
G1 Y100
G1 Y120
G1 Y100
G1 Y120
G1 Y100
G1 Y120
G1 Y100
G1 Y120
G1 Y100
G1 Y120
G1 Y100
G1 Y120
G1 Y100
G1 Y120
G1 Y100
G1 Y120
G1 Y100
G1 Y120
G1 Y100
G1 Y120
G1 Y100
G1 Y120
G1 Y100
G1 Y120
G1 Y100
G1 Y120
G1 Y100
G1 Y120
G1 Y100
G1 Y120
G1 Y100
G1 Y120
G1 Y100
G1 Y120
G1 Y100
G1 Y120
G1 Y100
G1 Y120
G1 Y100
G1 Y120
G1 Y100
G1 Y120
G1 Y100
G1 Y120
G1 Y100
G1 Y120
G1 Y100
G1 Y120
G1 Y100
G1 Y120
G1 Y100
G1 Y120
G1 Y100
G1 Y120
G1 Y100
G1 Y120
G1 Y100
G1 Y120
G1 Y100
G1 Y120
G1 Y100
G1 Y120
G1 Y100
G1 Y120
G1 Y100
G1 Y120
G1 Y100
G1 Y120
G1 Y100
G1 Y120
G1 Y100
G1 Y120
G1 Y100
G1 Y120
G1 Y100
G1 Y120
G1 Y100
G1 Y120
G1 Y100
G1 Y120
G1 Y100
G1 Y120
G1 Y100
G1 Y120
G1 Y100
G1 Y120
G1 Y100
G1 Y120
G1 Y100
G1 Y120
G1 Y100
G1 Y120
G1 Y100
G1 Y120
G1 Y100
G1 Y120
G1 Y100
G1 Y120
G1 Y100
G1 Y120
G1 Y100
G1 Y120
G1 Y100
G1 Y120
G1 Y100
G1 Y120
G1 Y100
G1 Y120
G1 Y100
G1 Y120
G1 Y100
G1 Y120
G1 Y100
G1 Y120
G1 Y100
G1 Y120
G1 Y100
G1 Y120
G1 Y100
G1 Y120
G1 Y100
G1 Y120
G1 Y100
G1 Y120
G1 Y100
G1 Y120
G1 Y100
G1 Y120
G1 Y100
G1 Y120
G1 Y100
G1 Y120
G1 Y100
G1 Y120
G1 Y100
G1 Y120
G1 Y100
G1 Y120
G1 Y100
G1 Y120
G1 Y100
G1 Y120
G1 Y100
G1 Y120
G1 Y100
G1 Y120
G1 Y100
G1 Y120
G1 Y100
G1 Y120
G1 Y100
G1 Y120
G1 Y100
G1 Y120
G1 Y100
G1 Y120
G1 Y100
G1 Y120
G1 Y100
G1 Y120
G1 Y100
G1 Y120
G1 Y100
G1 Y120
G1 Y100
G1 Y120
G1 Y100
G1 Y120
G1 Y100
G1 Y120
G1 Y100
G1 Y120
G1 Y100
G1 Y120
G1 Y100
G1 Y120
G1 Y100
G1 Y120
G1 Y100
G1 Y120
G1 Y100
G1 Y120
G1 Y100
G1 Y120
G1 Y100
G1 Y120
G1 Y100
G1 Y120
G1 Y100
G1 Y120
G1 Y100
G1 Y120
G1 Y100
G1 Y120
G1 Y100
G1 Y120
G1 Y100
G1 Y120
G1 Y100
G1 Y120
G1 Y100
G1 Y120
G1 Y100
G1 Y120
G1 Y100
G1 Y120
G1 Y100
G1 Y120
G1 Y100
G1 Y120
G1 Y100
G1 Y120
G1 Y100
G1 Y120
G1 Y100
G1 Y120
G1 Y100
G1 Y120
G1 Y100
G1 Y120
G1 Y100
G1 Y120
G1 Y100
G1 Y120
G1 Y100
G1 Y120
G1 Y100
G1 Y120
G1 Y100
G1 Y120
G1 Y100
G1 Y120
G1 Y100
G1 Y120
G1 Y100
G1 Y120
G1 Y100
G1 Y120
G1 Y100
G1 Y120
G1 Y100
G1 Y120
G1 Y100
G1 Y120
G1 Y100
G1 Y120
G1 Y100
G1 Y120
G1 Y100
G1 Y120
G1 Y100
G1 Y120
G1 Y100
G1 Y120
G1 Y100
G1 Y120
G1 Y100
G1 Y120
G1 Y100
G1 Y120
G1 Y100
G1 Y120
G1 Y100
G1 Y120
G1 Y100
G1 Y120
G1 Y100
G1 Y120
G1 Y100
G1 Y120
G1 Y100
G1 Y120
G1 Y100
G1 Y120
G1 Y100
G1 Y120
G1 Y100
G1 Y120
G1 Y100
G1 Y120
G1 Y100
G1 Y120
G1 Y100
G1 Y120
G1 Y100
G1 Y120
G1 Y100
G1 Y120
G1 Y100
G1 Y120
G1 Y100
G1 Y120
G1 Y100
G1 Y120
G1 Y100
G1 Y120
G1 Y100
G1 Y120
G1 Y100
G1 Y120
G1 Y100
G1 Y120
G1 Y100
G1 Y120
G1 Y100
G1 Y120
G1 Y100
G1 Y120
G1 Y100
G1 Y120
G1 Y100
G1 Y120
G1 Y100
G1 Y120
G1 Y100
G1 Y120
G1 Y100
G1 Y120
G1 Y100
G1 Y120
G1 Y100
G1 Y120
G1 Y100
G1 Y120
G1 Y100
G1 Y120
G1 Y100
G1 Y120
G1 Y100
G1 Y120
G1 Y100
G1 Y120
G1 Y100
G1 Y120
G1 Y100
G1 Y120
G1 Y100
G1 Y120
G1 Y100
G1 Y120
G1 Y100
G1 Y120
G1 Y100
G1 Y120
G1 Y100
G1 Y120
G1 Y100
G1 Y120
G1 Y100
G1 Y120
G1 Y100
G1 Y120
G1 Y100
G1 Y120
G1 Y100
G1 Y120
G1 Y100
G1 Y120
G1 Y100
G1 Y120
G1 Y100
G1 Y120
G1 Y100
G1 Y120
G1 Y100
G1 Y120
G1 Y100
G1 Y120
G1 Y100
G1 Y120
G1 Y100
G1 Y120
G1 Y100
G1 Y120
G1 Y100
G1 Y120
G1 Y100
G1 Y120
G1 Y100
G1 Y120
G1 Y100
G1 Y120
G1 Y100
G1 Y120
G1 Y100
G1 Y120
G1 Y100
G1 Y120
G1 Y100
G1 Y120
G1 Y100
G1 Y120
G1 Y100
G1 Y120
G1 Y100
G1 Y120
G1 Y100
G1 Y120
G1 Y100
G1 Y120
G1 Y100
G1 Y120
G1 Y100
G1 Y120
G1 Y100
G1 Y120
G1 Y100
G1 Y120
G1 Y100
G1 Y120
G1 Y100
G1 Y120
G1 Y100
G1 Y120
G1 Y100
G1 Y120
G1 Y100
G1 Y120
G1 Y100
G1 Y120
G1 Y100
G1 Y120
G1 Y100
G1 Y120
G1 Y100
G1 Y120
G1 Y100
G1 Y120
G1 Y100
G1 Y120
G1 Y100
G1 Y120
G1 Y100
G1 Y120
G1 Y100
G1 Y120
G1 Y100
G1 Y120
G1 Y100
G1 Y120
G1 Y100
G1 Y120
G1 Y100
G1 Y120
G1 Y100
G1 Y120
G1 Y100
G1 Y120
G1 Y100
G1 Y120
G1 Y100
G1 Y120
G1 Y100
G1 Y120
G1 Y100
G1 Y120
G1 Y100
G1 Y120
G1 Y100
G1 Y120
G1 Y100
G1 Y120
G1 Y100
G1 Y120
G1 Y100
G1 Y120
G1 Y100
G1 Y120
G1 Y100
G1 Y120
G1 Y100
G1 Y120
G1 Y100
G1 Y120
G1 Y100
G1 Y120
G1 Y100
G1 Y120
G1 Y100
G1 Y120
G1 Y100
G1 Y120
G1 Y100
G1 Y120
G1 Y100
G1 Y120
G1 Y100
G1 Y120
G1 Y100
G1 Y120
G1 Y100
G1 Y120
G1 Y100
G1 Y120
G1 Y100
G1 Y120
G1 Y100
G1 Y120
G1 Y100
G1 Y120
G1 Y100
G1 Y120
G1 Y100
G1 Y120
G1 Y100
G1 Y120
G1 Y100
G1 Y120
G1 Y100
G1 Y120
G1 Y100
G1 Y120
G1 Y100
G1 Y120
G1 Y100
G1 Y120
G1 Y100
G1 Y120
G1 Y100
G1 Y120
G1 Y100
G1 Y120
G1 Y100
G1 Y120
G1 Y100
G1 Y120
G1 Y100
G1 Y120
G1 Y100
G1 Y120
G1 Y100
G1 Y120
G1 Y100
G1 Y120
G1 Y100
G1 Y120
G1 Y100
G1 Y120
G1 Y100
G1 Y120
G1 Y100
G1 Y120
G1 Y100
G1 Y120
G1 Y100
G1 Y120
G1 Y100
G1 Y120
G1 Y100
G1 Y120
G1 Y100
G1 Y120
G1 Y100
G1 Y120
G1 Y100
G1 Y120
G1 Y100
G1 Y120
G1 Y100
G1 Y120
G1 Y100
G1 Y120
G1 Y100
G1 Y120
G1 Y100
G1 Y120
G1 Y100
G1 Y120
G1 Y100
G1 Y120
G1 Y100
G1 Y120
G1 Y100
G1 Y120
G1 Y100
G1 Y120
G1 Y100
G1 Y120
G1 Y100
G1 Y120
G1 Y100
G1 Y120
G1 Y100
G1 Y120
G1 Y100
G1 Y120
G1 Y100
G1 Y120
G1 Y100
G1 Y120
G1 Y100
G1 Y120
G1 Y100
G1 Y120
G1 Y100
G1 Y120
G1 Y100
G1 Y120
G1 Y100
G1 Y120
G1 Y100
G1 Y120
G1 Y100
G1 Y120
G1 Y100
G1 Y120
G1 Y100
G1 Y120
G1 Y100
G1 Y120
G1 Y100
G1 Y120
G1 Y100
G1 Y120
G1 Y100
G1 Y120
G1 Y100
G1 Y120
G1 Y100
G1 Y120
G1 Y100
G1 Y120
G1 Y100
G1 Y120
G1 Y100
G1 Y120
G1 Y100
G1 Y120
G1 Y100
G1 Y120
G1 Y100
G1 Y120
G1 Y100
G1 Y120
G1 Y100
G1 Y120
G1 Y100
G1 Y120
G1 Y100
G1 Y120
G1 Y100
G1 Y120
G1 Y100
G1 Y120
G1 Y100
G1 Y120
G1 Y100
G1 Y120
G1 Y100
G1 Y120
G1 Y100
G1 Y120
G1 Y100
G1 Y120
G1 Y100
G1 Y120
G1 Y100
G1 Y120
G1 Y100
G1 Y120
G1 Y100
G1 Y120
G1 Y100
G1 Y120
G1 Y100
G1 Y120
G1 Y100
G1 Y120
G1 Y100
G1 Y120
G1 Y100
G1 Y120
G1 Y100
G1 Y120
G1 Y100
G1 Y120
G1 Y100
G1 Y120
G1 Y100
G1 Y120
G1 Y100
G1 Y120
G1 Y100
G1 Y120
G1 Y100
G1 Y120
G1 Y100
G1 Y120
G1 Y100
G1 Y120
G1 Y100
G1 Y120
G1 Y100
G1 Y120
G1 Y100
G1 Y120
G1 Y100
G1 Y120
G1 Y100
G1 Y120
G1 Y100
G1 Y120
G1 Y100
G1 Y120
G1 Y100
G1 Y120
G1 Y100
G1 Y120
G1 Y100
G1 Y120
G1 Y100
G1 Y120
G1 Y100
G1 Y120
G1 Y100
G1 Y120
G1 Y100
G1 Y120
G1 Y100
G1 Y120
G1 Y100
G1 Y120
G1 Y100
G1 Y120
G1 Y100
G1 Y120
G1 Y100
G1 Y120
G1 Y100
G1 Y120
G1 Y100
G1 Y120
G1 Y100
G1 Y120
G1 Y100
G1 Y120
G1 Y100
G1 Y120
G1 Y100
G1 Y120
G1 Y100
G1 Y120
G1 Y100
G1 Y120
G1 Y100
G1 Y120
G1 Y100
G1 Y120
G1 Y100
G1 Y120
G1 Y100
G1 Y120
G1 Y100
G1 Y120
G1 Y100
G1 Y120
G1 Y100
G1 Y120
G1 Y100
G1 Y120
G1 Y100
G1 Y120
G1 Y100
G1 Y120
G1 Y100
G1 Y120
G1 Y100
G1 Y120
G1 Y100
G1 Y120
G1 Y100
G1 Y120
G1 Y100
G1 Y120
G1 Y100
G1 Y120
G1 Y100
G1 Y120
G1 Y100
G1 Y120
G1 Y100
G1 Y120
G1 Y100
G1 Y120
G1 Y100
G1 Y120
G1 Y100
G1 Y120
G1 Y100
G1 Y120
G1 Y100
G1 Y120
G1 Y100
G1 Y120
G1 Y100
G1 Y120
G1 Y100
G1 Y120
G1 Y100
G1 Y120
G1 Y100
G1 Y120
G1 Y100
G1 Y120
G1 Y100
G1 Y120
G1 Y100
G1 Y120
G1 Y100
G1 Y120
G1 Y100
G1 Y120
G1 Y100
G1 Y120
G1 Y100
G1 Y120
G1 Y100
G1 Y120
G1 Y100
G1 Y120
G1 Y100
G1 Y120
G1 Y100
G1 Y120
G1 Y100
G1 Y120
G1 Y100
G1 Y120
G1 Y100
G1 Y120
G1 Y100
G1 Y120
G1 Y100
G1 Y120
G1 Y100
G1 Y120
G1 Y100
G1 Y120
G1 Y100
G1 Y120
G1 Y100
G1 Y120
G1 Y100
G1 Y120
G1 Y100
G1 Y120
G1 Y100
G1 Y120
G1 Y100
G1 Y120
G1 Y100
G1 Y120
G1 Y100
G1 Y120
G1 Y100
G1 Y120
G1 Y100
G1 Y120
G1 Y100
G1 Y120
G1 Y100
G1 Y120
G1 Y100
G1 Y120
G1 Y100
G1 Y120
G1 Y100
G1 Y120
G1 Y100
G1 Y120
G1 Y100
G1 Y120
G1 Y100
G1 Y120
G1 Y100
G1 Y120
G1 Y100
G1 Y120
G1 Y100
G1 Y120
G1 Y100
G1 Y120
G1 Y100
G1 Y120
G1 Y100
G1 Y120
G1 Y100
G1 Y120
G1 Y100
G1 Y120
G1 Y100
G1 Y120
G1 Y100
G1 Y120
G1 Y100
G1 Y120
G1 Y100
G1 Y120
G1 Y100
G1 Y120
G1 Y100
G1 Y120
G1 Y100
G1 Y120
G1 Y100
G1 Y120
G1 Y100
G1 Y120
G1 Y100
G1 Y120
G1 Y100
G1 Y120
G1 Y100
G1 Y120
G1 Y100
G1 Y120
G1 Y100
G1 Y120
G1 Y100
G1 Y120
G1 Y100
G1 Y120
G1 Y100
G1 Y120
G1 Y100
G1 Y120
G1 Y100
G1 Y120
G1 Y100
G1 Y120
G1 Y100
G1 Y120
G1 Y100
G1 Y120
G1 Y100
G1 Y120
G1 Y100
G1 Y120
G1 Y100
G1 Y120
G1 Y100
G1 Y120
G1 Y100
G1 Y120
G1 Y100
G1 Y120
G1 Y100
G1 Y120
G1 Y100
G1 Y120
G1 Y100
G1 Y120
G1 Y100
G1 Y120
G1 Y100
G1 Y120
G1 Y100
G1 Y120
G1 Y100
G1 Y120
G1 Y100
G1 Y120
G1 Y100
G1 Y120
G1 Y100
G1 Y120
G1 Y100
G1 Y120
G1 Y100
G1 Y120
G1 Y100
G1 Y120
G1 Y100
G1 Y120
G1 Y100
G1 Y120
G1 Y100
G1 Y120
G1 Y100
G1 Y120
G1 Y100
G1 Y120
G1 Y100
G1 Y120
G1 Y100
G1 Y120
G1 Y100
G1 Y120
G1 Y100
G1 Y120
G1 Y100
G1 Y120
G1 Y100
G1 Y120
G1 Y100
G1 Y120
G1 Y100
G1 Y120
G1 Y100
G1 Y120
G1 Y100
G1 Y120
G1 Y100
G1 Y120
G1 Y100
G1 Y120
G1 Y100
G1 Y120
G1 Y100
G1 Y120
G1 Y100
G1 Y120
G1 Y100
G1 Y120
G1 Y100
G1 Y120
G1 Y100
G1 Y120
G1 Y100
G1 Y120
G1 Y100
G1 Y120
G1 Y100
G1 Y120
G1 Y100
G1 Y120
G1 Y100
G1 Y120
G1 Y100
G1 Y120
G1 Y100
G1 Y120
G1 Y100
G1 Y120
G1 Y100
G1 Y120
G1 Y100
G1 Y120
G1 Y100
G1 Y120
G1 Y100
G1 Y120
G1 Y100
G1 Y120
G1 Y100
G1 Y120
G1 Y100
G1 Y120
G1 Y100
G1 Y120
G1 Y100
G1 Y120
G1 Y100
G1 Y120
G1 Y100
G1 Y120
G1 Y100
G1 Y120
G1 Y100
G1 Y120
G1 Y100
G1 Y120
G1 Y100
G1 Y120
G1 Y100
G1 Y120
G1 Y100
G1 Y120
G1 Y100
G1 Y120
G1 Y100
G1 Y120
G1 Y100
G1 Y120
G1 Y100
G1 Y120
G1 Y100
G1 Y120
G1 Y100
G1 Y120
G1 Y100
G1 Y120
G1 Y100
G1 Y120
G1 Y100
G1 Y120
G1 Y100
G1 Y120
G1 Y100
G1 Y120
G1 Y100
G1 Y120
G1 Y100
G1 Y120
G1 Y100
G1 Y120
G1 Y100
G1 Y120
G1 Y100
G1 Y120
G1 Y100
G1 Y120
G1 Y100
G1 Y120
G1 Y100
G1 Y120
G1 Y100
G1 Y120
G1 Y100
G1 Y120
G1 Y100
G1 Y120
G1 Y100
G1 Y120
G1 Y100
G1 Y120
G1 Y100
G1 Y120
G1 Y100
G1 Y120
G1 Y100
G1 Y120
G1 Y100
G1 Y120
G1 Y100
G1 Y120
G1 Y100
G1 Y120
G1 Y100
G1 Y120
G1 Y100
G1 Y120
G1 Y100
G1 Y120
G1 Y100
G1 Y120
G1 Y100
G1 Y120
G1 Y100
G1 Y120
G1 Y100
G1 Y120
G1 Y100
G1 Y120
G1 Y100
G1 Y120
G1 Y100
G1 Y120
G1 Y100
G1 Y120
G1 Y100
G1 Y120
G1 Y100
G1 Y120
G1 Y100
G1 Y120
G1 Y100
G1 Y120
G1 Y100
G1 Y120
G1 Y100
G1 Y120
G1 Y100
G1 Y120
G1 Y100
G1 Y120
G1 Y100
G1 Y120
G1 Y100
G1 Y120
G1 Y100
G1 Y120
G1 Y100
G1 Y120
G1 Y100
G1 Y120
G1 Y100
G1 Y120
G1 Y100
G1 Y120
G1 Y100
G1 Y120
G1 Y100
G1 Y120
G1 Y100
G1 Y120
G1 Y100
G1 Y120
G1 Y100
G1 Y120
G1 Y100
G1 Y120
G1 Y100
G1 Y120
G1 Y100
G1 Y120
G1 Y100
G1 Y120
G1 Y100
G1 Y120
G1 Y100
G1 Y120
G1 Y100
G1 Y120
G1 Y100
G1 Y120
G1 Y100
G1 Y120
G1 Y100
G1 Y120
G1 Y100
G1 Y120
G1 Y100
G1 Y120
G1 Y100
G1 Y120
G1 Y100
G1 Y120
G1 Y100
G1 Y120
G1 Y100
G1 Y120
G1 Y100
G1 Y120
G1 Y100
G1 Y120
G1 Y100
G1 Y120
G1 Y100
G1 Y120
G1 Y100
G1 Y120
G1 Y100
G1 Y120
G1 Y100
G1 Y120
G1 Y100
G1 Y120
G1 Y100
G1 Y120
G1 Y100
G1 Y120
G1 Y100
G1 Y120
G1 Y100
G1 Y120
G1 Y100
G1 Y120
G1 Y100
G1 Y120
G1 Y100
G1 Y120
G1 Y100
G1 Y120
G1 Y100
G1 Y120
G1 Y100
G1 Y120
G1 Y100
G1 Y120
G1 Y100
G1 Y120
G1 Y100
G1 Y120
G1 Y100
G1 Y120
G1 Y100
G1 Y120
G1 Y100
G1 Y120
G1 Y100
G1 Y120
G1 Y100
G1 Y120
G1 Y100
G1 Y120
G1 Y100
G1 Y120
G1 Y100
G1 Y120
G1 Y100
G1 Y120
G1 Y100
G1 Y120
G1 Y100
G1 Y120
G1 Y100
G1 Y120
G1 Y100
G1 Y120
G1 Y100
G1 Y120
G1 Y100
G1 Y120
G1 Y100
G1 Y120
G1 Y100
G1 Y120
G1 Y100
G1 Y120
G1 Y100
G1 Y120
G1 Y100
G1 Y120
G1 Y100
G1 Y120
G1 Y100
G1 Y120
G1 Y100
G1 Y120
G1 Y100
G1 Y120
G1 Y100
G1 Y120
G1 Y100
G1 Y120
G1 Y100
G1 Y120
G1 Y100
G1 Y120
G1 Y100
G1 Y120
G1 Y100
G1 Y120
G1 Y100
G1 Y120
G1 Y100
G1 Y120
G1 Y100
G1 Y120
G1 Y100
G1 Y120
G1 Y100
G1 Y120
G1 Y100
G1 Y120
G1 Y100
G1 Y120
G1 Y100
G1 Y120
G1 Y100
G1 Y120
G1 Y100
G1 Y120
G1 Y100
G1 Y120
G1 Y100
G1 Y120
G1 Y100
G1 Y120
G1 Y100
G1 Y120
G1 Y100
G1 Y120
G1 Y100
G1 Y120
G1 Y100
G1 Y120
G1 Y100
G1 Y120
G1 Y100
G1 Y120
G1 Y100
G1 Y120
G1 Y100
G1 Y120
G1 Y100
G1 Y120
G1 Y100
G1 Y120
G1 Y100
G1 Y120
G1 Y100
G1 Y120
G1 Y100
G1 Y120
G1 Y100
G1 Y120
G1 Y100
G1 Y120
G1 Y100
G1 Y120
G1 Y100
G1 Y120
G1 Y100
G1 Y120
G1 Y100
G1 Y120
G1 Y100
G1 Y120
G1 Y100
G1 Y120
G1 Y100
G1 Y120
G1 Y100
G1 Y120
G1 Y100
G1 Y120
G1 Y100
G1 Y120
G1 Y100
G1 Y120
G1 Y100
G1 Y120
G1 Y100
G1 Y120
G1 Y100
G1 Y120
G1 Y100
G1 Y120
G1 Y100
G1 Y120
G1 Y100
G1 Y120
G1 Y100
G1 Y120
G1 Y100
G1 Y120
G1 Y100
G1 Y120
G1 Y100
G1 Y120
G1 Y100
G1 Y120
G1 Y100
G1 Y120
G1 Y100
G1 Y120
G1 Y100
G1 Y120
G1 Y100
G1 Y120
G1 Y100
G1 Y120
G1 Y100
G1 Y120
G1 Y100
G1 Y120
G1 Y100
G1 Y120
G1 Y100
G1 Y120
G1 Y100
G1 Y120
G1 Y100
G1 Y120
G1 Y100
G1 Y120
G1 Y100
G1 Y120
G1 Y100
G1 Y120
G1 Y100
G1 Y120
G1 Y100
G1 Y120
G1 Y100
G1 Y120
G1 Y100
G1 Y120
G1 Y100
G1 Y120
G1 Y100
G1 Y120
G1 Y100
G1 Y120
G1 Y100
G1 Y120
G1 Y100
G1 Y120
G1 Y100
G1 Y120
G1 Y100
G1 Y120
G1 Y100
G1 Y120
G1 Y100
G1 Y120
G1 Y100
G1 Y120
G1 Y100
G1 Y120
G1 Y100
G1 Y120
G1 Y100
G1 Y120
G1 Y100
G1 Y120
G1 Y100
G1 Y120
G1 Y100
G1 Y120
G1 Y100
G1 Y120
G1 Y100
G1 Y120
G1 Y100
G1 Y120
G1 Y100
G1 Y120
G1 Y100
G1 Y120
G1 Y100
G1 Y120
G1 Y100
G1 Y120
G1 Y100
G1 Y120
G1 Y100
G1 Y120
G1 Y100
G1 Y120
G1 Y100
G1 Y120
G1 Y100
G1 Y120
G1 Y100
G1 Y120
G1 Y100
G1 Y120
G1 Y100
G1 Y120
G1 Y100
G1 Y120
G1 Y100
G1 Y120
G1 Y100
G1 Y120
G1 Y100
G1 Y120
G1 Y100
G1 Y120
G1 Y100
G1 Y120
G1 Y100
G1 Y120
G1 Y100
G1 Y120
G1 Y100
G1 Y120
G1 Y100
G1 Y120
G1 Y100
G1 Y120
G1 Y100
G1 Y120
G1 Y100
G1 Y120
G1 Y100
G1 Y120
G1 Y100
G1 Y120
G1 Y100
G1 Y120
G1 Y100
G1 Y120
G1 Y100
G1 Y120
G1 Y100
G1 Y120
G1 Y100
G1 Y120
G1 Y100
G1 Y120
G1 Y100
G1 Y120
G1 Y100
G1 Y120
G1 Y100
G1 Y120
G1 Y100
G1 Y120
G1 Y100
G1 Y120
G1 Y100
G1 Y120
G1 Y100
G1 Y120
G1 Y100
G1 Y120
G1 Y100
G1 Y120
G1 Y100
G1 Y120
G1 Y100
G1 Y120
G1 Y100
G1 Y120
G1 Y100
G1 Y120
G1 Y100
G1 Y120
G1 Y100
G1 Y120
G1 Y100
G1 Y120
G1 Y100
G1 Y120
G1 Y100
G1 Y120
G1 Y100
G1 Y120
G1 Y100
G1 Y120
G1 Y100
G1 Y120
G1 Y100
G1 Y120
G1 Y100
G1 Y120
G1 Y100
G1 Y120
G1 Y100
G1 Y120
G1 Y100
G1 Y120
G1 Y100
G1 Y120
G1 Y100
G1 Y120
G1 Y100
G1 Y120
G1 Y100
G1 Y120
G1 Y100
G1 Y120
G1 Y100
G1 Y120
G1 Y100
G1 Y120
G1 Y100
G1 Y120
G1 Y100
G1 Y120
G1 Y100
G1 Y120
G1 Y100
G1 Y120
G1 Y100
G1 Y120
G1 Y100
G1 Y120
G1 Y100
G1 Y120
G1 Y100
G1 Y120
G1 Y100
G1 Y120
G1 Y100
G1 Y120
G1 Y100
G1 Y120
G1 Y100
G1 Y120
G1 Y100
G1 Y120
G1 Y100
G1 Y120
G1 Y100
G1 Y120
G1 Y100
G1 Y120
G1 Y100
G1 Y120
G1 Y100
G1 Y120
G1 Y100
G1 Y120
G1 Y100
G1 Y120
G1 Y100
G1 Y120
G1 Y100
G1 Y120
G1 Y100
G1 Y120
G1 Y100
G1 Y120
G1 Y100
G1 Y120
G1 Y100
G1 Y120
G1 Y100
G1 Y120
G1 Y100
G1 Y120
G1 Y100
G1 Y120
G1 Y100
G1 Y120
G1 Y100
G1 Y120
G1 Y100
G1 Y120
G1 Y100
G1 Y120
G1 Y100
G1 Y120
G1 Y100
G1 Y120
G1 Y100
G1 Y120
G1 Y100
G1 Y120
G1 Y100
G1 Y120
G1 Y100
G1 Y120
G1 Y100
G1 Y120
G1 Y100
G1 Y120
G1 Y100
G1 Y120
G1 Y100
G1 Y120
G1 Y100
G1 Y120
G1 Y100
G1 Y120
G1 Y100
G1 Y120
G1 Y100
G1 Y120
G1 Y100
G1 Y120
G1 Y100
G1 Y120
G1 Y100
G1 Y120
G1 Y100
G1 Y120
G1 Y100
G1 Y120
G1 Y100
G1 Y120
G1 Y100
G1 Y120
G1 Y100
G1 Y120
G1 Y100
G1 Y120
G1 Y100
G1 Y120
G1 Y100
G1 Y120
G1 Y100
G1 Y120
G1 Y100
G1 Y120
G1 Y100
G1 Y120
G1 Y100
G1 Y120
G1 Y100
G1 Y120
G1 Y100
G1 Y120
G1 Y100
G1 Y120
G1 Y100
G1 Y120
G1 Y100
G1 Y120
G1 Y100
G1 Y120
G1 Y100
G1 Y120
G1 Y100
G1 Y120
G1 Y100
G1 Y120
G1 Y100
G1 Y120
G1 Y100
G1 Y120
G1 Y100
G1 Y120
G1 Y100
G1 Y120
G1 Y100
G1 Y120
G1 Y100
G1 Y120
G1 Y100
G1 Y120
G1 Y100
G1 Y120
G1 Y100
G1 Y120
G1 Y100
G1 Y120
G1 Y100
G1 Y120
G1 Y100
G1 Y120
G1 Y100
G1 Y120
G1 Y100
G1 Y120
G1 Y100
G1 Y120
G1 Y100
G1 Y120
G1 Y100
G1 Y120
G1 Y100
G1 Y120
G1 Y100
G1 Y120
G1 Y100
G1 Y120
G1 Y100
G1 Y120
G1 Y100
G1 Y120
G1 Y100
G1 Y120
G1 Y100
G1 Y120
G1 Y100
G1 Y120
G1 Y100
G1 Y120
G1 Y100
G1 Y120
G1 Y100
G1 Y120
G1 Y100
G1 Y120
G1 Y100
G1 Y120
G1 Y100
G1 Y120
G1 Y100
G1 Y120
G1 Y100
G1 Y120
G1 Y100
G1 Y120
G1 Y100
G1 Y120
G1 Y100
G1 Y120
G1 Y100
G1 Y120
G1 Y100
G1 Y120
G1 Y100
G1 Y120
G1 Y100
G1 Y120
G1 Y100
G1 Y120
G1 Y100
G1 Y120
G1 Y100
G1 Y120
G1 Y100
G1 Y120
G1 Y100
G1 Y120
G1 Y100
G1 Y120
G1 Y100
G1 Y120
G1 Y100
G1 Y120
G1 Y100
G1 Y120
G1 Y100
G1 Y120
G1 Y100
G1 Y120
G1 Y100
G1 Y120
G1 Y100
G1 Y120
G1 Y100
G1 Y120
G1 Y100
G1 Y120
G1 Y100
G1 Y120
G1 Y100
G1 Y120
G1 Y100
G1 Y120
G1 Y100
G1 Y120
G1 Y100
G1 Y120
G1 Y100
G1 Y120
G1 Y100
G1 Y120
G1 Y100
G1 Y120
G1 Y100
G1 Y120
G1 Y100
G1 Y120
G1 Y100
G1 Y120
G1 Y100
G1 Y120
G1 Y100
G1 Y120
G1 Y100
G1 Y120
G1 Y100
G1 Y120
G1 Y100
G1 Y120
G1 Y100
G1 Y120
G1 Y100
G1 Y120
G1 Y100
G1 Y120
G1 Y100
G1 Y120
G1 Y100
G1 Y120
G1 Y100
G1 Y120
G1 Y100
G1 Y120
G1 Y100
G1 Y120
G1 Y100
G1 Y120
G1 Y100
G1 Y120
G1 Y100
G1 Y120
G1 Y100
G1 Y120
G1 Y100
G1 Y120
G1 Y100
G1 Y120
G1 Y100
G1 Y120
G1 Y100
G1 Y120
G1 Y100
G1 Y120
G1 Y100
G1 Y120
G1 Y100
G1 Y120
G1 Y100
G1 Y120
G1 Y100
G1 Y120
G1 Y100
G1 Y120
G1 Y100
G1 Y120
G1 Y100
G1 Y120
G1 Y100
G1 Y120
G1 Y100
G1 Y120
G1 Y100
G1 Y120
G1 Y100
G1 Y120
G1 Y100
G1 Y120
G1 Y100
G1 Y120
G1 Y100
G1 Y120
G1 Y100
G1 Y120
G1 Y100
G1 Y120
G1 Y100
G1 Y120
G1 Y100
G1 Y120
G1 Y100
G1 Y120
G1 Y100
G1 Y120
G1 Y100
G1 Y120
G1 Y100
G1 Y120
G1 Y100
G1 Y120
G1 Y100
G1 Y120
G1 Y100
G1 Y120
G1 Y100
G1 Y120
G1 Y100
G1 Y120
G1 Y100
G1 Y120
G1 Y100
G1 Y120
G1 Y100
G1 Y120
G1 Y100
G1 Y120
G1 Y100
G1 Y120
G1 Y100
G1 Y120
G1 Y100
G1 Y120
G1 Y100
G1 Y120
G1 Y100
G1 Y120
G1 Y100
G1 Y120
G1 Y100
G1 Y120
G1 Y100
G1 Y120
G1 Y100
G1 Y120
G1 Y100
G1 Y120
G1 Y100
G1 Y120
G1 Y100
G1 Y120
G1 Y100
G1 Y120
G1 Y100
G1 Y120
G1 Y100
G1 Y120
G1 Y100
G1 Y120
G1 Y100
G1 Y120
G1 Y100
G1 Y120
G1 Y100
G1 Y120
G1 Y100
G1 Y120
G1 Y100
G1 Y120
G1 Y100
G1 Y120
G1 Y100
G1 Y120
G1 Y100
G1 Y120
G1 Y100
G1 Y120
G1 Y100
G1 Y120
G1 Y100
G1 Y120
G1 Y100
G1 Y120
G1 Y100
G1 Y120
G1 Y100
G1 Y120
G1 Y100
G1 Y120
G1 Y100
G1 Y120
G1 Y100
G1 Y120
G1 Y100
G1 Y120
G1 Y100
G1 Y120
G1 Y100
G1 Y120
G1 Y100
G1 Y120
G1 Y100
G1 Y120
G1 Y100
G1 Y120
G1 Y100
G1 Y120
G1 Y100
G1 Y120
G1 Y100
G1 Y120
G1 Y100
G1 Y120
G1 Y100
G1 Y120
G1 Y100
G1 Y120
G1 Y100
G1 Y120
G1 Y100
G1 Y120
G1 Y100
G1 Y120
G1 Y100
G1 Y120
G1 Y100
G1 Y120
G1 Y100
G1 Y120
G1 Y100
G1 Y120
G1 Y100
G1 Y120
G1 Y100
G1 Y120
G1 Y100
G1 Y120
G1 Y100
G1 Y120
G1 Y100
G1 Y120
G1 Y100
G1 Y120
G1 Y100
G1 Y120
G1 Y100
G1 Y120
G1 Y100
G1 Y120
G1 Y100
G1 Y120
G1 Y100
G1 Y120
G1 Y100
G1 Y120
G1 Y100
G1 Y120
G1 Y100
G1 Y120
G1 Y100
G1 Y120
G1 Y100
G1 Y120
G1 Y100
G1 Y120
G1 Y100
G1 Y120
G1 Y100
G1 Y120
G1 Y100
G1 Y120
G1 Y100
G1 Y120
G1 Y100
G1 Y120
G1 Y100
G1 Y120
G1 Y100
G1 Y120
G1 Y100
G1 Y120
G1 Y100
G1 Y120
G1 Y100
G1 Y120
G1 Y100
G1 Y120
G1 Y100
G1 Y120
G1 Y100
G1 Y120
G1 Y100
G1 Y120
G1 Y100
G1 Y120
G1 Y100
G1 Y120
G1 Y100
G1 Y120
G1 Y100
G1 Y120
G1 Y100
G1 Y120
G1 Y100
G1 Y120
G1 Y100
G1 Y120
G1 Y100
G1 Y120
G1 Y100
G1 Y120
G1 Y100
G1 Y120
G1 Y100
G1 Y120
G1 Y100
G1 Y120
G1 Y100
G1 Y120
G1 Y100
G1 Y120
G1 Y100
G1 Y120
G1 Y100
G1 Y120
G1 Y100
G1 Y120
G1 Y100
G1 Y120
G1 Y100
G1 Y120
G1 Y100
G1 Y120
G1 Y100
G1 Y120
G1 Y100
G1 Y120
G1 Y100
G1 Y120
G1 Y100
G1 Y120
G1 Y100
G1 Y120
G1 Y100
G1 Y120
G1 Y100
G1 Y120
G1 Y100
G1 Y120
G1 Y100
G1 Y120
G1 Y100
G1 Y120
G1 Y100
G1 Y120
G1 Y100
G1 Y120
G1 Y100
G1 Y120
G1 Y100
G1 Y120
G1 Y100
G1 Y120
G1 Y100
G1 Y120
G1 Y100
G1 Y120
G1 Y100
G1 Y120
G1 Y100
G1 Y120
G1 Y100
G1 Y120
G1 Y100
G1 Y120
G1 Y100
G1 Y120
G1 Y100
G1 Y120
G1 Y100
G1 Y120
G1 Y100
G1 Y120
G1 Y100
G1 Y120
G1 Y100
G1 Y120
G1 Y100
G1 Y120
G1 Y100
G1 Y120
G1 Y100
G1 Y120
G1 Y100
G1 Y120
G1 Y100
G1 Y120
G1 Y100
G1 Y120
G1 Y100
G1 Y120
G1 Y100
G1 Y120
G1 Y100
G1 Y120
G1 Y100
G1 Y120
G1 Y100
G1 Y120
G1 Y100
G1 Y120
G1 Y100
G1 Y120
G1 Y100
G1 Y120
G1 Y100
G1 Y120
G1 Y100
G1 Y120
G1 Y100
G1 Y120
G1 Y100
G1 Y120
G1 Y100
G1 Y120
G1 Y100
G1 Y120
G1 Y100
G1 Y120
G1 Y100
G1 Y120
G1 Y100
G1 Y120
G1 Y100
G1 Y120
G1 Y100
G1 Y120
G1 Y100
G1 Y120
G1 Y100
G1 Y120
G1 Y100
G1 Y120
G1 Y100
G1 Y120
G1 Y100
G1 Y120
G1 Y100
G1 Y120
G1 Y100
G1 Y120
G1 Y100
G1 Y120
G1 Y100
G1 Y120
G1 Y100
G1 Y120
G1 Y100
G1 Y120
G1 Y100
G1 Y120
G1 Y100
G1 Y120
G1 Y100
G1 Y120
G1 Y100
G1 Y120
G1 Y100
G1 Y120
G1 Y100
G1 Y120
G1 Y100
G1 Y120
G1 Y100
G1 Y120
G1 Y100
G1 Y120
G1 Y100
G1 Y120
G1 Y100
G1 Y120
G1 Y100
G1 Y120
G1 Y100
G1 Y120
G1 Y100
G1 Y120
G1 Y100
G1 Y120
G1 Y100
G1 Y120
G1 Y100
G1 Y120
G1 Y100
G1 Y120
G1 Y100
G1 Y120
G1 Y100
G1 Y120
G1 Y100
G1 Y120
G1 Y100
G1 Y120
G1 Y100
G1 Y120
G1 Y100
G1 Y120
G1 Y100
G1 Y120
G1 Y100
G1 Y120
G1 Y100
G1 Y120
G1 Y100
G1 Y120
G1 Y100
G1 Y120
G1 Y100
G1 Y120
G1 Y100
G1 Y120
G1 Y100
G1 Y120
G1 Y100
G1 Y120
G1 Y100
G1 Y120
G1 Y100
G1 Y120
G1 Y100
G1 Y120
G1 Y100
G1 Y120
G1 Y100
G1 Y120
G1 Y100
G1 Y120
G1 Y100
G1 Y120
G1 Y100
G1 Y120
G1 Y100
G1 Y120
G1 Y100
G1 Y120
G1 Y100
G1 Y120
G1 Y100
G1 Y120
G1 Y100
G1 Y120
G1 Y100
G1 Y120
G1 Y100
G1 Y120
G1 Y100
G1 Y120
G1 Y100
G1 Y120
G1 Y100
G1 Y120
G1 Y100
G1 Y120
G1 Y100
G1 Y120
G1 Y100
G1 Y120
G1 Y100
G1 Y120
G1 Y100
G1 Y120
G1 Y100
G1 Y120
G1 Y100
G1 Y120
G1 Y100
G1 Y120
G1 Y100
G1 Y120
G1 Y100
G1 Y120
G1 Y100
G1 Y120
G1 Y100
G1 Y120
G1 Y100
G1 Y120
G1 Y100
G1 Y120
G1 Y100
G1 Y120
G1 Y100
G1 Y120
G1 Y100
G1 Y120
G1 Y100
G1 Y120
G1 Y100
G1 Y120
G1 Y100
G1 Y120
G1 Y100
G1 Y120
G1 Y100
G1 Y120
G1 Y100
G1 Y120
G1 Y100
G1 Y120
G1 Y100
G1 Y120
G1 Y100
G1 Y120
G1 Y100
G1 Y120
G1 Y100
G1 Y120
G1 Y100
G1 Y120
G1 Y100
G1 Y120
G1 Y100
G1 Y120
G1 Y100
G1 Y120
G1 Y100

M84 X Y E ;Disable all steppers but Z

M106 S0 ;Turn-off fan
M104 S0 ;Turn-off hotend
M140 S0 ;Turn-off bed