;FLAVOR:Marlin
;TIME:914
;Filament used: 0.584m
;Layer height: 0.2
;MINX:96.811
;MINY:96.811
;MINZ:0.3
;MAXX:138.189
;MAXY:138.189
;MAXZ:7.25
;Generated with Cura_SteamEngine 4.7.0
M140 S60
M105
M190 S60
M104 S205
M105
M109 S205
M82 ;absolute extrusion mode
M201 X500.00 Y500.00 Z100.00 E5000.00 ;Setup machine max acceleration
M203 X500.00 Y500.00 Z10.00 E75.00 ;Setup machine max feedrate
M204 P500.00 R1000.00 T500.00 ;Setup Print/Retract/Travel acceleration
M205 X8.00 Y8.00 Z0.40 E5.00 ;Setup Jerk
M220 S100 ;Reset Feedrate
M221 S100 ;Reset Flowrate

G21 ; (metric values)
G90 ; (absolute positioning)
M82 ; (set extruder to absolute mode)
G28 ; (home all axis)
G29 ; (Auto Level)

G92 E0 ;Reset Extruder
G1 Z2.0 F3000 ;Move Z Axis up
G1 X1.1 Y50 Z0.28 F5000.0 ;Move to start position
G1 X1.1 Y200.0 Z0.28 F1500.0 E15 ;Draw the first line
G1 X1.4 Y200.0 Z0.28 F5000.0 ;Move to side a little
G1 X1.4 Y100 Z0.28 F1500.0 E30 ;Draw the second line
G92 E0 ;Reset Extruder
G1 Z2.0 F3000 ;Move Z Axis up
G92 E0
G92 E0
G1 F1500 E-6.5
;LAYER_COUNT:34
;LAYER:0
M107
G1 F300 Z0.65
G0 F6000 X103.017 Y102.724 Z0.65
;TYPE:SKIRT
G1 F300 Z0.3
G1 F1500 E0
G1 F900 X103.291 Y102.469 E0.01867
G1 X103.542 Y102.245 E0.03546
G1 X104.137 Y101.725 E0.07488
G1 X104.638 Y101.298 E0.10772
G1 X104.822 Y101.147 E0.1196
G1 X105.083 Y100.95 E0.13591
G1 X105.382 Y100.737 E0.15423
G1 X106.23 Y100.169 E0.20515
G1 X106.891 Y99.741 E0.24444
G1 X107.316 Y99.49 E0.26906
G1 X107.583 Y99.347 E0.28417
G1 X107.755 Y99.258 E0.29383
G1 X108.529 Y98.875 E0.33692
G1 X109.309 Y98.504 E0.38001
G1 X109.768 Y98.308 E0.40491
G1 X109.988 Y98.225 E0.41664
G1 X110.37 Y98.09 E0.43685
G1 X111.185 Y97.814 E0.47978
G1 X111.849 Y97.6 E0.51459
G1 X112.084 Y97.53 E0.52682
G1 X112.393 Y97.45 E0.54274
G1 X112.607 Y97.401 E0.5537
G1 X112.942 Y97.33 E0.57078
G1 X113.827 Y97.155 E0.61579
G1 X114.499 Y97.032 E0.64987
G1 X114.788 Y96.986 E0.66447
G1 X115.03 Y96.958 E0.67663
G1 X115.247 Y96.937 E0.6875
G1 X115.641 Y96.906 E0.70722
G1 X116.48 Y96.851 E0.74917
G1 X117.21 Y96.815 E0.78563
G1 X117.702 Y96.811 E0.81018
G1 X117.978 Y96.82 E0.82396
G1 X118.164 Y96.829 E0.83325
G1 X119.09 Y96.888 E0.87954
G1 X119.909 Y96.954 E0.92053
G1 X120.404 Y97.014 E0.94541
G1 X120.652 Y97.055 E0.95795
G1 X120.831 Y97.088 E0.96703
G1 X121.85 Y97.289 E1.01885
G1 X122.566 Y97.443 E1.05539
G1 X123.032 Y97.563 E1.07939
G1 X123.308 Y97.646 E1.09377
G1 X123.501 Y97.708 E1.10388
G1 X124.456 Y98.031 E1.15418
G1 X125.137 Y98.273 E1.19024
G1 X125.603 Y98.461 E1.21531
G1 X125.804 Y98.552 E1.22632
G1 X126.24 Y98.761 E1.25044
G1 X126.93 Y99.103 E1.28886
G1 X127.576 Y99.433 E1.32505
G1 X128.014 Y99.681 E1.35016
G1 X128.315 Y99.868 E1.36784
G1 X128.496 Y99.986 E1.37862
G1 X129.246 Y100.486 E1.42359
G1 X129.861 Y100.91 E1.46086
G1 X130.267 Y101.217 E1.48625
G1 X130.442 Y101.361 E1.49756
G1 X130.579 Y101.477 E1.50651
G1 X131.398 Y102.194 E1.56082
G1 X131.901 Y102.648 E1.59463
G1 X132.262 Y103.002 E1.61985
G1 X132.527 Y103.287 E1.63927
G1 X132.711 Y103.494 E1.65308
G1 X133.276 Y104.139 E1.69586
G1 X133.702 Y104.639 E1.72863
G1 X133.842 Y104.809 E1.73962
G1 X134.042 Y105.071 E1.75606
G1 X134.177 Y105.259 E1.76761
G1 X134.375 Y105.547 E1.78505
G1 X134.877 Y106.299 E1.83016
G1 X135.258 Y106.888 E1.86515
G1 X135.51 Y107.315 E1.88989
G1 X135.654 Y107.584 E1.90511
G1 X135.742 Y107.755 E1.91471
G1 X136.125 Y108.529 E1.95779
G1 X136.496 Y109.309 E2.00088
G1 X136.692 Y109.768 E2.02578
G1 X136.775 Y109.988 E2.03751
G1 X136.91 Y110.37 E2.05773
G1 X137.186 Y111.185 E2.10066
G1 X137.4 Y111.849 E2.13546
G1 X137.519 Y112.272 E2.15738
G1 X137.573 Y112.494 E2.16878
G1 X137.622 Y112.712 E2.17993
G1 X137.678 Y112.986 E2.19388
G1 X137.817 Y113.692 E2.22978
G1 X137.966 Y114.49 E2.27028
G1 X138.035 Y114.965 E2.29423
G1 X138.054 Y115.146 E2.30331
G1 X138.07 Y115.324 E2.31222
G1 X138.096 Y115.67 E2.32954
G1 X138.149 Y116.48 E2.37003
G1 X138.185 Y117.21 E2.4065
G1 X138.189 Y117.702 E2.43104
G1 X138.18 Y117.978 E2.44482
G1 X138.171 Y118.164 E2.45411
G1 X138.105 Y119.188 E2.5053
G1 X138.048 Y119.898 E2.54084
G1 X137.988 Y120.39 E2.56557
G1 X137.943 Y120.664 E2.57942
G1 X137.909 Y120.849 E2.58881
G1 X137.705 Y121.885 E2.64148
G1 X137.558 Y122.568 E2.67634
G1 X137.421 Y123.088 E2.70317
G1 X137.274 Y123.557 E2.72769
G1 X136.999 Y124.37 E2.77051
G1 X136.728 Y125.133 E2.8109
G1 X136.539 Y125.603 E2.83618
G1 X136.447 Y125.806 E2.8473
G1 X136.233 Y126.252 E2.87198
G1 X135.897 Y126.93 E2.90973
G1 X135.567 Y127.576 E2.94592
G1 X135.319 Y128.014 E2.97103
G1 X135.115 Y128.341 E2.99026
G1 X135.043 Y128.452 E2.99686
G1 X134.513 Y129.247 E3.04453
G1 X134.095 Y129.854 E3.0813
G1 X133.79 Y130.259 E3.10659
G1 X133.643 Y130.438 E3.11815
G1 X133.391 Y130.732 E3.13747
G1 X132.862 Y131.335 E3.17749
G1 X132.329 Y131.924 E3.21712
G1 X131.994 Y132.266 E3.241
G1 X131.824 Y132.426 E3.25265
G1 X131.675 Y132.562 E3.26271
G1 X130.859 Y133.279 E3.31691
G1 X130.323 Y133.735 E3.35201
G1 X129.913 Y134.054 E3.37793
G1 X129.618 Y134.263 E3.39597
G1 X129.435 Y134.387 E3.407
G1 X128.699 Y134.878 E3.45114
G1 X128.108 Y135.26 E3.48624
G1 X127.684 Y135.51 E3.5108
G1 X127.417 Y135.653 E3.52591
G1 X127.245 Y135.742 E3.53557
G1 X126.471 Y136.125 E3.57866
G1 X125.691 Y136.496 E3.62175
G1 X125.232 Y136.692 E3.64665
G1 X125.012 Y136.775 E3.65838
G1 X124.63 Y136.91 E3.67859
G1 X123.815 Y137.186 E3.72152
G1 X123.151 Y137.4 E3.75633
G1 X122.916 Y137.47 E3.76856
G1 X122.607 Y137.55 E3.78449
G1 X122.393 Y137.599 E3.79544
G1 X122.058 Y137.67 E3.81252
G1 X121.173 Y137.845 E3.85753
G1 X120.501 Y137.968 E3.89161
G1 X120.212 Y138.014 E3.90621
G1 X119.97 Y138.042 E3.91837
G1 X119.753 Y138.063 E3.92924
G1 X119.359 Y138.094 E3.94896
G1 X118.52 Y138.149 E3.99091
G1 X117.79 Y138.185 E4.02737
G1 X117.298 Y138.189 E4.05192
G1 X117.022 Y138.18 E4.0657
G1 X116.836 Y138.171 E4.07499
G1 X115.91 Y138.112 E4.12128
G1 X115.091 Y138.046 E4.16227
G1 X114.596 Y137.986 E4.18715
G1 X114.348 Y137.945 E4.19969
G1 X113.971 Y137.874 E4.21883
G1 X113.15 Y137.711 E4.26059
G1 X112.434 Y137.557 E4.29713
G1 X111.968 Y137.437 E4.32113
G1 X111.692 Y137.354 E4.33551
G1 X111.499 Y137.292 E4.34563
G1 X110.544 Y136.969 E4.39592
G1 X109.863 Y136.727 E4.43198
G1 X109.397 Y136.539 E4.45705
G1 X109.196 Y136.448 E4.46806
G1 X108.748 Y136.233 E4.49285
G1 X108.071 Y135.897 E4.53056
G1 X107.423 Y135.566 E4.56686
G1 X106.98 Y135.316 E4.59224
G1 X106.752 Y135.174 E4.60564
G1 X106.458 Y134.984 E4.6231
G1 X105.752 Y134.512 E4.66547
G1 X105.142 Y134.092 E4.70242
G1 X104.733 Y133.783 E4.72799
G1 X104.446 Y133.545 E4.74659
G1 X104.259 Y133.383 E4.75894
G1 X103.599 Y132.803 E4.80277
G1 X103.089 Y132.342 E4.83707
G1 X102.75 Y132.011 E4.86071
G1 X102.58 Y131.831 E4.87306
G1 X102.436 Y131.673 E4.88373
G1 X101.703 Y130.838 E4.93916
G1 X101.296 Y130.36 E4.97048
G1 X101.157 Y130.191 E4.9814
G1 X100.945 Y129.912 E4.99888
G1 X100.744 Y129.628 E5.01624
G1 X100.601 Y129.418 E5.02891
G1 X100.122 Y128.699 E5.07201
G1 X99.738 Y128.105 E5.1073
G1 X99.485 Y127.675 E5.13219
G1 X99.344 Y127.411 E5.14712
G1 X99.258 Y127.245 E5.15645
G1 X98.875 Y126.471 E5.19954
G1 X98.503 Y125.689 E5.24274
G1 X98.305 Y125.224 E5.26795
G1 X98.175 Y124.875 E5.28653
G1 X98.078 Y124.595 E5.30132
G1 X97.814 Y123.815 E5.3424
G1 X97.598 Y123.145 E5.37752
G1 X97.476 Y122.708 E5.40016
G1 X97.424 Y122.492 E5.41124
G1 X97.38 Y122.297 E5.42121
G1 X97.313 Y121.968 E5.43797
G1 X97.179 Y121.285 E5.47269
G1 X97.034 Y120.511 E5.51198
G1 X96.961 Y120.01 E5.53724
G1 X96.943 Y119.832 E5.54616
G1 X96.929 Y119.665 E5.55452
G1 X96.902 Y119.298 E5.57288
G1 X96.851 Y118.519 E5.61183
G1 X96.815 Y117.79 E5.64824
G1 X96.811 Y117.298 E5.67279
G1 X96.82 Y117.022 E5.68657
G1 X96.829 Y116.836 E5.69586
G1 X96.895 Y115.812 E5.74705
G1 X96.952 Y115.102 E5.78259
G1 X97.012 Y114.61 E5.80731
G1 X97.057 Y114.336 E5.82117
G1 X97.084 Y114.183 E5.82892
G1 X97.13 Y113.943 E5.84111
G1 X97.275 Y113.211 E5.87834
G1 X97.448 Y112.415 E5.91898
G1 X97.571 Y111.944 E5.94327
G1 X97.671 Y111.616 E5.96037
G1 X97.726 Y111.443 E5.96943
G1 X98.001 Y110.63 E6.01225
G1 X98.272 Y109.867 E6.05264
G1 X98.461 Y109.397 E6.07792
G1 X98.553 Y109.194 E6.08904
G1 X98.62 Y109.052 E6.09687
G1 X98.788 Y108.706 E6.11606
G1 X99.103 Y108.07 E6.15147
G1 X99.433 Y107.424 E6.18766
G1 X99.681 Y106.986 E6.21277
G1 X99.885 Y106.659 E6.232
G1 X99.957 Y106.548 E6.2386
G1 X100.489 Y105.75 E6.28645
G1 X100.911 Y105.138 E6.32354
G1 X101.216 Y104.734 E6.34879
G1 X101.359 Y104.56 E6.36003
G1 X101.609 Y104.268 E6.37921
G1 X102.2 Y103.595 E6.42389
G1 X102.645 Y103.104 E6.45695
G0 F810 X102.669 Y103.077
G0 X103.017 Y102.724
G0 F6000 X103.29 Y103.016
G1 F900 X103.557 Y102.768 E6.47513
G1 X103.806 Y102.546 E6.49177
G1 X104.396 Y102.029 E6.53091
G1 X104.897 Y101.602 E6.56375
G1 X105.072 Y101.459 E6.57503
G1 X105.315 Y101.275 E6.59023
G1 X105.607 Y101.068 E6.60809
G1 X106.452 Y100.502 E6.65883
G1 X107.108 Y100.077 E6.69783
G1 X107.505 Y99.842 E6.72084
G1 X107.772 Y99.699 E6.73595
G1 X107.932 Y99.617 E6.74492
G1 X108.785 Y99.196 E6.79238
G1 X109.481 Y98.865 E6.83083
G1 X109.909 Y98.682 E6.85406
G1 X110.129 Y98.599 E6.86579
G1 X110.499 Y98.469 E6.88535
G1 X111.308 Y98.195 E6.92797
G1 X111.972 Y97.981 E6.96277
G1 X112.194 Y97.914 E6.97434
G1 X112.482 Y97.84 E6.98917
G1 X112.797 Y97.769 E7.00528
G1 X113.02 Y97.723 E7.01664
G1 X113.899 Y97.549 E7.06135
G1 X114.571 Y97.426 E7.09543
G1 X114.843 Y97.383 E7.10917
G1 X115.069 Y97.356 E7.12053
G1 X115.286 Y97.335 E7.1314
G1 X115.667 Y97.305 E7.15047
G1 X116.404 Y97.256 E7.18732
G1 X117.23 Y97.215 E7.22858
G1 X117.689 Y97.211 E7.25148
G1 X117.965 Y97.22 E7.26526
G1 X118.138 Y97.228 E7.2739
G1 X119.16 Y97.294 E7.32499
G1 X119.877 Y97.352 E7.36088
G1 X120.338 Y97.409 E7.38405
G1 X120.586 Y97.45 E7.39659
G1 X120.754 Y97.48 E7.40511
G1 X121.766 Y97.68 E7.45657
G1 X122.482 Y97.834 E7.49311
G1 X122.917 Y97.946 E7.51552
G1 X123.193 Y98.029 E7.5299
G1 X123.373 Y98.087 E7.53934
G1 X124.322 Y98.408 E7.58932
G1 X125.003 Y98.65 E7.62537
G1 X125.438 Y98.825 E7.64877
G1 X125.639 Y98.916 E7.65977
G1 X126.063 Y99.12 E7.68325
G1 X126.748 Y99.459 E7.72138
G1 X127.394 Y99.789 E7.75757
G1 X127.803 Y100.02 E7.781
G1 X128.099 Y100.205 E7.79842
G1 X128.274 Y100.319 E7.80884
G1 X129.019 Y100.816 E7.85352
G1 X129.634 Y101.24 E7.89079
G1 X130.013 Y101.526 E7.91447
G1 X130.188 Y101.67 E7.92578
G1 X130.316 Y101.778 E7.93414
G1 X131.13 Y102.491 E7.98812
G1 X131.633 Y102.945 E8.02193
G1 X131.97 Y103.276 E8.04549
G1 X132.229 Y103.554 E8.06445
G1 X132.41 Y103.758 E8.07806
G1 X132.972 Y104.398 E8.12055
G1 X133.398 Y104.898 E8.15332
G1 X133.53 Y105.06 E8.16375
G1 X133.717 Y105.305 E8.17912
G1 X133.921 Y105.591 E8.19665
G1 X134.042 Y105.769 E8.20739
G1 X134.541 Y106.516 E8.25221
G1 X134.922 Y107.105 E8.2872
G1 X135.157 Y107.504 E8.31031
G1 X135.301 Y107.773 E8.32553
G1 X135.383 Y107.932 E8.33445
G1 X135.804 Y108.785 E8.38191
G1 X136.135 Y109.481 E8.42036
G1 X136.318 Y109.909 E8.44358
G1 X136.401 Y110.129 E8.45532
G1 X136.531 Y110.499 E8.47488
G1 X136.805 Y111.308 E8.51749
G1 X137.019 Y111.972 E8.5523
G1 X137.13 Y112.366 E8.57272
G1 X137.184 Y112.588 E8.58412
G1 X137.23 Y112.792 E8.59455
G1 X137.424 Y113.765 E8.64405
G1 X137.573 Y114.563 E8.68455
G1 X137.637 Y115.006 E8.70688
G1 X137.656 Y115.187 E8.71596
G1 X137.671 Y115.354 E8.72433
G1 X137.697 Y115.696 E8.74144
G1 X137.744 Y116.406 E8.77694
G1 X137.785 Y117.23 E8.8181
G1 X137.789 Y117.689 E8.841
G1 X137.78 Y117.965 E8.85478
G1 X137.772 Y118.138 E8.86342
G1 X137.713 Y119.064 E8.90971
G1 X137.649 Y119.866 E8.94985
G1 X137.593 Y120.326 E8.97297
G1 X137.548 Y120.6 E8.98682
G1 X137.517 Y120.772 E8.99554
G1 X137.314 Y121.801 E9.04787
G1 X137.167 Y122.484 E9.08272
G1 X137.039 Y122.969 E9.10775
G1 X136.895 Y123.428 E9.13175
G1 X136.62 Y124.241 E9.17456
G1 X136.351 Y124.999 E9.21469
G1 X136.175 Y125.438 E9.23829
G1 X136.083 Y125.641 E9.24941
G1 X135.875 Y126.075 E9.27342
G1 X135.541 Y126.748 E9.3109
G1 X135.211 Y127.394 E9.34709
G1 X134.98 Y127.803 E9.37053
G1 X134.837 Y128.033 E9.38404
G1 X134.668 Y128.293 E9.39951
G1 X134.183 Y129.02 E9.44311
G1 X133.765 Y129.627 E9.47988
G1 X133.481 Y130.005 E9.50347
G1 X133.334 Y130.184 E9.51502
G1 X133.091 Y130.468 E9.53367
G1 X132.503 Y131.137 E9.57811
G1 X132.033 Y131.656 E9.61304
G1 X131.72 Y131.975 E9.63534
G1 X131.55 Y132.135 E9.64698
G1 X131.411 Y132.261 E9.65634
G1 X130.6 Y132.974 E9.71022
G1 X130.064 Y133.43 E9.74533
G1 X129.681 Y133.728 E9.76954
G1 X129.393 Y133.932 E9.78714
G1 X129.213 Y134.054 E9.79799
G1 X128.482 Y134.542 E9.84184
G1 X127.891 Y134.924 E9.87695
G1 X127.495 Y135.158 E9.8999
G1 X127.228 Y135.301 E9.91501
G1 X127.068 Y135.383 E9.92398
G1 X126.215 Y135.804 E9.97144
G1 X125.519 Y136.135 E10.00989
G1 X125.091 Y136.318 E10.03311
G1 X124.871 Y136.401 E10.04484
G1 X124.501 Y136.531 E10.06441
G1 X123.692 Y136.805 E10.10702
G1 X123.028 Y137.019 E10.14183
G1 X122.806 Y137.086 E10.15339
G1 X122.518 Y137.16 E10.16823
G1 X122.203 Y137.231 E10.18434
G1 X121.98 Y137.277 E10.1957
G1 X121.101 Y137.451 E10.2404
G1 X120.429 Y137.574 E10.27449
G1 X120.157 Y137.617 E10.28823
G1 X119.931 Y137.644 E10.29958
G1 X119.714 Y137.665 E10.31046
G1 X119.333 Y137.695 E10.32952
G1 X118.596 Y137.744 E10.36637
G1 X117.77 Y137.785 E10.40763
G1 X117.311 Y137.789 E10.43054
G1 X117.035 Y137.78 E10.44431
G1 X116.862 Y137.772 E10.45295
G1 X115.84 Y137.706 E10.50405
G1 X115.123 Y137.648 E10.53993
G1 X114.662 Y137.591 E10.56311
G1 X114.414 Y137.55 E10.57565
G1 X114.279 Y137.526 E10.58249
G1 X114.048 Y137.482 E10.59422
G1 X113.234 Y137.32 E10.63563
G1 X112.518 Y137.166 E10.67217
G1 X112.083 Y137.054 E10.69458
G1 X111.807 Y136.971 E10.70896
G1 X111.627 Y136.913 E10.71839
G1 X110.678 Y136.592 E10.76837
G1 X109.997 Y136.35 E10.80443
G1 X109.562 Y136.175 E10.82782
G1 X109.361 Y136.084 E10.83883
G1 X108.925 Y135.875 E10.86295
G1 X108.315 Y135.573 E10.89691
G1 X107.605 Y135.21 E10.93669
G1 X107.192 Y134.976 E10.96038
G1 X106.875 Y134.778 E10.97902
G1 X106.68 Y134.651 E10.99063
G1 X105.979 Y134.182 E11.03271
G1 X105.369 Y133.762 E11.06966
G1 X104.987 Y133.474 E11.09353
G1 X104.812 Y133.33 E11.10483
G1 X104.523 Y133.082 E11.12383
G1 X103.867 Y132.506 E11.16739
G1 X103.357 Y132.045 E11.20168
G1 X103.041 Y131.736 E11.22373
G1 X102.871 Y131.556 E11.23609
G1 X102.737 Y131.409 E11.24601
G1 X102.007 Y130.578 E11.30119
G1 X101.6 Y130.1 E11.33252
G1 X101.469 Y129.94 E11.34283
G1 X101.271 Y129.679 E11.35918
G1 X101.075 Y129.402 E11.37611
G1 X100.934 Y129.196 E11.38856
G1 X100.458 Y128.482 E11.43137
G1 X100.074 Y127.888 E11.46666
G1 X99.837 Y127.486 E11.48994
G1 X99.696 Y127.222 E11.50487
G1 X99.617 Y127.068 E11.51351
G1 X99.196 Y126.215 E11.56097
G1 X98.864 Y125.517 E11.59953
G1 X98.68 Y125.084 E11.623
G1 X98.553 Y124.743 E11.64115
G1 X98.457 Y124.467 E11.65573
G1 X98.195 Y123.692 E11.69655
G1 X97.979 Y123.022 E11.73167
G1 X97.865 Y122.615 E11.75275
G1 X97.813 Y122.399 E11.76384
G1 X97.772 Y122.217 E11.77315
G1 X97.705 Y121.891 E11.78975
G1 X97.572 Y121.211 E11.82432
G1 X97.427 Y120.437 E11.86361
G1 X97.359 Y119.969 E11.8872
G1 X97.341 Y119.791 E11.89613
G1 X97.328 Y119.635 E11.90393
G1 X97.301 Y119.271 E11.92214
G1 X97.256 Y118.595 E11.95595
G1 X97.215 Y117.77 E11.99716
G1 X97.211 Y117.311 E12.02006
G1 X97.22 Y117.035 E12.03383
G1 X97.228 Y116.862 E12.04247
G1 X97.287 Y115.936 E12.08877
G1 X97.351 Y115.134 E12.1289
G1 X97.407 Y114.674 E12.15202
G1 X97.452 Y114.4 E12.16588
G1 X97.477 Y114.258 E12.17307
G1 X97.668 Y113.289 E12.22234
G1 X97.839 Y112.5 E12.26262
G1 X97.953 Y112.061 E12.28525
G1 X98.053 Y111.733 E12.30236
G1 X98.105 Y111.572 E12.3108
G1 X98.38 Y110.759 E12.35362
