;FLAVOR:Marlin
;TIME:9729
;Filament used: 3.73063m
;Layer height: 0.12
;MINX:86.4
;MINY:17.608
;MINZ:0.2
;MAXX:148.6
;MAXY:210.515
;MAXZ:13.62
;Generated with Cura_SteamEngine 4.7.0
M140 S60
M105
M190 S60
M104 S205
M105
M109 S205
M82 ;absolute extrusion mode
M201 X500.00 Y500.00 Z100.00 E5000.00 ;Setup machine max acceleration
M203 X500.00 Y500.00 Z10.00 E75.00 ;Setup machine max feedrate
M204 P500.00 R1000.00 T500.00 ;Setup Print/Retract/Travel acceleration
M205 X8.00 Y8.00 Z0.40 E5.00 ;Setup Jerk
M220 S100 ;Reset Feedrate
M221 S100 ;Reset Flowrate

G21 ; (metric values)
G90 ; (absolute positioning)
M82 ; (set extruder to absolute mode)
G28 ; (home all axis)
G29 ; (Auto Level)

G92 E0 ;Reset Extruder
G1 Z2.0 F3000 ;Move Z Axis up
G1 X1.1 Y50 Z0.28 F5000.0 ;Move to start position
G1 X1.1 Y200.0 Z0.28 F1500.0 E15 ;Draw the first line
G1 X1.4 Y200.0 Z0.28 F5000.0 ;Move to side a little
G1 X1.4 Y100 Z0.28 F1500.0 E30 ;Draw the second line
G92 E0 ;Reset Extruder
G1 Z2.0 F3000 ;Move Z Axis up
G92 E0
G92 E0
G1 F1500 E-6.5
;LAYER_COUNT:71
;LAYER:0
M107
G1 F300 Z0.55
G0 F6000 X101.608 Y165.199 Z0.55
;TYPE:SKIRT
G1 F300 Z0.2
G1 F1500 E0
G1 F900 X102.212 Y164.91 E0.02227
G1 X102.845 Y164.695 E0.04451
G1 X103.5 Y164.557 E0.06677
G1 X104.142 Y164.499 E0.08821
G1 X104.449 Y164.489 E0.09843
G1 X104.631 Y164.486 E0.10448
G1 X128.608 Y164.485 E0.90196
G1 X129.389 Y164.496 E0.92794
G1 X130.056 Y164.545 E0.95018
G1 X130.713 Y164.674 E0.97245
G1 X131.349 Y164.88 E0.99469
G1 X131.956 Y165.16 E1.01692
G1 X132.526 Y165.511 E1.03918
G1 X133.05 Y165.928 E1.06146
G1 X133.52 Y166.404 E1.08371
G1 X133.93 Y166.932 E1.10594
G1 X134.274 Y167.506 E1.1282
G1 X134.548 Y168.116 E1.15044
G1 X134.746 Y168.755 E1.17269
G1 X134.828 Y169.147 E1.18601
G1 X134.881 Y169.455 E1.1964
G1 X135.225 Y171.638 E1.26991
G1 X135.712 Y174.245 E1.35812
G1 X136.278 Y176.861 E1.44714
G1 X136.919 Y179.464 E1.5363
G1 X137.633 Y182.05 E1.62553
G1 X138.403 Y184.558 E1.71279
G1 X139.267 Y187.112 E1.80246
G1 X139.673 Y188.209 E1.84137
G1 X139.953 Y189.001 E1.86931
G1 X140.138 Y189.644 E1.89156
G1 X140.245 Y190.305 E1.91383
G1 X140.27 Y190.697 E1.9269
G1 X140.28 Y191.024 E1.93778
G1 X140.283 Y191.195 E1.94347
G1 X140.282 Y201.256 E2.2781
G1 X140.272 Y201.985 E2.30235
G1 X140.223 Y202.652 E2.32459
G1 X140.095 Y203.309 E2.34685
G1 X139.889 Y203.945 E2.36909
G1 X139.609 Y204.553 E2.39135
G1 X139.258 Y205.123 E2.41362
G1 X138.842 Y205.646 E2.43584
G1 X138.367 Y206.117 E2.45809
G1 X137.838 Y206.527 E2.48035
G1 X137.265 Y206.872 E2.5026
G1 X136.909 Y207.042 E2.51572
G1 X134.354 Y208.155 E2.60841
G1 X131.91 Y209.304 E2.69824
G1 X131.464 Y209.525 E2.71479
G1 X131.25 Y209.627 E2.72268
G1 X131.077 Y209.706 E2.729
G1 X130.434 Y209.986 E2.75233
G1 X129.806 Y210.216 E2.77457
G1 X129.003 Y210.394 E2.80193
G1 X128.714 Y210.436 E2.81164
G1 X128.019 Y210.493 E2.83483
G1 X126.947 Y210.514 E2.8705
G1 X105.524 Y210.515 E3.58303
G1 X104.746 Y210.504 E3.60891
G1 X104.311 Y210.481 E3.62339
G1 X104.181 Y210.469 E3.62774
G1 X103.878 Y210.433 E3.63789
G1 X103.641 Y210.398 E3.64585
G1 X102.986 Y210.261 E3.66811
G1 X102.415 Y210.072 E3.68812
G1 X102.063 Y209.934 E3.70069
G1 X101.456 Y209.653 E3.72294
G1 X100.781 Y209.225 E3.74952
G1 X100.422 Y208.96 E3.76436
G1 X100.028 Y208.64 E3.78124
G1 X99.496 Y208.167 E3.80492
G1 X97.014 Y206.035 E3.91375
G1 X96.733 Y205.8 E3.92593
G1 X96.247 Y205.341 E3.94816
G1 X95.818 Y204.827 E3.97043
G1 X95.454 Y204.266 E3.99267
G1 X95.16 Y203.665 E4.01493
G1 X94.939 Y203.033 E4.0372
G1 X94.795 Y202.38 E4.05944
G1 X94.728 Y201.658 E4.08355
G1 X94.719 Y201.33 E4.09447
G1 X94.717 Y201.176 E4.09959
G1 X94.718 Y191.932 E4.40705
G1 X94.729 Y191.221 E4.4307
G1 X94.779 Y190.554 E4.45294
G1 X94.891 Y189.968 E4.47279
G1 X95.147 Y188.927 E4.50844
G1 X95.757 Y186.279 E4.59882
G1 X96.277 Y183.709 E4.68603
G1 X96.732 Y181.054 E4.77563
G1 X97.115 Y178.372 E4.86573
G1 X97.415 Y175.739 E4.95388
G1 X97.649 Y172.998 E5.04537
G1 X97.743 Y171.686 E5.08912
G1 X97.831 Y171.023 E5.11137
G1 X97.997 Y170.375 E5.13362
G1 X98.182 Y169.882 E5.15113
G1 X98.335 Y169.552 E5.16323
G1 X98.577 Y169.07 E5.18117
G1 X98.814 Y168.586 E5.19909
G1 X99.323 Y167.576 E5.23671
G1 X99.659 Y166.997 E5.25897
G1 X100.062 Y166.463 E5.28122
G1 X100.526 Y165.981 E5.30348
G1 X101.044 Y165.557 E5.32574
G1 X101.608 Y165.199 E5.34796
G0 F6000 X101.906 Y165.493
G1 F900 X102.494 Y165.229 E5.3694
G1 X103.11 Y165.04 E5.39083
G1 X103.745 Y164.928 E5.41227
G1 X104.155 Y164.899 E5.42595
G1 X104.462 Y164.889 E5.43616
G1 X104.631 Y164.886 E5.44178
G1 X128.608 Y164.885 E6.23926
G1 X129.383 Y164.896 E6.26504
G1 X130.026 Y164.945 E6.28649
G1 X130.658 Y165.073 E6.30794
G1 X131.269 Y165.278 E6.32937
G1 X131.85 Y165.558 E6.35082
G1 X132.392 Y165.907 E6.37226
G1 X132.886 Y166.321 E6.3937
G1 X133.326 Y166.792 E6.41514
G1 X133.703 Y167.315 E6.43658
G1 X134.014 Y167.88 E6.45803
G1 X134.252 Y168.479 E6.47947
G1 X134.434 Y169.215 E6.50469
G1 X134.485 Y169.518 E6.51491
G1 X134.824 Y171.668 E6.5873
G1 X135.32 Y174.324 E6.67717
G1 X135.893 Y176.976 E6.76741
G1 X136.528 Y179.552 E6.85565
G1 X137.241 Y182.136 E6.94481
G1 X138.028 Y184.698 E7.03395
G1 X138.888 Y187.242 E7.12327
G1 X139.296 Y188.343 E7.16232
G1 X139.576 Y189.135 E7.19026
G1 X139.752 Y189.755 E7.21169
G1 X139.871 Y190.709 E7.24367
G1 X139.881 Y191.036 E7.25455
G1 X139.883 Y191.195 E7.25984
G1 X139.883 Y201.25 E7.59427
G1 X139.873 Y201.979 E7.61852
G1 X139.824 Y202.622 E7.63997
G1 X139.696 Y203.254 E7.66142
G1 X139.491 Y203.865 E7.68285
G1 X139.211 Y204.446 E7.7043
G1 X138.862 Y204.988 E7.72574
G1 X138.449 Y205.483 E7.74718
G1 X137.978 Y205.923 E7.76862
G1 X137.456 Y206.301 E7.79006
G1 X136.75 Y206.675 E7.81663
G1 X134.19 Y207.79 E7.9095
G1 X131.741 Y208.942 E7.99952
G1 X131.292 Y209.164 E8.01618
G1 X131.078 Y209.266 E8.02406
G1 X130.917 Y209.34 E8.02996
G1 X130.274 Y209.62 E8.05328
G1 X129.668 Y209.84 E8.07473
G1 X128.946 Y209.998 E8.09931
G1 X128.657 Y210.04 E8.10902
G1 X128.011 Y210.093 E8.13058
G1 X126.837 Y210.115 E8.16963
G1 X105.45 Y210.114 E8.88097
G1 X104.752 Y210.104 E8.90419
G1 X104.348 Y210.083 E8.91764
G1 X104.218 Y210.071 E8.92198
G1 X103.936 Y210.037 E8.93143
G1 X103.699 Y210.002 E8.9394
G1 X103.069 Y209.869 E8.96081
G1 X102.561 Y209.699 E8.97863
G1 X102.209 Y209.561 E8.99121
G1 X101.625 Y209.289 E9.01263
G1 X101.019 Y208.904 E9.03651
G1 X100.66 Y208.639 E9.05135
G1 X100.293 Y208.342 E9.06706
G1 X99.705 Y207.819 E9.09323
G1 X97.242 Y205.703 E9.20123
G1 X96.99 Y205.493 E9.21214
G1 X96.522 Y205.049 E9.2336
G1 X96.113 Y204.552 E9.25501
G1 X95.768 Y204.007 E9.27646
G1 X95.493 Y203.424 E9.2979
G1 X95.293 Y202.811 E9.31934
G1 X95.17 Y202.178 E9.34079
G1 X95.128 Y201.647 E9.35851
G1 X95.119 Y201.319 E9.36942
G1 X95.117 Y201.176 E9.37418
G1 X95.118 Y191.939 E9.6814
G1 X95.129 Y191.228 E9.70505
G1 X95.179 Y190.585 E9.7265
G1 X95.279 Y190.064 E9.74415
G1 X95.545 Y188.985 E9.78111
G1 X96.147 Y186.37 E9.87036
G1 X96.67 Y183.781 E9.95821
G1 X97.129 Y181.101 E10.04865
G1 X97.51 Y178.438 E10.13812
G1 X97.816 Y175.751 E10.22807
G1 X98.046 Y173.05 E10.31823
G1 X98.142 Y171.715 E10.36274
G1 X98.228 Y171.076 E10.38419
G1 X98.393 Y170.453 E10.40563
G1 X98.558 Y170.019 E10.42107
G1 X98.692 Y169.731 E10.43163
G1 X98.964 Y169.19 E10.45177
G1 X99.171 Y168.766 E10.46747
G1 X99.68 Y167.756 E10.50508
G1 X100.006 Y167.199 E10.52655
G1 X100.397 Y166.687 E10.54798
G1 X100.849 Y166.227 E10.56943
G1 X101.355 Y165.827 E10.59088
G1 X101.906 Y165.493 E10.61231
G1 F1500 E4.11231
G1 F300 Z0.55
;MESH:2.stl
G0 F6000 X107.963 Y174.983 Z0.55
;TYPE:WALL-INNER
G1 F300 Z0.2
G1 F1500 E10.61231
G1 F900 X107.855 Y175.244 E10.6217
G1 X107.775 Y175.517 E10.63117
G1 X107.729 Y175.801 E10.64073
G1 X107.713 Y176.08 E10.65003
G1 X107.729 Y176.356 E10.65922
G1 X107.778 Y176.638 E10.66874
G1 X107.862 Y176.925 E10.67869
G1 X107.971 Y177.177 E10.68782
G1 X108.112 Y177.429 E10.69743
G1 X108.277 Y177.656 E10.70676
G1 X108.482 Y177.878 E10.71681
G1 X108.7 Y178.061 E10.72628
G1 X108.932 Y178.22 E10.73563
G1 X109.189 Y178.353 E10.74526
G1 X109.454 Y178.454 E10.75469
G1 X109.732 Y178.527 E10.76425
G1 X110.017 Y178.565 E10.77381
G1 X110.297 Y178.571 E10.78313
G1 X110.57 Y178.549 E10.79224
G1 X110.852 Y178.491 E10.80181
G1 X111.132 Y178.398 E10.81163
G1 X111.382 Y178.284 E10.82076
G1 X111.638 Y178.13 E10.8307
G1 X111.853 Y177.961 E10.8398
G1 X112.066 Y177.757 E10.84961
G1 X112.248 Y177.529 E10.85931
G1 X112.401 Y177.287 E10.86883
G1 X112.524 Y177.032 E10.87825
G1 X112.618 Y176.764 E10.88769
G1 X112.682 Y176.484 E10.89725
G1 X112.712 Y176.202 E10.90668
G1 X112.712 Y175.921 E10.91603
G1 X112.681 Y175.645 E10.92526
G1 X112.612 Y175.356 E10.93515
G1 X112.52 Y175.097 E10.94429
G1 X112.387 Y174.832 E10.95415
G1 X112.231 Y174.59 E10.96373
G1 X112.047 Y174.368 E10.97332
G1 X111.842 Y174.172 E10.98275
G1 X111.616 Y173.999 E10.99222
G1 X111.368 Y173.852 E11.0018
G1 X111.109 Y173.736 E11.01124
G1 X110.837 Y173.649 E11.02074
G1 X110.558 Y173.594 E11.0302
G1 X110.274 Y173.57 E11.03968
G1 X109.992 Y173.58 E11.04906
G1 X109.718 Y173.618 E11.05826
G1 X109.43 Y173.695 E11.06818
G1 X109.173 Y173.796 E11.07736
G1 X108.913 Y173.935 E11.08717
G1 X108.687 Y174.09 E11.09629
G1 X108.46 Y174.287 E11.10628
G1 X108.269 Y174.5 E11.1158
G1 X108.102 Y174.732 E11.12531
G1 X107.963 Y174.983 E11.13485
G0 F6000 X108.324 Y175.157
G1 F900 X108.233 Y175.377 E11.14277
G1 X108.166 Y175.606 E11.1507
G1 X108.127 Y175.844 E11.15872
G1 X108.114 Y176.08 E11.16659
G1 X108.127 Y176.31 E11.17425
G1 X108.168 Y176.547 E11.18225
G1 X108.239 Y176.789 E11.19064
G1 X108.33 Y176.999 E11.19825
G1 X108.45 Y177.213 E11.20641
G1 X108.587 Y177.402 E11.21417
G1 X108.759 Y177.588 E11.2226
G1 X108.942 Y177.742 E11.23055
G1 X109.138 Y177.876 E11.23845
G1 X109.353 Y177.988 E11.24651
G1 X109.576 Y178.073 E11.25445
G1 X109.809 Y178.134 E11.26246
G1 X110.048 Y178.166 E11.27048
G1 X110.285 Y178.171 E11.27837
G1 X110.513 Y178.152 E11.28597
G1 X110.749 Y178.104 E11.29399
G1 X110.986 Y178.025 E11.30229
G1 X111.195 Y177.93 E11.30993
G1 X111.41 Y177.8 E11.31829
G1 X111.59 Y177.659 E11.32589
G1 X111.77 Y177.486 E11.3342
G1 X111.922 Y177.297 E11.34226
G1 X112.05 Y177.093 E11.35027
G1 X112.154 Y176.878 E11.35822
G1 X112.233 Y176.653 E11.36615
G1 X112.287 Y176.418 E11.37417
G1 X112.312 Y176.181 E11.38209
G1 X112.312 Y175.944 E11.38998
G1 X112.286 Y175.714 E11.39767
G1 X112.228 Y175.47 E11.40602
G1 X112.151 Y175.254 E11.41364
G1 X112.039 Y175.03 E11.42197
G1 X111.908 Y174.827 E11.43001
G1 X111.754 Y174.641 E11.43804
G1 X111.581 Y174.476 E11.44599
G1 X111.392 Y174.331 E11.45391
G1 X111.184 Y174.208 E11.46195
G1 X110.966 Y174.11 E11.4699
G1 X110.737 Y174.037 E11.4779
G1 X110.503 Y173.991 E11.48583
G1 X110.264 Y173.971 E11.4938
G1 X110.027 Y173.979 E11.50169
G1 X109.798 Y174.011 E11.50938
G1 X109.555 Y174.076 E11.51775
G1 X109.341 Y174.16 E11.52539
G1 X109.121 Y174.277 E11.53368
G1 X108.932 Y174.407 E11.54131
G1 X108.741 Y174.573 E11.54973
G1 X108.581 Y174.751 E11.55769
G1 X108.441 Y174.946 E11.56567
G1 X108.324 Y175.157 E11.5737
G0 F6000 X108.685 Y175.331
;TYPE:WALL-OUTER
G1 F900 X108.611 Y175.51 E11.58014
G1 X108.557 Y175.695 E11.58655
G1 X108.525 Y175.887 E11.59302
G1 X108.515 Y176.08 E11.59945
G1 X108.525 Y176.265 E11.60561
G1 X108.558 Y176.456 E11.61206
G1 X108.616 Y176.652 E11.61886
G1 X108.689 Y176.821 E11.62498
G1 X108.788 Y176.997 E11.6317
G1 X108.897 Y177.148 E11.63789
G1 X109.036 Y177.298 E11.64469
G1 X109.184 Y177.423 E11.65114
G1 X109.344 Y177.532 E11.65758
G1 X109.518 Y177.623 E11.66411
G1 X109.698 Y177.692 E11.67052
G1 X109.886 Y177.741 E11.67698
G1 X110.079 Y177.767 E11.68346
G1 X110.272 Y177.771 E11.68988
G1 X110.456 Y177.755 E11.69602
G1 X110.646 Y177.717 E11.70247
G1 X110.84 Y177.652 E11.70927
G1 X111.008 Y177.576 E11.7154
G1 X111.182 Y177.47 E11.72218
G1 X111.327 Y177.357 E11.7283
G1 X111.474 Y177.215 E11.73509
G1 X111.596 Y177.064 E11.74155
G1 X111.7 Y176.899 E11.74804
G1 X111.784 Y176.725 E11.75446
G1 X111.848 Y176.542 E11.76091
G1 X111.892 Y176.352 E11.7674
G1 X111.912 Y176.16 E11.77382
G1 X111.912 Y175.967 E11.78024
G1 X111.891 Y175.783 E11.7864
G1 X111.844 Y175.584 E11.7932
G1 X111.782 Y175.411 E11.79931
G1 X111.691 Y175.228 E11.80611
G1 X111.585 Y175.064 E11.8126
G1 X111.461 Y174.914 E11.81908
G1 X111.321 Y174.781 E11.8255
G1 X111.167 Y174.663 E11.83195
G1 X110.999 Y174.563 E11.83845
G1 X110.823 Y174.484 E11.84487
G1 X110.638 Y174.425 E11.85133
G1 X110.448 Y174.388 E11.85777
G1 X110.254 Y174.372 E11.86424
G1 X110.061 Y174.378 E11.87066
G1 X109.878 Y174.404 E11.87681
G1 X109.68 Y174.457 E11.88363
G1 X109.509 Y174.524 E11.88974
G1 X109.329 Y174.62 E11.89652
G1 X109.177 Y174.724 E11.90265
G1 X109.022 Y174.859 E11.90948
G1 X108.893 Y175.002 E11.91589
G1 X108.78 Y175.16 E11.92235
G1 X108.685 Y175.331 E11.92886
G0 F6000 X108.611 Y175.51
G0 X108.557 Y175.695
G0 X108.555 Y175.709
G0 X108.12 Y175.636
G1 F1500 E5.42886
G1 F300 Z0.55
G0 F6000 X127.787 Y174.832 Z0.55
;TYPE:WALL-INNER
G1 F300 Z0.2
G1 F1500 E11.92886
G1 F900 X127.631 Y174.59 E11.93843
G1 X127.447 Y174.368 E11.94802
G1 X127.242 Y174.172 E11.95746
G1 X127.016 Y173.999 E11.96692
G1 X126.768 Y173.852 E11.97651
G1 X126.509 Y173.736 E11.98595
G1 X126.237 Y173.649 E11.99545
G1 X125.958 Y173.594 E12.00491
G1 X125.674 Y173.57 E12.01439
G1 X125.392 Y173.58 E12.02377
G1 X125.118 Y173.618 E12.03297
G1 X124.83 Y173.695 E12.04289
G1 X124.573 Y173.796 E12.05207
G1 X124.313 Y173.935 E12.06188
G1 X124.086 Y174.091 E12.07104
G1 X123.86 Y174.288 E12.08101
G1 X123.671 Y174.498 E12.09041
G1 X123.503 Y174.73 E12.09993
G1 X123.362 Y174.986 E12.10966
G1 X123.255 Y175.245 E12.11898
G1 X123.175 Y175.517 E12.12841
G1 X123.129 Y175.801 E12.13797
G1 X123.113 Y176.08 E12.14727
G1 X123.129 Y176.356 E12.15646
G1 X123.178 Y176.638 E12.16598
G1 X123.262 Y176.925 E12.17593
G1 X123.371 Y177.177 E12.18506
G1 X123.512 Y177.429 E12.19467
G1 X123.677 Y177.656 E12.204
G1 X123.882 Y177.878 E12.21405
G1 X124.1 Y178.061 E12.22352
G1 X124.332 Y178.22 E12.23287
G1 X124.589 Y178.353 E12.2425
G1 X124.854 Y178.454 E12.25193
G1 X125.132 Y178.527 E12.26149
G1 X125.417 Y178.565 E12.27105
G1 X125.697 Y178.571 E12.28037
G1 X125.97 Y178.549 E12.28948
G1 X126.252 Y178.491 E12.29905
G1 X126.532 Y178.398 E12.30887
G1 X126.782 Y178.284 E12.318
G1 X127.038 Y178.13 E12.32794
G1 X127.253 Y177.961 E12.33704
G1 X127.466 Y177.757 E12.34685
G1 X127.648 Y177.529 E12.35655
G1 X127.801 Y177.287 E12.36607
G1 X127.924 Y177.032 E12.37549
G1 X128.018 Y176.765 E12.3849
G1 X128.082 Y176.486 E12.39442
G1 X128.113 Y176.202 E12.40393
G1 X128.112 Y175.918 E12.41337
G1 X128.081 Y175.645 E12.42251
G1 X128.012 Y175.356 E12.43239
G1 X127.92 Y175.097 E12.44153
G1 X127.787 Y174.832 E12.4514
G0 F6000 X127.439 Y175.03
G1 F900 X127.308 Y174.827 E12.45943
G1 X127.154 Y174.641 E12.46746
G1 X126.981 Y174.476 E12.47541
G1 X126.792 Y174.331 E12.48334
G1 X126.584 Y174.208 E12.49137
G1 X126.366 Y174.11 E12.49932
G1 X126.137 Y174.037 E12.50732
G1 X125.903 Y173.991 E12.51525
G1 X125.664 Y173.971 E12.52323
G1 X125.427 Y173.979 E12.53111
G1 X125.198 Y174.011 E12.53881
G1 X124.955 Y174.076 E12.54717
G1 X124.741 Y174.16 E12.55482
G1 X124.521 Y174.277 E12.56311
G1 X124.332 Y174.407 E12.57074
G1 X124.141 Y174.574 E12.57917
G1 X123.982 Y174.75 E12.58706
G1 X123.841 Y174.945 E12.59507
G1 X123.723 Y175.159 E12.60319
G1 X123.633 Y175.378 E12.61107
G1 X123.566 Y175.606 E12.61897
G1 X123.527 Y175.844 E12.62699
G1 X123.514 Y176.08 E12.63486
G1 X123.527 Y176.31 E12.64252
G1 X123.568 Y176.547 E12.65052
G1 X123.639 Y176.789 E12.65891
G1 X123.73 Y176.999 E12.66652
G1 X123.85 Y177.213 E12.67468
