;FLAVOR:Marlin
;TIME:13116
;Filament used: 4.91399m
;Layer height: 0.12
;MINX:87.6
;MINY:93.374
;MINZ:0.2
;MAXX:148.906
;MAXY:141.678
;MAXZ:43.75
;Generated with Cura_SteamEngine 4.7.0
M140 S60
M105
M190 S60
M104 S205
M105
M109 S205
M82 ;absolute extrusion mode
M201 X500.00 Y500.00 Z100.00 E5000.00 ;Setup machine max acceleration
M203 X500.00 Y500.00 Z10.00 E75.00 ;Setup machine max feedrate
M204 P500.00 R1000.00 T500.00 ;Setup Print/Retract/Travel acceleration
M205 X8.00 Y8.00 Z0.40 E5.00 ;Setup Jerk
M220 S100 ;Reset Feedrate
M221 S100 ;Reset Flowrate

G21 ; (metric values)
G90 ; (absolute positioning)
M82 ; (set extruder to absolute mode)
G28 ; (home all axis)
G29 ; (Auto Level)

G92 E0 ;Reset Extruder
G1 Z2.0 F3000 ;Move Z Axis up
G1 X1.1 Y50 Z0.28 F5000.0 ;Move to start position
G1 X1.1 Y200.0 Z0.28 F1500.0 E15 ;Draw the first line
G1 X1.4 Y200.0 Z0.28 F5000.0 ;Move to side a little
G1 X1.4 Y100 Z0.28 F1500.0 E30 ;Draw the second line
G92 E0 ;Reset Extruder
G1 Z2.0 F3000 ;Move Z Axis up
G92 E0
G92 E0
G1 F1500 E-6.5
;LAYER_COUNT:361
;LAYER:0
M107
G1 F300 Z0.55
G0 F6000 X89.697 Y116.573 Z0.55
;TYPE:SKIRT
G1 F300 Z0.2
G1 F1500 E0
G1 F900 X89.986 Y116.352 E0.0121
G1 X90.605 Y115.909 E0.03742
G1 X91.799 Y115.077 E0.08582
G1 X93.931 Y113.498 E0.17406
G1 X96.037 Y111.845 E0.26311
G1 X98.113 Y110.118 E0.35292
G1 X100.074 Y108.39 E0.43986
G1 X102.043 Y106.556 E0.52935
G1 X103.943 Y104.682 E0.61811
G1 X105.795 Y102.747 E0.7072
G1 X107.581 Y100.774 E0.79572
G1 X109.327 Y98.732 E0.88507
G1 X111.058 Y96.587 E0.97675
G1 X111.807 Y95.631 E1.01714
G1 X112.254 Y95.126 E1.03958
G1 X112.352 Y95.028 E1.04418
G1 X112.853 Y94.584 E1.06645
G1 X113.403 Y94.203 E1.0887
G1 X113.994 Y93.89 E1.11095
G1 X114.618 Y93.65 E1.13318
G1 X115.267 Y93.486 E1.15545
G1 X116.123 Y93.391 E1.18409
G1 X116.392 Y93.383 E1.19304
G1 X116.873 Y93.378 E1.20904
G1 X142.491 Y93.374 E2.0611
G1 X143.28 Y93.385 E2.08735
G1 X143.947 Y93.434 E2.10959
G1 X144.604 Y93.563 E2.13186
G1 X145.24 Y93.769 E2.1541
G1 X145.848 Y94.049 E2.17636
G1 X146.417 Y94.4 E2.19859
G1 X146.941 Y94.816 E2.22085
G1 X147.411 Y95.292 E2.2431
G1 X147.822 Y95.82 E2.26535
G1 X148.291 Y96.649 E2.29703
G1 X148.391 Y96.867 E2.30501
G1 X148.633 Y97.491 E2.32727
G1 X148.799 Y98.139 E2.34952
G1 X148.901 Y99.13 E2.38265
G1 X148.906 Y99.591 E2.39799
G1 X148.906 Y113.944 E2.87537
G1 X148.896 Y114.65 E2.89885
G1 X148.847 Y115.318 E2.92113
G1 X148.718 Y115.974 E2.94337
G1 X148.512 Y116.611 E2.96563
G1 X148.232 Y117.218 E2.98787
G1 X147.881 Y117.788 E3.01013
G1 X147.465 Y118.311 E3.03236
G1 X147.167 Y118.618 E3.04659
G1 X146.916 Y118.858 E3.05814
G1 X146.803 Y118.964 E3.06329
G1 X144.936 Y120.652 E3.14701
G1 X144.377 Y121.143 E3.17175
G1 X144.137 Y121.342 E3.18212
G1 X143.29 Y122.006 E3.21792
G1 X142.711 Y122.447 E3.24212
G1 X140.608 Y124.143 E3.33198
G1 X138.593 Y125.865 E3.42014
G1 X137.557 Y126.789 E3.46631
G1 X125.449 Y137.743 E4.00937
G1 X124.466 Y138.601 E4.05277
G1 X124.232 Y138.794 E4.06286
G1 X124.081 Y138.912 E4.06923
G1 X123.914 Y139.038 E4.07619
G1 X123.647 Y139.231 E4.08715
G1 X123.429 Y139.381 E4.09595
G1 X123.046 Y139.63 E4.11114
G1 X122.901 Y139.719 E4.1168
G1 X122.66 Y139.863 E4.12614
G1 X122.422 Y139.998 E4.13524
G1 X122.189 Y140.122 E4.14402
G1 X122.012 Y140.214 E4.15065
G1 X121.664 Y140.379 E4.16346
G1 X121.014 Y140.662 E4.18704
G1 X120.683 Y140.795 E4.19891
G1 X120.517 Y140.855 E4.20478
G1 X120.193 Y140.965 E4.21616
G1 X120.017 Y141.022 E4.22231
G1 X119.818 Y141.082 E4.22923
G1 X119.66 Y141.127 E4.23469
G1 X119.382 Y141.202 E4.24427
G1 X119.178 Y141.253 E4.25126
G1 X118.849 Y141.327 E4.26248
G1 X118.575 Y141.38 E4.27176
G1 X118.002 Y141.476 E4.29108
G1 X117.69 Y141.519 E4.30156
G1 X117.345 Y141.557 E4.3131
G1 X117.006 Y141.584 E4.32441
G1 X116.557 Y141.606 E4.33936
G1 X116.365 Y141.612 E4.34575
G1 X115.331 Y141.627 E4.38015
G1 X98.259 Y141.627 E4.94797
G1 X95.935 Y141.654 E5.02527
G1 X95.251 Y141.67 E5.04802
G1 X95.103 Y141.672 E5.05295
G1 X94.746 Y141.671 E5.06482
G1 X93.847 Y141.678 E5.09472
G1 X93.386 Y141.673 E5.11006
G1 X92.719 Y141.625 E5.1323
G1 X92.062 Y141.499 E5.15455
G1 X91.425 Y141.295 E5.17679
G1 X90.816 Y141.017 E5.19906
G1 X90.438 Y140.796 E5.21362
G1 X90.201 Y140.645 E5.22297
G1 X89.659 Y140.252 E5.24524
G1 X89.168 Y139.798 E5.26748
G1 X88.735 Y139.288 E5.28973
G1 X88.365 Y138.731 E5.31197
G1 X88.065 Y138.133 E5.33422
G1 X87.838 Y137.503 E5.3565
G1 X87.688 Y136.851 E5.37875
G1 X87.611 Y136.005 E5.407
G1 X87.6 Y135.248 E5.43218
G1 X87.601 Y133.553 E5.48856
G1 X87.611 Y132.848 E5.51201
G1 X87.698 Y129.854 E5.61163
G1 X87.698 Y127.195 E5.70007
G1 X87.651 Y125.487 E5.7569
G1 X87.652 Y125.46 E5.7578
G1 X87.602 Y123.76 E5.81437
G1 X87.6 Y123.596 E5.81982
G1 X87.601 Y121.556 E5.88767
G1 X87.611 Y120.854 E5.91102
G1 X87.66 Y120.187 E5.93327
G1 X87.789 Y119.531 E5.9555
G1 X87.995 Y118.894 E5.97777
G1 X88.275 Y118.287 E6.00001
G1 X88.626 Y117.717 E6.02227
G1 X89.043 Y117.193 E6.04454
G1 X89.116 Y117.123 E6.04791
G0 F810 X89.664 Y116.6
G0 X89.697 Y116.573
G0 F6000 X89.95 Y116.882
G1 F900 X90.218 Y116.677 E6.05913
G1 X90.783 Y116.273 E6.08223
G1 X92.02 Y115.411 E6.13238
G1 X94.171 Y113.819 E6.22138
G1 X96.295 Y112.152 E6.31119
G1 X98.349 Y110.442 E6.40008
G1 X100.365 Y108.667 E6.48942
G1 X102.314 Y106.851 E6.57802
G1 X104.213 Y104.978 E6.66674
G1 X106.098 Y103.009 E6.7574
G1 X107.881 Y101.039 E6.84577
G1 X109.644 Y98.977 E6.936
G1 X111.351 Y96.861 E7.02643
G1 X112.122 Y95.878 E7.06798
G1 X112.537 Y95.409 E7.08881
G1 X112.635 Y95.311 E7.09342
G1 X113.118 Y94.884 E7.11486
G1 X113.651 Y94.521 E7.13631
G1 X114.224 Y94.226 E7.15774
G1 X114.829 Y94.004 E7.17918
G1 X115.457 Y93.859 E7.20062
G1 X116.136 Y93.791 E7.22331
G1 X116.397 Y93.783 E7.232
G1 X116.873 Y93.778 E7.24783
G1 X142.491 Y93.774 E8.09989
G1 X143.274 Y93.785 E8.12593
G1 X143.917 Y93.834 E8.14738
G1 X144.549 Y93.962 E8.16883
G1 X145.16 Y94.167 E8.19026
G1 X145.741 Y94.447 E8.21172
G1 X146.283 Y94.796 E8.23316
G1 X146.777 Y95.209 E8.25457
G1 X147.217 Y95.681 E8.27603
G1 X147.595 Y96.203 E8.29747
G1 X147.927 Y96.816 E8.32066
G1 X148.027 Y97.034 E8.32863
G1 X148.259 Y97.635 E8.35006
G1 X148.415 Y98.261 E8.37152
G1 X148.501 Y99.135 E8.40073
G1 X148.506 Y99.591 E8.4159
G1 X148.506 Y113.939 E8.89311
G1 X148.496 Y114.645 E8.9166
G1 X148.447 Y115.287 E8.93801
G1 X148.319 Y115.919 E8.95946
G1 X148.114 Y116.53 E8.98089
G1 X147.834 Y117.111 E9.00234
G1 X147.485 Y117.653 E9.02379
G1 X146.891 Y118.329 E9.05372
G1 X146.64 Y118.569 E9.06527
G1 X146.535 Y118.667 E9.07004
G1 X144.672 Y120.352 E9.15359
G1 X144.113 Y120.843 E9.17834
G1 X143.89 Y121.027 E9.18795
G1 X143.047 Y121.688 E9.22358
G1 X142.48 Y122.12 E9.24729
G1 X140.342 Y123.844 E9.33864
G1 X138.3 Y125.589 E9.42798
G1 X137.318 Y126.466 E9.47177
G1 X125.186 Y137.442 E10.01591
G1 X124.203 Y138.3 E10.05931
G1 X123.986 Y138.479 E10.06867
G1 X123.835 Y138.597 E10.07504
G1 X123.679 Y138.714 E10.08153
G1 X123.412 Y138.907 E10.09248
G1 X123.21 Y139.046 E10.10064
G1 X122.831 Y139.293 E10.11569
G1 X122.696 Y139.376 E10.12096
G1 X122.455 Y139.52 E10.1303
G1 X122.234 Y139.645 E10.13874
G1 X121.827 Y139.859 E10.15403
G1 X121.505 Y140.013 E10.16591
G1 X120.855 Y140.296 E10.18948
G1 X120.547 Y140.418 E10.2005
G1 X120.278 Y140.514 E10.21
G1 X120.065 Y140.586 E10.21748
G1 X119.901 Y140.639 E10.22321
G1 X119.702 Y140.699 E10.23013
G1 X119.555 Y140.741 E10.23521
G1 X119.277 Y140.816 E10.24479
G1 X119.089 Y140.863 E10.25123
G1 X118.763 Y140.936 E10.26235
G1 X118.509 Y140.986 E10.27096
G1 X117.936 Y141.082 E10.29028
G1 X117.646 Y141.122 E10.30002
G1 X117.301 Y141.16 E10.31156
G1 X116.986 Y141.185 E10.32207
G1 X116.537 Y141.207 E10.33702
G1 X116.359 Y141.212 E10.34294
G1 X115.331 Y141.227 E10.37714
G1 X98.254 Y141.227 E10.94512
G1 X95.973 Y141.253 E11.02099
G1 X95.241 Y141.271 E11.04535
G1 X94.743 Y141.271 E11.06191
G1 X93.852 Y141.278 E11.09155
G1 X93.391 Y141.273 E11.10688
G1 X92.748 Y141.226 E11.12832
G1 X92.115 Y141.1 E11.14979
G1 X91.504 Y140.896 E11.17122
G1 X90.653 Y140.459 E11.20303
G1 X90.416 Y140.308 E11.21238
G1 X89.895 Y139.928 E11.23383
G1 X89.424 Y139.487 E11.25529
G1 X89.012 Y138.991 E11.27673
G1 X88.665 Y138.448 E11.29817
G1 X88.387 Y137.866 E11.31962
G1 X88.184 Y137.255 E11.34103
G1 X88.057 Y136.623 E11.36247
G1 X88.011 Y135.999 E11.38329
G1 X88 Y135.248 E11.40827
G1 X88.001 Y133.558 E11.46448
G1 X88.011 Y132.853 E11.48793
G1 X88.015 Y132.694 E11.49322
G1 X88.02 Y132.575 E11.49718
G1 X88.098 Y129.865 E11.58735
G1 X88.098 Y127.184 E11.67652
G1 X88.051 Y125.476 E11.73335
G1 X88.052 Y125.449 E11.73425
G1 X88.002 Y123.749 E11.79082
G1 X88 Y123.596 E11.79591
G1 X88.001 Y121.562 E11.86356
G1 X88.011 Y120.86 E11.88691
G1 X88.06 Y120.217 E11.90836
G1 X88.188 Y119.585 E11.9298
G1 X88.393 Y118.974 E11.95124
G1 X88.673 Y118.393 E11.97269
G1 X89.022 Y117.851 E11.99413
G1 X89.372 Y117.434 E12.01224
G0 F810 X89.436 Y117.357
G0 X89.917 Y116.909
G0 X89.95 Y116.882
G1 F1500 E5.51224
G1 F300 Z0.55
G0 F6000 X94.2 Y121.804 Z0.55
G1 F300 Z0.2
G1 F1500 E12.01224
G1 F900 X94.317 Y121.769 E12.0163
G1 X94.375 Y121.774 E12.01824
G1 X94.779 Y121.779 E12.03167
G1 X94.779 Y122.926 E12.06982
G1 X94.2 Y122.926 E12.08908
G1 X94.2 Y122.049 E12.11825
G0 F810 X94.2 Y121.804
G0 F6000 X94.017 Y121.459
G1 F900 X94.205 Y121.393 E12.12488
G1 X94.262 Y121.361 E12.12705
G1 X94.289 Y121.366 E12.12796
G1 X94.38 Y121.374 E12.131
G1 X95.009 Y121.382 E12.15193
G1 X95.046 Y121.375 E12.15318
G1 X95.179 Y121.375 E12.1576
G1 X95.179 Y123.326 E12.22249
G1 X93.8 Y123.326 E12.26836
G1 X93.8 Y121.713 E12.32201
G0 F810 X93.8 Y121.457
G0 X94.017 Y121.459
G0 F6000 X94.012 Y121.043
G1 F900 X94.192 Y120.944 E12.32884
G1 X94.355 Y120.971 E12.33433
G1 X94.385 Y120.974 E12.33534
G1 X95.014 Y120.982 E12.35626
G1 X95.051 Y120.975 E12.35751
G1 X95.579 Y120.976 E12.37507
G1 X95.579 Y123.726 E12.46654
G1 X93.4 Y123.726 E12.53901
G1 X93.4 Y121.114 E12.62589
G0 F810 X93.4 Y121.034
G0 X93.478 Y120.985
G0 X93.876 Y121.064
G0 X94.012 Y121.043
G1 F1500 E6.12589
G1 F300 Z0.55
G0 F6000 X93.4 Y133.126 Z0.55
G1 F300 Z0.2
G1 F1500 E12.62589
G1 F900 X95.579 Y133.126 E12.69836
G1 X95.579 Y135.875 E12.78979
G1 X95.302 Y135.876 E12.79901
G1 X95.269 Y135.87 E12.80012
G1 X94.444 Y135.88 E12.82756
G1 X94.419 Y135.872 E12.82844
G1 X94.119 Y135.878 E12.83842
G1 X94.066 Y135.863 E12.84025
G1 X93.498 Y135.882 E12.85915
G1 X93.4 Y135.822 E12.86297
G1 X93.4 Y133.692 E12.93382
G0 F810 X93.4 Y133.126
G0 F6000 X93.8 Y133.526
G1 F900 X95.179 Y133.526 E12.97968
G1 X95.179 Y135.471 E13.04437
G1 X94.471 Y135.479 E13.06792
G1 X94.412 Y135.472 E13.0699
G1 X94.198 Y135.476 E13.07702
G1 X94.053 Y135.463 E13.08186
G1 X93.8 Y135.471 E13.09028
G1 X93.8 Y133.916 E13.142
G0 F810 X93.8 Y133.526
G0 F6000 X94.2 Y133.926
G1 F900 X94.779 Y133.926 E13.16126
G1 X94.779 Y135.076 E13.19951
G1 X94.451 Y135.08 E13.21042
G1 X94.405 Y135.072 E13.21197
G1 X94.2 Y135.076 E13.21879
G1 X94.2 Y134.139 E13.24995
G0 F810 X94.2 Y133.926
G1 F1500 E6.74995
G1 F300 Z0.55
;MESH:3.stl
G0 F6000 X123.027 Y112.108 Z0.55
;TYPE:WALL-INNER
G1 F300 Z0.2
G1 F1500 E13.24995
G1 F900 X120.527 Y117.707 E13.4539
G1 X120.399 Y117.983 E13.46402
G1 X120.399 Y129.561 E13.8491
G1 X121.592 Y129.728 E13.88917
G1 X122.118 Y129.696 E13.9067
G1 X122.606 Y129.571 E13.92345
G1 X122.742 Y129.515 E13.92834
G1 X123.107 Y129.342 E13.94178
G1 X123.484 Y129.066 E13.95732
G1 X141.688 Y112.366 E14.77897
G1 X141.688 Y106.184 E14.98458
G1 X136.368 Y106.184 E15.16153
G1 X135.984 Y105.97 E15.17615
G1 X135.491 Y105.818 E15.19331
G1 X135.173 Y105.787 E15.20393
G1 X135.069 Y105.774 E15.20742
G1 X123.166 Y105.774 E15.60331
G1 X122.628 Y105.8 E15.62123
G1 X122.154 Y105.87 E15.63717
G1 X122.087 Y105.875 E15.6394
G1 X121.495 Y106.02 E15.65967
G1 X121.109 Y106.156 E15.67328
G1 X120.399 Y106.397 E15.69822
G1 X120.399 Y111.127 E15.85554
G1 X121.984 Y111.462 E15.90942
G1 X123.206 Y108.722 E16.00921
G1 X123.206 Y108.114 E16.02943
G1 X125.76 Y108.114 E16.11438
G1 X125.458 Y108.33 E16.12673
G1 X125.024 Y108.712 E16.14596
G1 X124.63 Y109.132 E16.16511
G1 X124.278 Y109.582 E16.18411
G1 X124.203 Y109.697 E16.18868
G1 X123.966 Y110.077 E16.20358
G1 X123.719 Y110.562 E16.22168
G1 X123.353 Y111.378 E16.25142
G0 F810 X123.027 Y112.108
G0 F6000 X123.392 Y112.271
G1 F900 X120.89 Y117.875 E16.45555
G1 X120.799 Y118.071 E16.46273
G1 X120.799 Y129.213 E16.83332
G1 X121.608 Y129.326 E16.86049
G1 X122.056 Y129.299 E16.87541
G1 X122.48 Y129.19 E16.88997
G1 X122.58 Y129.149 E16.89357
G1 X122.901 Y128.997 E16.90538
G1 X123.23 Y128.756 E16.91895
G1 X127.085 Y125.221 E17.09291
G1 X141.288 Y112.19 E17.73401
G1 X141.288 Y106.584 E17.92046
G1 X136.244 Y106.584 E18.08823
G1 X136.204 Y106.55 E18.08997
G1 X135.826 Y106.34 E18.10435
G1 X135.412 Y106.212 E18.11877
G1 X135.123 Y106.184 E18.12842
G1 X135.044 Y106.174 E18.13107
G1 X123.176 Y106.174 E18.5258
G1 X122.667 Y106.199 E18.54275
G1 X122.209 Y106.266 E18.55815
G1 X122.153 Y106.271 E18.56002
G1 X121.609 Y106.404 E18.57865
G1 X121.238 Y106.535 E18.59173
G1 X120.799 Y106.684 E18.60715
G1 X120.799 Y110.803 E18.74415
G1 X121.75 Y111.004 E18.77648
G1 X122.806 Y108.637 E18.86269
G1 X122.806 Y107.714 E18.89338
G1 X126.607 Y107.714 E19.01981
G1 X126.607 Y108.061 E19.03135
G1 X126.147 Y108.329 E19.04905
G1 X125.707 Y108.644 E19.06705
G1 X125.302 Y109 E19.08499
G1 X124.934 Y109.392 E19.10287
G1 X124.604 Y109.815 E19.12071
G1 X124.54 Y109.913 E19.12461
G1 X124.314 Y110.274 E19.13877
G1 X124.08 Y110.734 E19.15594
G1 X123.719 Y111.541 E19.18534
G0 F810 X123.392 Y112.271
G0 F6000 X123.757 Y112.434
;TYPE:WALL-OUTER
G1 F900 X121.253 Y118.044 E19.38967
G1 X121.199 Y118.16 E19.39393
G1 X121.199 Y128.865 E19.74998
G1 X121.624 Y128.924 E19.76425
G1 X121.994 Y128.902 E19.77658
G1 X122.353 Y128.81 E19.78891
G1 X122.418 Y128.783 E19.79125
G1 X122.695 Y128.652 E19.80144
G1 X122.976 Y128.446 E19.81303
G1 X126.815 Y124.926 E19.98626
G1 X140.888 Y112.014 E20.62149
G1 X140.888 Y106.984 E20.78879
G1 X136.097 Y106.984 E20.94814
G1 X135.975 Y106.88 E20.95347
G1 X135.668 Y106.71 E20.96515
G1 X135.333 Y106.606 E20.97681
G1 X135.071 Y106.581 E20.98557
G1 X135.018 Y106.574 E20.98734
G1 X123.186 Y106.574 E21.38088
G1 X122.706 Y106.598 E21.39686
G1 X122.256 Y106.664 E21.41199
G1 X122.216 Y106.667 E21.41332
G1 X121.724 Y106.788 E21.43018
G1 X121.367 Y106.914 E21.44277
G1 X121.199 Y106.971 E21.44867
G1 X121.199 Y110.479 E21.56534
G1 X121.516 Y110.546 E21.57612
G1 X122.406 Y108.552 E21.64875
G1 X122.406 Y107.314 E21.68992
G1 X127.007 Y107.314 E21.84295
G1 X127.007 Y108.316 E21.87628
G1 X126.796 Y108.414 E21.88402
G1 X126.365 Y108.665 E21.90061
G1 X125.956 Y108.958 E21.91734
G1 X125.58 Y109.288 E21.93398
G1 X125.238 Y109.652 E21.95059
G1 X124.93 Y110.048 E21.96728
G1 X124.877 Y110.129 E21.9705
G1 X124.662 Y110.471 E21.98393
G1 X124.441 Y110.906 E22.00016
G1 X124.083 Y111.704 E22.02925
G0 F810 X123.757 Y112.434
G0 F6000 X123.594 Y112.799
G0 X123.194 Y112.62
G1 F1500 E15.52925
G1 F300 Z0.55
G0 F6000 X114.586 Y121.716 Z0.55
;TYPE:WALL-INNER
G1 F300 Z0.2
G1 F1500 E22.02925
G1 F900 X114.72 Y121.686 E22.03382
G1 X115.149 Y121.58 E22.04852
G1 X115.279 Y121.537 E22.05307
G1 X115.695 Y121.39 E22.06775
G1 X115.821 Y121.334 E22.07233
G1 X116.217 Y121.149 E22.08687
G1 X116.336 Y121.083 E22.0914
G1 X116.718 Y120.859 E22.10612
G1 X116.83 Y120.782 E22.11065
G1 X117.189 Y120.521 E22.12541
G1 X117.293 Y120.432 E22.12996
G1 X117.628 Y120.138 E22.14478
G1 X118.021 Y119.72 E22.16387
G1 X118.373 Y119.266 E22.18297
G1 X118.448 Y119.152 E22.18751
G1 X118.686 Y118.774 E22.20237
G1 X119.605 Y116.967 E22.2698
G1 X118.273 Y116.967 E22.3141
