;FLAVOR:Marlin
;TIME:5147
;Filament used: 3.27042m
;Layer height: 0.2
;MINX:75.543
;MINY:96.448
;MINZ:0.3
;MAXX:139.383
;MAXY:143.551
;MAXZ:23.85
;Generated with Cura_SteamEngine 4.4.1
M140 S60
M105
M190 S60
M104 S205
M105
M109 S205
M82 ;absolute extrusion mode
M201 X500.00 Y500.00 Z100.00 E5000.00 ;Setup machine max acceleration
M203 X500.00 Y500.00 Z10.00 E75.00 ;Setup machine max feedrate
M204 P500.00 R1000.00 T500.00 ;Setup Print/Retract/Travel acceleration
M205 X8.00 Y8.00 Z0.40 E5.00 ;Setup Jerk
M220 S100 ;Reset Feedrate
M221 S100 ;Reset Flowrate

G21 ; (metric values)
G90 ; (absolute positioning)
M82 ; (set extruder to absolute mode)
G28 ; (home all axis)
G29 ; (Auto Level)

G92 E0 ;Reset Extruder
G1 Z2.0 F3000 ;Move Z Axis up
G1 X1.1 Y50 Z0.28 F5000.0 ;Move to start position
G1 X1.1 Y200.0 Z0.28 F1500.0 E15 ;Draw the first line
G1 X1.4 Y200.0 Z0.28 F5000.0 ;Move to side a little
G1 X1.4 Y100 Z0.28 F1500.0 E30 ;Draw the second line
G92 E0 ;Reset Extruder
G1 Z2.0 F3000 ;Move Z Axis up
G92 E0
G92 E0
G1 F3000 E-6
;LAYER_COUNT:117
;LAYER:0
M107
G1 F300 Z0.65
G0 F6000 X104.903 Y100.445 Z0.65
;TYPE:SKIRT
G1 F300 Z0.3
G1 F3000 E0
G1 F1200 X104.981 Y100.376 E0.0052
G1 X106.038 Y99.455 E0.07514
G1 X106.326 Y99.22 E0.09368
G1 X106.489 Y99.096 E0.1039
G1 X106.749 Y98.91 E0.11985
G1 X107.308 Y98.533 E0.15349
G1 X107.599 Y98.35 E0.17064
G1 X107.91 Y98.167 E0.18864
G1 X108.205 Y98.005 E0.20543
G1 X108.595 Y97.806 E0.22728
G1 X108.914 Y97.655 E0.24488
G1 X109.415 Y97.438 E0.27212
G1 X109.708 Y97.321 E0.28786
G1 X109.999 Y97.214 E0.30333
G1 X110.269 Y97.123 E0.31755
G1 X110.703 Y96.988 E0.34022
G1 X111.046 Y96.893 E0.35798
G1 X111.582 Y96.763 E0.3855
G1 X111.993 Y96.679 E0.40642
G1 X112.461 Y96.602 E0.43009
G1 X112.727 Y96.565 E0.44349
G1 X113.073 Y96.525 E0.46086
G1 X113.428 Y96.495 E0.47864
G1 X113.953 Y96.468 E0.50486
G1 X114.158 Y96.462 E0.5151
G1 X115.034 Y96.449 E0.5588
G1 X115.117 Y96.448 E0.56295
G1 X131.928 Y96.448 E1.40165
G1 X132.008 Y96.449 E1.40564
G1 X132.706 Y96.459 E1.44047
G1 X133.141 Y96.482 E1.4622
G1 X133.379 Y96.504 E1.47412
G1 X133.545 Y96.522 E1.48246
G1 X133.79 Y96.552 E1.49477
G1 X133.92 Y96.569 E1.50131
G1 X134.583 Y96.666 E1.53474
G1 X135.238 Y96.802 E1.56812
G1 X135.872 Y97.016 E1.6015
G1 X136.476 Y97.303 E1.63486
G1 X137.041 Y97.66 E1.6682
G1 X137.56 Y98.083 E1.70161
G1 X138.025 Y98.564 E1.73499
G1 X138.429 Y99.097 E1.76835
G1 X138.767 Y99.675 E1.80176
G1 X139.033 Y100.289 E1.83514
G1 X139.224 Y100.93 E1.86851
G1 X139.338 Y101.589 E1.90188
G1 X139.371 Y102.107 E1.92777
G1 X139.382 Y102.724 E1.95856
G1 X139.383 Y102.824 E1.96355
G1 X139.383 Y104.491 E2.04672
G1 X139.382 Y104.571 E2.05071
G1 X139.372 Y105.267 E2.08543
G1 X139.371 Y105.351 E2.08963
G1 X139.285 Y108.279 E2.23577
G1 X139.285 Y110.928 E2.36793
G1 X139.381 Y114.373 E2.53986
G1 X139.383 Y114.529 E2.54765
G1 X139.383 Y116.463 E2.64414
G1 X139.382 Y116.54 E2.64798
G1 X139.372 Y117.267 E2.68425
G1 X139.323 Y117.934 E2.71762
G1 X139.195 Y118.591 E2.75101
G1 X138.989 Y119.227 E2.78436
G1 X138.709 Y119.835 E2.81776
G1 X138.358 Y120.405 E2.85116
G1 X137.942 Y120.929 E2.88454
G1 X137.467 Y121.399 E2.91787
G1 X136.667 Y121.984 E2.96732
G1 X136.165 Y122.287 E2.99657
G1 X136.075 Y122.341 E3.00181
G1 X134.713 Y123.128 E3.08029
G1 X132.459 Y124.519 E3.21243
G1 X130.233 Y125.979 E3.34524
G1 X128.037 Y127.512 E3.47885
G1 X125.888 Y129.103 E3.61225
G1 X123.784 Y130.756 E3.74574
G1 X121.751 Y132.446 E3.87764
G1 X119.733 Y134.224 E4.01182
G1 X117.77 Y136.054 E4.14571
G1 X115.896 Y137.904 E4.27709
G1 X114.035 Y139.848 E4.41135
G1 X112.803 Y141.21 E4.50298
G1 X112.752 Y141.266 E4.50676
G1 X112.393 Y141.652 E4.53305
G1 X112.076 Y141.966 E4.55531
G1 X111.968 Y142.065 E4.56262
G1 X111.449 Y142.487 E4.596
G1 X110.883 Y142.844 E4.62938
G1 X110.278 Y143.131 E4.66279
G1 X109.644 Y143.343 E4.69614
G1 X108.989 Y143.479 E4.72952
G1 X108.381 Y143.534 E4.75997
G1 X108.154 Y143.542 E4.77131
G1 X108 Y143.545 E4.77899
G1 X107.74 Y143.547 E4.79196
G1 X107.698 Y143.547 E4.79406
G1 X82.009 Y143.551 E6.07569
G1 X81.929 Y143.55 E6.07968
G1 X81.222 Y143.54 E6.11495
G1 X80.555 Y143.491 E6.14832
G1 X79.898 Y143.362 E6.18172
G1 X79.262 Y143.156 E6.21508
G1 X78.654 Y142.876 E6.24847
G1 X78.084 Y142.525 E6.28187
G1 X77.368 Y141.928 E6.32838
G1 X77.221 Y141.783 E6.33868
G1 X76.774 Y141.285 E6.37207
G1 X76.389 Y140.738 E6.40544
G1 X76.072 Y140.149 E6.43881
G1 X75.828 Y139.526 E6.47219
G1 X75.66 Y138.879 E6.50554
G1 X75.555 Y137.891 E6.55511
G1 X75.545 Y137.303 E6.58445
G1 X75.544 Y137.209 E6.58914
G1 X75.543 Y130.207 E6.93847
G1 X75.544 Y130.127 E6.94246
G1 X75.554 Y129.418 E6.97784
G1 X75.603 Y128.751 E7.0112
G1 X75.732 Y128.094 E7.04461
G1 X75.938 Y127.458 E7.07796
G1 X76.218 Y126.85 E7.11135
G1 X76.569 Y126.281 E7.14471
G1 X76.985 Y125.757 E7.17809
G1 X77.282 Y125.45 E7.1994
G1 X77.535 Y125.208 E7.21687
G1 X77.649 Y125.102 E7.22463
G1 X104.509 Y100.801 E9.03173
G0 F1080 X104.903 Y100.445
G0 F6000 X105.171 Y100.742
G1 F1200 X105.244 Y100.677 E9.03661
G1 X106.301 Y99.756 E9.10655
G1 X106.569 Y99.538 E9.12379
G1 X106.732 Y99.414 E9.134
G1 X106.972 Y99.242 E9.14874
G1 X107.531 Y98.865 E9.18237
G1 X107.802 Y98.694 E9.19836
G1 X108.113 Y98.511 E9.21636
G1 X108.387 Y98.361 E9.23195
G1 X108.777 Y98.162 E9.25379
G1 X109.073 Y98.022 E9.27013
G1 X109.574 Y97.805 E9.29737
G1 X109.846 Y97.696 E9.31199
G1 X110.137 Y97.589 E9.32745
G1 X110.387 Y97.505 E9.34061
G1 X110.821 Y97.37 E9.36329
G1 X111.14 Y97.282 E9.3798
G1 X111.676 Y97.152 E9.40731
G1 X112.058 Y97.074 E9.42676
G1 X112.526 Y96.997 E9.45043
G1 X112.773 Y96.962 E9.46287
G1 X113.119 Y96.922 E9.48025
G1 X113.449 Y96.895 E9.49677
G1 X113.974 Y96.868 E9.523
G1 X114.164 Y96.862 E9.53248
G1 X115.04 Y96.849 E9.57619
G1 X115.117 Y96.848 E9.58003
G1 X131.928 Y96.848 E10.41873
G1 X132.002 Y96.849 E10.42243
G1 X132.7 Y96.859 E10.45725
G1 X133.105 Y96.88 E10.47749
G1 X133.343 Y96.902 E10.48941
G1 X133.496 Y96.919 E10.49709
G1 X133.741 Y96.949 E10.5094
G1 X133.862 Y96.965 E10.51549
G1 X134.525 Y97.062 E10.54892
G1 X135.156 Y97.194 E10.58109
G1 X135.765 Y97.404 E10.61322
G1 X136.344 Y97.688 E10.6454
G1 X136.884 Y98.041 E10.67758
G1 X137.375 Y98.458 E10.70972
G1 X137.811 Y98.932 E10.74185
G1 X138.186 Y99.457 E10.77404
G1 X138.492 Y100.025 E10.80623
G1 X138.726 Y100.625 E10.83836
G1 X138.883 Y101.251 E10.87056
G1 X138.971 Y102.114 E10.91384
G1 X138.982 Y102.731 E10.94462
G1 X138.983 Y102.824 E10.94926
G1 X138.983 Y104.491 E11.03243
G1 X138.982 Y104.566 E11.03617
G1 X138.972 Y105.262 E11.0709
G1 X138.971 Y105.34 E11.07479
G1 X138.885 Y108.268 E11.22093
G1 X138.885 Y110.939 E11.35419
G1 X138.981 Y114.384 E11.52613
G1 X138.983 Y114.529 E11.53336
G1 X138.983 Y116.535 E11.63344
G1 X138.973 Y117.262 E11.66972
G1 X138.924 Y117.904 E11.70184
G1 X138.796 Y118.536 E11.73401
G1 X138.591 Y119.147 E11.76616
G1 X138.311 Y119.728 E11.79834
G1 X137.962 Y120.27 E11.8305
G1 X137.549 Y120.765 E11.86266
G1 X137.078 Y121.205 E11.89482
G1 X136.46 Y121.642 E11.93258
G1 X135.958 Y121.945 E11.96184
G1 X135.874 Y121.994 E11.96669
G1 X134.55 Y122.76 E12.043
G1 X132.235 Y124.188 E12.1787
G1 X130.007 Y125.65 E12.31165
G1 X127.792 Y127.195 E12.44639
G1 X125.65 Y128.781 E12.57936
G1 X123.548 Y130.432 E12.71271
G1 X121.474 Y132.157 E12.84729
G1 X119.462 Y133.929 E12.98105
G1 X117.517 Y135.742 E13.1137
G1 X115.592 Y137.644 E13.24871
G1 X113.751 Y139.567 E13.38153
G1 X112.507 Y140.941 E13.474
G1 X112.459 Y140.993 E13.47753
G1 X112.1 Y141.379 E13.50383
G1 X111.806 Y141.671 E13.5245
G1 X111.698 Y141.77 E13.53181
G1 X111.196 Y142.176 E13.56402
G1 X110.649 Y142.516 E13.59616
G1 X110.063 Y142.786 E13.62835
G1 X109.449 Y142.981 E13.66049
G1 X108.815 Y143.099 E13.69266
G1 X108.367 Y143.134 E13.71508
G1 X108.14 Y143.142 E13.72641
G1 X107.997 Y143.145 E13.73355
G1 X107.737 Y143.147 E13.74652
G1 X107.698 Y143.147 E13.74846
G1 X82.009 Y143.151 E15.03009
G1 X81.934 Y143.15 E15.03384
G1 X81.227 Y143.14 E15.06911
G1 X80.585 Y143.091 E15.10123
G1 X79.953 Y142.963 E15.13341
G1 X79.342 Y142.758 E15.16556
G1 X78.761 Y142.478 E15.19773
G1 X78.219 Y142.129 E15.2299
G1 X77.649 Y141.643 E15.26727
G1 X77.502 Y141.498 E15.27757
G1 X77.072 Y141.018 E15.30972
G1 X76.705 Y140.488 E15.34188
G1 X76.406 Y139.917 E15.37404
G1 X76.18 Y139.313 E15.40621
G1 X76.031 Y138.686 E15.43836
G1 X75.955 Y137.884 E15.47856
G1 X75.945 Y137.296 E15.5079
G1 X75.944 Y137.209 E15.51224
G1 X75.943 Y130.207 E15.86157
G1 X75.944 Y130.133 E15.86526
G1 X75.954 Y129.424 E15.90064
G1 X76.003 Y128.781 E15.93281
G1 X76.131 Y128.149 E15.96498
G1 X76.336 Y127.538 E15.99713
G1 X76.616 Y126.957 E16.02931
G1 X76.965 Y126.415 E16.06147
G1 X77.559 Y125.739 E16.10637
G1 X77.812 Y125.497 E16.12383
G1 X77.917 Y125.399 E16.131
G1 X104.777 Y101.098 E17.9381
G0 F1080 X105.171 Y100.742
G1 F3000 E11.9381
G1 F300 Z0.65
;MESH:final.stl
G0 F6000 X102.987 Y130.806 Z0.65
;TYPE:WALL-INNER
G1 F300 Z0.3
G1 F3000 E17.9381
G1 F1200 X103.53 Y130.617 E17.96678
G1 X104.047 Y130.379 E17.99518
G1 X104.547 Y130.088 E18.02404
G1 X105.003 Y129.759 E18.05209
G1 X105.143 Y129.641 E18.06123
G1 X105.441 Y129.377 E18.08109
G1 X105.833 Y128.963 E18.10953
G1 X106.186 Y128.508 E18.13826
G1 X106.491 Y128.025 E18.16676
G1 X106.735 Y127.542 E18.19376
G1 X110.221 Y119.737 E18.62023
G1 X110.423 Y119.246 E18.64672
G1 X110.613 Y118.741 E18.67363
G1 X110.785 Y118.227 E18.70068
G1 X110.938 Y117.709 E18.72762
G1 X111.072 Y117.185 E18.75461
G1 X111.187 Y116.659 E18.78147
G1 X111.284 Y116.135 E18.80805
G1 X111.345 Y115.746 E18.8277
G1 X111.425 Y115.061 E18.86211
G1 X111.467 Y114.521 E18.88913
G1 X111.49 Y113.984 E18.91594
G1 X111.495 Y113.609 E18.93465
G1 X111.495 Y111.089 E19.06038
G1 X111.454 Y110.637 E19.08302
G1 X111.307 Y110.139 E19.10893
G1 X111.068 Y109.683 E19.13461
G1 X110.748 Y109.277 E19.1604
G1 X110.355 Y108.939 E19.18626
G1 X109.905 Y108.683 E19.21209
G1 X109.417 Y108.519 E19.23778
G1 X108.906 Y108.448 E19.26352
G1 X108.39 Y108.479 E19.2893
G1 X107.898 Y108.605 E19.31464
G1 X107.739 Y108.676 E19.32333
G1 X107.433 Y108.821 E19.34022
G1 X107.29 Y108.919 E19.34887
G1 X107.045 Y109.1 E19.36407
G1 X87.803 Y126.753 E20.66685
G1 X87.526 Y127.055 E20.68729
G1 X87.434 Y127.199 E20.69582
G1 X87.262 Y127.489 E20.71264
G1 X87.202 Y127.649 E20.72116
G1 X87.09 Y127.97 E20.73813
G1 X87.021 Y128.463 E20.76296
G1 X87.051 Y128.962 E20.7879
G1 X87.181 Y129.448 E20.813
G1 X87.405 Y129.896 E20.83799
G1 X87.715 Y130.29 E20.863
G1 X88.098 Y130.617 E20.88813
G1 X88.538 Y130.858 E20.91316
G1 X89.015 Y131.007 E20.93809
G1 X89.448 Y131.051 E20.9598
G1 X101.466 Y131.045 E21.55938
G1 X101.867 Y131.023 E21.57942
G1 X102.43 Y130.942 E21.60779
G1 X102.47 Y130.932 E21.60985
G0 F1080 X102.987 Y130.806
G0 F6000 X102.874 Y130.422
G1 F1200 X103.38 Y130.246 E21.63658
G1 X103.862 Y130.024 E21.66305
G1 X104.329 Y129.752 E21.69002
G1 X104.757 Y129.443 E21.71635
G1 X104.882 Y129.338 E21.7245
G1 X105.163 Y129.089 E21.74323
G1 X105.529 Y128.702 E21.7698
G1 X105.858 Y128.278 E21.79658
G1 X106.143 Y127.827 E21.82319
G1 X106.374 Y127.37 E21.84874
G1 X109.853 Y119.579 E22.27443
G1 X110.051 Y119.099 E22.30033
G1 X110.236 Y118.607 E22.32656
G1 X110.403 Y118.107 E22.35286
G1 X110.552 Y117.603 E22.37908
G1 X110.683 Y117.093 E22.40535
G1 X110.795 Y116.58 E22.43154
G1 X110.89 Y116.067 E22.45757
G1 X110.949 Y115.692 E22.47651
G1 X111.027 Y115.022 E22.51016
G1 X111.068 Y114.497 E22.53644
G1 X111.09 Y113.973 E22.5626
G1 X111.095 Y113.606 E22.58091
G1 X111.095 Y111.107 E22.70559
G1 X111.059 Y110.713 E22.72533
G1 X110.934 Y110.29 E22.74733
G1 X110.731 Y109.901 E22.76922
G1 X110.458 Y109.555 E22.79121
G1 X110.124 Y109.268 E22.81318
G1 X109.741 Y109.05 E22.83517
G1 X109.325 Y108.91 E22.85707
G1 X108.89 Y108.85 E22.87897
G1 X108.452 Y108.876 E22.90086
G1 X108.03 Y108.984 E22.9226
G1 X107.906 Y109.039 E22.92936
G1 X107.633 Y109.169 E22.94445
G1 X107.522 Y109.245 E22.95116
G1 X107.3 Y109.409 E22.96493
G1 X88.086 Y127.036 E24.2658
G1 X87.845 Y127.299 E24.2836
G1 X87.775 Y127.409 E24.2901
G1 X87.624 Y127.662 E24.3048
G1 X87.579 Y127.784 E24.31129
G1 X87.481 Y128.065 E24.32614
G1 X87.423 Y128.479 E24.34699
G1 X87.448 Y128.898 E24.36794
G1 X87.557 Y129.305 E24.38896
G1 X87.745 Y129.681 E24.40993
G1 X88.005 Y130.012 E24.43093
G1 X88.326 Y130.286 E24.45198
G1 X88.695 Y130.488 E24.47297
G1 X89.096 Y130.613 E24.49393
G1 X89.468 Y130.651 E24.51258
G1 X101.455 Y130.645 E25.11062
G1 X101.828 Y130.625 E25.12925
G1 X102.354 Y130.549 E25.15577
G1 X102.357 Y130.548 E25.15593
G0 F1080 X102.874 Y130.422
G0 F6000 X102.761 Y130.038
;TYPE:WALL-OUTER
G1 F1200 X103.23 Y129.875 E25.1807
G1 X103.679 Y129.668 E25.20536
G1 X103.804 Y129.597 E25.21254
G1 X104.11 Y129.417 E25.23025
G1 X104.51 Y129.128 E25.25487
G1 X104.62 Y129.035 E25.26205
G1 X104.885 Y128.801 E25.27969
G1 X105.225 Y128.441 E25.3044
G1 X105.53 Y128.048 E25.32921
G1 X105.795 Y127.629 E25.35395
G1 X106.013 Y127.198 E25.37804
G1 X109.485 Y119.421 E25.80295
G1 X109.679 Y118.952 E25.82827
G1 X109.859 Y118.473 E25.8538
G1 X110.021 Y117.987 E25.87936
G1 X110.166 Y117.496 E25.9049
G1 X110.294 Y117 E25.93046
G1 X110.403 Y116.501 E25.95594
G1 X110.496 Y115.999 E25.98141
G1 X110.553 Y115.638 E25.99964
G1 X110.629 Y114.983 E26.03254
G1 X110.669 Y114.473 E26.05806
G1 X110.69 Y113.962 E26.08358
G1 X110.695 Y113.603 E26.10149
G1 X110.695 Y111.125 E26.22512
G1 X110.664 Y110.789 E26.24195
G1 X110.561 Y110.44 E26.26011
G1 X110.394 Y110.119 E26.27816
G1 X110.168 Y109.833 E26.29635
G1 X109.893 Y109.597 E26.31443
G1 X109.577 Y109.417 E26.33257
G1 X109.233 Y109.301 E26.35068
G1 X108.874 Y109.252 E26.36876
G1 X108.514 Y109.273 E26.38675
G1 X108.161 Y109.363 E26.40492
G1 X108.073 Y109.402 E26.40973
G1 X107.834 Y109.516 E26.42294
G1 X107.754 Y109.571 E26.42778
G1 X107.555 Y109.718 E26.44012
G1 X88.369 Y127.319 E27.73909
G1 X88.163 Y127.544 E27.75431
G1 X88.115 Y127.619 E27.75875
G1 X87.986 Y127.836 E27.77134
G1 X87.955 Y127.919 E27.77576
G1 X87.872 Y128.159 E27.78843
G1 X87.825 Y128.495 E27.80536
G1 X87.845 Y128.834 E27.8223
G1 X87.933 Y129.162 E27.83925
G1 X88.085 Y129.466 E27.8562
G1 X88.295 Y129.734 E27.87319
G1 X88.554 Y129.955 E27.89017
G1 X88.852 Y130.118 E27.90712
G1 X89.177 Y130.219 E27.9241
G1 X89.488 Y130.251 E27.9397
G1 X101.444 Y130.245 E28.53619
G1 X101.789 Y130.227 E28.55342
G1 X102.244 Y130.161 E28.57636
G0 F1080 X102.278 Y130.156
G0 X102.761 Y130.038
G0 F6000 X103.139 Y129.907
G0 X103.283 Y130.323
G0 X103.301 Y130.379
G0 X104.35 Y129.785
G0 X105.19 Y129.117
G0 X105.89 Y128.3
G0 X112.789 Y118.674
G0 X116.925 Y113.669
;TYPE:WALL-INNER
G1 F1200 X117.415 Y113.699 E28.60085
G1 X117.895 Y113.699 E28.6248
G1 X117.895 Y115.199 E28.69963
G1 X132.783 Y115.199 E29.4424
G1 X132.783 Y116.321 E29.49838
G1 X132.567 Y116.349 E29.50924
G1 X117.022 Y116.349 E30.28478
G1 X116.481 Y116.375 E30.31181
G1 X115.916 Y116.458 E30.3403
G1 X115.361 Y116.594 E30.36881
G1 X114.818 Y116.783 E30.39749
G1 X114.298 Y117.023 E30.42606
G1 X113.803 Y117.311 E30.45463
G1 X113.339 Y117.644 E30.48313
G1 X112.907 Y118.023 E30.5118
G1 X112.515 Y118.44 E30.54035
G1 X112.163 Y118.892 E30.56893
G1 X111.857 Y119.376 E30.5975
G1 X111.613 Y119.858 E30.62445
G1 X107.344 Y129.414 E31.14662
G1 X107.344 Y136.947 E31.52244
G1 X82.144 Y136.951 E32.77967
G1 X82.143 Y129.937 E33.1296
G1 X110.035 Y104.702 E35.00614
G1 X110.33 Y104.454 E35.02537
G1 X110.65 Y104.219 E35.04518
G1 X110.975 Y104.008 E35.06451
G1 X111.345 Y103.798 E35.08573
G1 X111.689 Y103.63 E35.10483
G1 X112.077 Y103.469 E35.12579
G1 X112.428 Y103.348 E35.14431
G1 X112.81 Y103.242 E35.16409
G1 X113.22 Y103.153 E35.18502
G1 X113.594 Y103.096 E35.2039
