M201 X500.00 Y500.00 Z100.00 E5000.00 ;Setup machine max acceleration
M203 X500.00 Y500.00 Z10.00 E75.00 ;Setup machine max feedrate
M204 P500.00 R1000.00 T500.00 ;Setup Print/Retract/Travel acceleration
M205 X8.00 Y8.00 Z0.40 E5.00 ;Setup Jerk
M220 S100 ;Reset Feedrate
M221 S100 ;Reset Flowrate

G21 ; (metric values)
G90 ; (absolute positioning)
M82 ; (set extruder to absolute mode)
G28 ; (home all axis)
G29 L70 R120 F25 B65; (standard is L70 R120 F25 B65)
G0 Z40 F1000

;Set new Zero Point for Lasing
G0 X5 Y5 ;Go to start testpoint
M84 X Y ;Disable X Y stepper
M106 S1
M0 Adjust Zeroing Then click
M106 S0
G92 X0 Y0 ;new zeroing
M17 X Y ;Enable steppers again

;
; Operation:    0
; Type:         Laser Fill Path
; Paths:        390
; Passes:       1
; Cut rate:     750 mm/min
;


; Pass 0

; Pass 0 Path 0
G0 X3.00 Y23.09
M106 S255
M106 S255 S255.00
G1 X7.20 Y23.09 F750
M106 S0

; Pass 0 Path 1
G0 X7.20 Y23.19
M106 S255
M106 S255 S255.00
G1 X3.00 Y23.19 F750
M106 S0

; Pass 0 Path 2
G0 X3.00 Y23.29
M106 S255
M106 S255 S255.00
G1 X7.20 Y23.29 F750
M106 S0

; Pass 0 Path 3
G0 X7.20 Y23.39
M106 S255
M106 S255 S255.00
G1 X3.00 Y23.39 F750
M106 S0

; Pass 0 Path 4
G0 X3.00 Y23.49
M106 S255
M106 S255 S255.00
G1 X7.20 Y23.49 F750
M106 S0

; Pass 0 Path 5
G0 X7.20 Y23.59
M106 S255
M106 S255 S255.00
G1 X3.00 Y23.59 F750
M106 S0

; Pass 0 Path 6
G0 X3.00 Y23.69
M106 S255
M106 S255 S255.00
G1 X7.20 Y23.69 F750
M106 S0

; Pass 0 Path 7
G0 X7.20 Y23.79
M106 S255
M106 S255 S255.00
G1 X3.00 Y23.79 F750
M106 S0

; Pass 0 Path 8
G0 X3.00 Y23.89
M106 S255
M106 S255 S255.00
G1 X7.20 Y23.89 F750
M106 S0

; Pass 0 Path 9
G0 X7.20 Y23.99
M106 S255
M106 S255 S255.00
G1 X3.00 Y23.99 F750
M106 S0

; Pass 0 Path 10
G0 X3.00 Y24.09
M106 S255
M106 S255 S255.00
G1 X7.20 Y24.09 F750
M106 S0

; Pass 0 Path 11
G0 X7.20 Y24.19
M106 S255
M106 S255 S255.00
G1 X3.00 Y24.19 F750
M106 S0

; Pass 0 Path 12
G0 X3.00 Y24.29
M106 S255
M106 S255 S255.00
G1 X7.20 Y24.29 F750
M106 S0

; Pass 0 Path 13
G0 X4.50 Y25.29
M106 S255
M106 S255 S255.00
G1 X63.90 Y25.29 F750
M106 S0

; Pass 0 Path 14
G0 X63.90 Y25.39
M106 S255
M106 S255 S255.00
G1 X4.28 Y25.39 F750
M106 S0

; Pass 0 Path 15
G0 X4.13 Y25.49
M106 S255
M106 S255 S255.00
G1 X63.90 Y25.49 F750
M106 S0

; Pass 0 Path 16
G0 X63.90 Y25.59
M106 S255
M106 S255 S255.00
G1 X4.01 Y25.59 F750
M106 S0

; Pass 0 Path 17
G0 X3.92 Y25.69
M106 S255
M106 S255 S255.00
G1 X63.90 Y25.69 F750
M106 S0

; Pass 0 Path 18
G0 X63.90 Y25.79
M106 S255
M106 S255 S255.00
G1 X3.84 Y25.79 F750
M106 S0

; Pass 0 Path 19
G0 X3.10 Y25.89
M106 S255
M106 S255 S255.00
G1 X63.90 Y25.89 F750
M106 S0

; Pass 0 Path 20
G0 X63.90 Y25.99
M106 S255
M106 S255 S255.00
G1 X3.10 Y25.99 F750
M106 S0

; Pass 0 Path 21
G0 X3.10 Y26.09
M106 S255
M106 S255 S255.00
G1 X63.90 Y26.09 F750
M106 S0

; Pass 0 Path 22
G0 X63.90 Y26.19
M106 S255
M106 S255 S255.00
G1 X3.10 Y26.19 F750
M106 S0

; Pass 0 Path 23
G0 X3.10 Y26.29
M106 S255
M106 S255 S255.00
G1 X63.90 Y26.29 F750
M106 S0

; Pass 0 Path 24
G0 X63.90 Y26.39
M106 S255
M106 S255 S255.00
G1 X3.10 Y26.39 F750
M106 S0

; Pass 0 Path 25
G0 X3.10 Y26.49
M106 S255
M106 S255 S255.00
G1 X63.90 Y26.49 F750
M106 S0

; Pass 0 Path 26
G0 X63.90 Y26.59
M106 S255
M106 S255 S255.00
G1 X3.10 Y26.59 F750
M106 S0

; Pass 0 Path 27
G0 X3.10 Y26.69
M106 S255
M106 S255 S255.00
G1 X63.90 Y26.69 F750
M106 S0

; Pass 0 Path 28
G0 X63.90 Y26.79
M106 S255
M106 S255 S255.00
G1 X3.10 Y26.79 F750
M106 S0

; Pass 0 Path 29
G0 X3.10 Y26.89
M106 S255
M106 S255 S255.00
G1 X63.90 Y26.89 F750
M106 S0

; Pass 0 Path 30
G0 X63.90 Y26.99
M106 S255
M106 S255 S255.00
G1 X3.10 Y26.99 F750
M106 S0

; Pass 0 Path 31
G0 X3.10 Y27.09
M106 S255
M106 S255 S255.00
G1 X63.90 Y27.09 F750
M106 S0

; Pass 0 Path 32
G0 X63.90 Y27.19
M106 S255
M106 S255 S255.00
G1 X3.84 Y27.19 F750
M106 S0

; Pass 0 Path 33
G0 X3.91 Y27.29
M106 S255
M106 S255 S255.00
G1 X63.90 Y27.29 F750
M106 S0

; Pass 0 Path 34
G0 X63.90 Y27.39
M106 S255
M106 S255 S255.00
G1 X4.00 Y27.39 F750
M106 S0

; Pass 0 Path 35
G0 X4.11 Y27.49
M106 S255
M106 S255 S255.00
G1 X63.90 Y27.49 F750
M106 S0

; Pass 0 Path 36
G0 X63.90 Y27.59
M106 S255
M106 S255 S255.00
G1 X4.26 Y27.59 F750
M106 S0

; Pass 0 Path 37
G0 X4.47 Y27.69
M106 S255
M106 S255 S255.00
G1 X63.90 Y27.69 F750
M106 S0

; Pass 0 Path 38
G0 X63.97 Y28.09
M106 S255
M106 S255 S255.00
G1 X13.10 Y28.09 F750
M106 S0

; Pass 0 Path 39
G0 X13.10 Y28.19
M106 S255
M106 S255 S255.00
G1 X64.07 Y28.19 F750
M106 S0

; Pass 0 Path 40
G0 X64.17 Y28.29
M106 S255
M106 S255 S255.00
G1 X13.10 Y28.29 F750
M106 S0

; Pass 0 Path 41
G0 X13.10 Y28.39
M106 S255
M106 S255 S255.00
G1 X64.27 Y28.39 F750
M106 S0

; Pass 0 Path 42
G0 X64.37 Y28.49
M106 S255
M106 S255 S255.00
G1 X13.10 Y28.49 F750
M106 S0

; Pass 0 Path 43
G0 X13.10 Y28.59
M106 S255
M106 S255 S255.00
G1 X64.47 Y28.59 F750
M106 S0

; Pass 0 Path 44
G0 X64.57 Y28.69
M106 S255
M106 S255 S255.00
G1 X13.10 Y28.69 F750
M106 S0

; Pass 0 Path 45
G0 X13.10 Y28.79
M106 S255
M106 S255 S255.00
G1 X64.67 Y28.79 F750
M106 S0

; Pass 0 Path 46
G0 X64.77 Y28.89
M106 S255
M106 S255 S255.00
G1 X13.10 Y28.89 F750
M106 S0

; Pass 0 Path 47
G0 X13.10 Y28.99
M106 S255
M106 S255 S255.00
G1 X64.87 Y28.99 F750
M106 S0

; Pass 0 Path 48
G0 X64.97 Y29.09
M106 S255
M106 S255 S255.00
G1 X13.10 Y29.09 F750
M106 S0

; Pass 0 Path 49
G0 X13.10 Y29.19
M106 S255
M106 S255 S255.00
G1 X65.07 Y29.19 F750
M106 S0

; Pass 0 Path 50
G0 X65.17 Y29.29
M106 S255
M106 S255 S255.00
G1 X13.10 Y29.29 F750
M106 S0

; Pass 0 Path 51
G0 X13.10 Y29.39
M106 S255
M106 S255 S255.00
G1 X65.27 Y29.39 F750
M106 S0

; Pass 0 Path 52
G0 X65.37 Y29.49
M106 S255
M106 S255 S255.00
G1 X13.10 Y29.49 F750
M106 S0

; Pass 0 Path 53
G0 X13.10 Y29.59
M106 S255
M106 S255 S255.00
G1 X65.47 Y29.59 F750
M106 S0

; Pass 0 Path 54
G0 X65.57 Y29.69
M106 S255
M106 S255 S255.00
G1 X13.10 Y29.69 F750
M106 S0

; Pass 0 Path 55
G0 X13.10 Y29.79
M106 S255
M106 S255 S255.00
G1 X65.67 Y29.79 F750
M106 S0

; Pass 0 Path 56
G0 X65.77 Y29.89
M106 S255
M106 S255 S255.00
G1 X13.10 Y29.89 F750
M106 S0

; Pass 0 Path 57
G0 X13.10 Y29.99
M106 S255
M106 S255 S255.00
G1 X65.87 Y29.99 F750
M106 S0

; Pass 0 Path 58
G0 X65.97 Y30.09
M106 S255
M106 S255 S255.00
G1 X13.10 Y30.09 F750
M106 S0

; Pass 0 Path 59
G0 X13.10 Y30.19
M106 S255
M106 S255 S255.00
G1 X66.07 Y30.19 F750
M106 S0

; Pass 0 Path 60
G0 X66.17 Y30.29
M106 S255
M106 S255 S255.00
G1 X13.10 Y30.29 F750
M106 S0

; Pass 0 Path 61
G0 X13.10 Y30.39
M106 S255
M106 S255 S255.00
G1 X66.27 Y30.39 F750
M106 S0

; Pass 0 Path 62
G0 X66.37 Y30.49
M106 S255
M106 S255 S255.00
G1 X13.10 Y30.49 F750
M106 S0

; Pass 0 Path 63
G0 X13.10 Y32.69
M106 S255
M106 S255 S255.00
G1 X66.34 Y32.69 F750
M106 S0

; Pass 0 Path 64
G0 X66.44 Y32.59
M106 S255
M106 S255 S255.00
G1 X63.90 Y32.59 F750
M106 S0

; Pass 0 Path 65
G0 X63.90 Y32.49
M106 S255
M106 S255 S255.00
G1 X66.44 Y32.49 F750
M106 S0

; Pass 0 Path 66
G0 X66.44 Y32.39
M106 S255
M106 S255 S255.00
G1 X63.90 Y32.39 F750
M106 S0

; Pass 0 Path 67
G0 X63.90 Y32.29
M106 S255
M106 S255 S255.00
G1 X66.44 Y32.29 F750
M106 S0

; Pass 0 Path 68
G0 X66.44 Y32.19
M106 S255
M106 S255 S255.00
G1 X63.90 Y32.19 F750
M106 S0

; Pass 0 Path 69
G0 X63.90 Y32.09
M106 S255
M106 S255 S255.00
G1 X66.44 Y32.09 F750
M106 S0

; Pass 0 Path 70
G0 X66.44 Y31.99
M106 S255
M106 S255 S255.00
G1 X63.90 Y31.99 F750
M106 S0

; Pass 0 Path 71
G0 X63.90 Y31.89
M106 S255
M106 S255 S255.00
G1 X66.44 Y31.89 F750
M106 S0

; Pass 0 Path 72
G0 X66.44 Y31.79
M106 S255
M106 S255 S255.00
G1 X63.90 Y31.79 F750
M106 S0

; Pass 0 Path 73
G0 X63.90 Y31.69
M106 S255
M106 S255 S255.00
G1 X66.44 Y31.69 F750
M106 S0

; Pass 0 Path 74
G0 X66.44 Y31.59
M106 S255
M106 S255 S255.00
G1 X63.90 Y31.59 F750
M106 S0

; Pass 0 Path 75
G0 X63.90 Y31.49
M106 S255
M106 S255 S255.00
G1 X66.44 Y31.49 F750
M106 S0

; Pass 0 Path 76
G0 X66.44 Y31.39
M106 S255
M106 S255 S255.00
G1 X63.90 Y31.39 F750
M106 S0

; Pass 0 Path 77
G0 X63.90 Y31.29
M106 S255
M106 S255 S255.00
G1 X66.44 Y31.29 F750
M106 S0

; Pass 0 Path 78
G0 X66.44 Y31.19
M106 S255
M106 S255 S255.00
G1 X63.90 Y31.19 F750
M106 S0

; Pass 0 Path 79
G0 X63.90 Y31.09
M106 S255
M106 S255 S255.00
G1 X66.44 Y31.09 F750
M106 S0

; Pass 0 Path 80
G0 X66.44 Y30.99
M106 S255
M106 S255 S255.00
G1 X63.90 Y30.99 F750
M106 S0

; Pass 0 Path 81
G0 X63.90 Y30.89
M106 S255
M106 S255 S255.00
G1 X66.44 Y30.89 F750
M106 S0

; Pass 0 Path 82
G0 X66.44 Y30.79
M106 S255
M106 S255 S255.00
G1 X63.90 Y30.79 F750
M106 S0

; Pass 0 Path 83
G0 X63.90 Y30.69
M106 S255
M106 S255 S255.00
G1 X66.44 Y30.69 F750
M106 S0

; Pass 0 Path 84
G0 X66.44 Y30.59
M106 S255
M106 S255 S255.00
G1 X63.90 Y30.59 F750
M106 S0

; Pass 0 Path 85
G0 X66.14 Y32.89
M106 S255
M106 S255 S255.00
G1 X13.10 Y32.89 F750
M106 S0

; Pass 0 Path 86
G0 X13.10 Y32.79
M106 S255
M106 S255 S255.00
G1 X66.24 Y32.79 F750
M106 S0

; Pass 0 Path 87
G0 X66.04 Y32.99
M106 S255
M106 S255 S255.00
G1 X13.10 Y32.99 F750
M106 S0

; Pass 0 Path 88
G0 X13.10 Y33.09
M106 S255
M106 S255 S255.00
G1 X65.94 Y33.09 F750
M106 S0

; Pass 0 Path 89
G0 X65.84 Y33.19
M106 S255
M106 S255 S255.00
G1 X13.10 Y33.19 F750
M106 S0

; Pass 0 Path 90
G0 X13.10 Y33.29
M106 S255
M106 S255 S255.00
G1 X65.74 Y33.29 F750
M106 S0

; Pass 0 Path 91
G0 X65.64 Y33.39
M106 S255
M106 S255 S255.00
G1 X13.10 Y33.39 F750
M106 S0

; Pass 0 Path 92
G0 X13.10 Y33.49
M106 S255
M106 S255 S255.00
G1 X65.54 Y33.49 F750
M106 S0

; Pass 0 Path 93
G0 X65.44 Y33.59
M106 S255
M106 S255 S255.00
G1 X13.10 Y33.59 F750
M106 S0

; Pass 0 Path 94
G0 X13.10 Y33.69
M106 S255
M106 S255 S255.00
G1 X65.34 Y33.69 F750
M106 S0

; Pass 0 Path 95
G0 X65.24 Y33.79
M106 S255
M106 S255 S255.00
G1 X13.10 Y33.79 F750
M106 S0

; Pass 0 Path 96
G0 X13.10 Y33.89
M106 S255
M106 S255 S255.00
G1 X65.14 Y33.89 F750
M106 S0

; Pass 0 Path 97
G0 X65.04 Y33.99
M106 S255
M106 S255 S255.00
G1 X13.10 Y33.99 F750
M106 S0

; Pass 0 Path 98
G0 X13.10 Y34.09
M106 S255
M106 S255 S255.00
G1 X64.94 Y34.09 F750
M106 S0

; Pass 0 Path 99
G0 X64.84 Y34.19
M106 S255
M106 S255 S255.00
G1 X13.10 Y34.19 F750
M106 S0

; Pass 0 Path 100
G0 X13.10 Y34.29
M106 S255
M106 S255 S255.00
G1 X64.74 Y34.29 F750
M106 S0

; Pass 0 Path 101
G0 X64.64 Y34.39
M106 S255
M106 S255 S255.00
G1 X13.10 Y34.39 F750
M106 S0

; Pass 0 Path 102
G0 X13.10 Y34.49
M106 S255
M106 S255 S255.00
G1 X64.54 Y34.49 F750
M106 S0

; Pass 0 Path 103
G0 X64.44 Y34.59
M106 S255
M106 S255 S255.00
G1 X13.10 Y34.59 F750
M106 S0

; Pass 0 Path 104
G0 X13.10 Y34.69
M106 S255
M106 S255 S255.00
G1 X64.34 Y34.69 F750
M106 S0

; Pass 0 Path 105
G0 X64.24 Y34.79
M106 S255
M106 S255 S255.00
G1 X13.10 Y34.79 F750
M106 S0

; Pass 0 Path 106
G0 X13.10 Y34.89
M106 S255
M106 S255 S255.00
G1 X64.14 Y34.89 F750
M106 S0

; Pass 0 Path 107
G0 X64.04 Y34.99
M106 S255
M106 S255 S255.00
G1 X13.10 Y34.99 F750
M106 S0

; Pass 0 Path 108
G0 X13.10 Y35.09
M106 S255
M106 S255 S255.00
G1 X63.94 Y35.09 F750
M106 S0

; Pass 0 Path 109
G0 X63.90 Y36.69
M106 S255
M106 S255 S255.00
G1 X13.07 Y36.69 F750
M106 S0

; Pass 0 Path 110
G0 X12.97 Y36.79
M106 S255
M106 S255 S255.00
G1 X63.90 Y36.79 F750
M106 S0

; Pass 0 Path 111
G0 X63.90 Y36.89
M106 S255
M106 S255 S255.00
G1 X12.87 Y36.89 F750
M106 S0

; Pass 0 Path 112
G0 X12.77 Y36.99
M106 S255
M106 S255 S255.00
G1 X63.90 Y36.99 F750
M106 S0

; Pass 0 Path 113
G0 X63.90 Y37.09
M106 S255
M106 S255 S255.00
G1 X12.67 Y37.09 F750
M106 S0

; Pass 0 Path 114
G0 X12.57 Y37.19
M106 S255
M106 S255 S255.00
G1 X63.90 Y37.19 F750
M106 S0

; Pass 0 Path 115
G0 X63.90 Y37.29
M106 S255
M106 S255 S255.00
G1 X12.47 Y37.29 F750
M106 S0

; Pass 0 Path 116
G0 X12.37 Y37.39
M106 S255
M106 S255 S255.00
G1 X63.90 Y37.39 F750
M106 S0

; Pass 0 Path 117
G0 X63.90 Y37.49
M106 S255
M106 S255 S255.00
G1 X12.27 Y37.49 F750
M106 S0

; Pass 0 Path 118
G0 X12.17 Y37.59
M106 S255
M106 S255 S255.00
G1 X63.90 Y37.59 F750
M106 S0

; Pass 0 Path 119
G0 X63.90 Y37.69
M106 S255
M106 S255 S255.00
G1 X12.07 Y37.69 F750
M106 S0

; Pass 0 Path 120
G0 X11.97 Y37.79
M106 S255
M106 S255 S255.00
G1 X63.90 Y37.79 F750
M106 S0

; Pass 0 Path 121
G0 X63.90 Y37.89
M106 S255
M106 S255 S255.00
G1 X11.87 Y37.89 F750
M106 S0

; Pass 0 Path 122
G0 X11.77 Y37.99
M106 S255
M106 S255 S255.00
G1 X63.90 Y37.99 F750
M106 S0

; Pass 0 Path 123
G0 X63.90 Y38.09
M106 S255
M106 S255 S255.00
G1 X11.67 Y38.09 F750
M106 S0

; Pass 0 Path 124
G0 X11.57 Y38.19
M106 S255
M106 S255 S255.00
G1 X63.90 Y38.19 F750
M106 S0

; Pass 0 Path 125
G0 X63.90 Y38.29
M106 S255
M106 S255 S255.00
G1 X11.47 Y38.29 F750
M106 S0

; Pass 0 Path 126
G0 X11.37 Y38.39
M106 S255
M106 S255 S255.00
G1 X63.90 Y38.39 F750
M106 S0

; Pass 0 Path 127
G0 X63.90 Y38.49
M106 S255
M106 S255 S255.00
G1 X11.27 Y38.49 F750
M106 S0

; Pass 0 Path 128
G0 X11.17 Y38.59
M106 S255
M106 S255 S255.00
G1 X63.90 Y38.59 F750
M106 S0

; Pass 0 Path 129
G0 X63.90 Y38.69
M106 S255
M106 S255 S255.00
G1 X11.07 Y38.69 F750
M106 S0

; Pass 0 Path 130
G0 X10.97 Y38.79
M106 S255
M106 S255 S255.00
G1 X63.90 Y38.79 F750
M106 S0

; Pass 0 Path 131
G0 X63.90 Y38.89
M106 S255
M106 S255 S255.00
G1 X10.87 Y38.89 F750
M106 S0

; Pass 0 Path 132
G0 X10.77 Y38.99
M106 S255
M106 S255 S255.00
G1 X63.90 Y38.99 F750
M106 S0

; Pass 0 Path 133
G0 X63.90 Y39.09
M106 S255
M106 S255 S255.00
G1 X10.67 Y39.09 F750
M106 S0

; Pass 0 Path 134
G0 X10.57 Y39.19
M106 S255
M106 S255 S255.00
G1 X63.90 Y39.19 F750
M106 S0

; Pass 0 Path 135
G0 X63.90 Y41.29
M106 S255
M106 S255 S255.00
G1 X10.62 Y41.29 F750
M106 S0

; Pass 0 Path 136
G0 X10.56 Y41.19
M106 S255
M106 S255 S255.00
G1 X13.10 Y41.19 F750
M106 S0

; Pass 0 Path 137
G0 X13.10 Y41.09
M106 S255
M106 S255 S255.00
G1 X10.56 Y41.09 F750
M106 S0

; Pass 0 Path 138
G0 X10.56 Y40.99
M106 S255
M106 S255 S255.00
G1 X13.10 Y40.99 F750
M106 S0

; Pass 0 Path 139
G0 X13.10 Y40.89
M106 S255
M106 S255 S255.00
G1 X10.56 Y40.89 F750
M106 S0

; Pass 0 Path 140
G0 X10.56 Y40.79
M106 S255
M106 S255 S255.00
G1 X13.10 Y40.79 F750
M106 S0

; Pass 0 Path 141
G0 X13.10 Y40.69
M106 S255
M106 S255 S255.00
G1 X10.56 Y40.69 F750
M106 S0

; Pass 0 Path 142
G0 X10.56 Y40.59
M106 S255
M106 S255 S255.00
G1 X13.10 Y40.59 F750
M106 S0

; Pass 0 Path 143
G0 X13.10 Y40.49
M106 S255
M106 S255 S255.00
G1 X10.56 Y40.49 F750
M106 S0

; Pass 0 Path 144
G0 X10.56 Y40.39
M106 S255
M106 S255 S255.00
G1 X13.10 Y40.39 F750
M106 S0

; Pass 0 Path 145
G0 X13.10 Y40.29
M106 S255
M106 S255 S255.00
G1 X10.56 Y40.29 F750
M106 S0

; Pass 0 Path 146
G0 X10.56 Y40.19
M106 S255
M106 S255 S255.00
G1 X13.10 Y40.19 F750
M106 S0

; Pass 0 Path 147
G0 X13.10 Y40.09
M106 S255
M106 S255 S255.00
G1 X10.56 Y40.09 F750
M106 S0

; Pass 0 Path 148
G0 X10.56 Y39.99
M106 S255
M106 S255 S255.00
G1 X13.10 Y39.99 F750
M106 S0

; Pass 0 Path 149
G0 X13.10 Y39.89
M106 S255
M106 S255 S255.00
G1 X10.56 Y39.89 F750
M106 S0

; Pass 0 Path 150
G0 X10.56 Y39.79
M106 S255
M106 S255 S255.00
G1 X13.10 Y39.79 F750
M106 S0

; Pass 0 Path 151
G0 X13.10 Y39.69
M106 S255
M106 S255 S255.00
G1 X10.56 Y39.69 F750
M106 S0

; Pass 0 Path 152
G0 X10.56 Y39.59
M106 S255
M106 S255 S255.00
G1 X13.10 Y39.59 F750
M106 S0

; Pass 0 Path 153
G0 X13.10 Y39.49
M106 S255
M106 S255 S255.00
G1 X10.56 Y39.49 F750
M106 S0

; Pass 0 Path 154
G0 X10.56 Y39.39
M106 S255
M106 S255 S255.00
G1 X13.10 Y39.39 F750
M106 S0

; Pass 0 Path 155
G0 X13.10 Y39.29
M106 S255
M106 S255 S255.00
G1 X10.56 Y39.29 F750
M106 S0

; Pass 0 Path 156
G0 X10.72 Y41.39
M106 S255
M106 S255 S255.00
G1 X63.90 Y41.39 F750
M106 S0

; Pass 0 Path 157
G0 X63.90 Y41.49
M106 S255
M106 S255 S255.00
G1 X10.82 Y41.49 F750
M106 S0

; Pass 0 Path 158
G0 X10.92 Y41.59
M106 S255
M106 S255 S255.00
G1 X63.90 Y41.59 F750
M106 S0

; Pass 0 Path 159
G0 X63.90 Y41.69
M106 S255
M106 S255 S255.00
G1 X11.02 Y41.69 F750
M106 S0

; Pass 0 Path 160
G0 X11.12 Y41.79
M106 S255
M106 S255 S255.00
G1 X63.90 Y41.79 F750
M106 S0

; Pass 0 Path 161
G0 X63.90 Y41.89
M106 S255
M106 S255 S255.00
G1 X11.22 Y41.89 F750
M106 S0

; Pass 0 Path 162
G0 X11.32 Y41.99
M106 S255
M106 S255 S255.00
G1 X63.90 Y41.99 F750
M106 S0

; Pass 0 Path 163
G0 X63.90 Y42.09
M106 S255
M106 S255 S255.00
G1 X11.42 Y42.09 F750
M106 S0

; Pass 0 Path 164
G0 X11.52 Y42.19
M106 S255
M106 S255 S255.00
G1 X63.90 Y42.19 F750
M106 S0

; Pass 0 Path 165
G0 X63.90 Y42.29
M106 S255
M106 S255 S255.00
G1 X11.62 Y42.29 F750
M106 S0

; Pass 0 Path 166
G0 X11.72 Y42.39
M106 S255
M106 S255 S255.00
G1 X63.90 Y42.39 F750
M106 S0

; Pass 0 Path 167
G0 X63.90 Y42.49
M106 S255
M106 S255 S255.00
G1 X11.82 Y42.49 F750
M106 S0

; Pass 0 Path 168
G0 X11.92 Y42.59
M106 S255
M106 S255 S255.00
G1 X63.90 Y42.59 F750
M106 S0

; Pass 0 Path 169
G0 X63.90 Y42.69
M106 S255
M106 S255 S255.00
G1 X12.02 Y42.69 F750
M106 S0

; Pass 0 Path 170
G0 X12.12 Y42.79
M106 S255
M106 S255 S255.00
G1 X63.90 Y42.79 F750
M106 S0

; Pass 0 Path 171
G0 X63.90 Y42.89
M106 S255
M106 S255 S255.00
G1 X12.22 Y42.89 F750
M106 S0

; Pass 0 Path 172
G0 X12.32 Y42.99
M106 S255
M106 S255 S255.00
G1 X63.90 Y42.99 F750
M106 S0

; Pass 0 Path 173
G0 X63.90 Y43.09
M106 S255
M106 S255 S255.00
G1 X12.42 Y43.09 F750
M106 S0

; Pass 0 Path 174
G0 X12.52 Y43.19
M106 S255
M106 S255 S255.00
G1 X63.90 Y43.19 F750
M106 S0

; Pass 0 Path 175
G0 X63.90 Y43.29
M106 S255
M106 S255 S255.00
G1 X12.62 Y43.29 F750
M106 S0

; Pass 0 Path 176
G0 X12.72 Y43.39
M106 S255
M106 S255 S255.00
G1 X63.90 Y43.39 F750
M106 S0

; Pass 0 Path 177
G0 X63.90 Y43.49
M106 S255
M106 S255 S255.00
G1 X12.82 Y43.49 F750
M106 S0

; Pass 0 Path 178
G0 X12.92 Y43.59
M106 S255
M106 S255 S255.00
G1 X63.90 Y43.59 F750
M106 S0

; Pass 0 Path 179
G0 X63.90 Y43.69
M106 S255
M106 S255 S255.00
G1 X13.02 Y43.69 F750
M106 S0

; Pass 0 Path 180
G0 X13.10 Y46.09
M106 S255
M106 S255 S255.00
G1 X63.94 Y46.09 F750
M106 S0

; Pass 0 Path 181
G0 X64.04 Y46.19
M106 S255
M106 S255 S255.00
G1 X13.10 Y46.19 F750
M106 S0

; Pass 0 Path 182
G0 X13.10 Y46.29
M106 S255
M106 S255 S255.00
G1 X64.14 Y46.29 F750
M106 S0

; Pass 0 Path 183
G0 X64.24 Y46.39
M106 S255
M106 S255 S255.00
G1 X13.10 Y46.39 F750
M106 S0

; Pass 0 Path 184
G0 X13.10 Y46.49
M106 S255
M106 S255 S255.00
G1 X64.34 Y46.49 F750
M106 S0

; Pass 0 Path 185
G0 X64.44 Y46.59
M106 S255
M106 S255 S255.00
G1 X13.10 Y46.59 F750
M106 S0

; Pass 0 Path 186
G0 X13.10 Y46.69
M106 S255
M106 S255 S255.00
G1 X64.54 Y46.69 F750
M106 S0

; Pass 0 Path 187
G0 X64.64 Y46.79
M106 S255
M106 S255 S255.00
G1 X13.10 Y46.79 F750
M106 S0

; Pass 0 Path 188
G0 X13.10 Y46.89
M106 S255
M106 S255 S255.00
G1 X64.74 Y46.89 F750
M106 S0

; Pass 0 Path 189
G0 X64.84 Y46.99
M106 S255
M106 S255 S255.00
G1 X13.10 Y46.99 F750
M106 S0

; Pass 0 Path 190
G0 X13.10 Y47.09
M106 S255
M106 S255 S255.00
G1 X64.94 Y47.09 F750
M106 S0

; Pass 0 Path 191
G0 X65.04 Y47.19
M106 S255
M106 S255 S255.00
G1 X13.10 Y47.19 F750
M106 S0

; Pass 0 Path 192
G0 X13.10 Y47.29
M106 S255
M106 S255 S255.00
G1 X65.14 Y47.29 F750
M106 S0

; Pass 0 Path 193
G0 X65.24 Y47.39
M106 S255
M106 S255 S255.00
G1 X13.10 Y47.39 F750
M106 S0

; Pass 0 Path 194
G0 X13.10 Y47.49
M106 S255
M106 S255 S255.00
G1 X65.34 Y47.49 F750
M106 S0

; Pass 0 Path 195
G0 X65.44 Y47.59
M106 S255
M106 S255 S255.00
G1 X13.10 Y47.59 F750
M106 S0

; Pass 0 Path 196
G0 X13.10 Y47.69
M106 S255
M106 S255 S255.00
G1 X65.54 Y47.69 F750
M106 S0

; Pass 0 Path 197
G0 X65.64 Y47.79
M106 S255
M106 S255 S255.00
G1 X13.10 Y47.79 F750
M106 S0

; Pass 0 Path 198
G0 X13.10 Y47.89
M106 S255
M106 S255 S255.00
G1 X65.74 Y47.89 F750
M106 S0

; Pass 0 Path 199
G0 X65.84 Y47.99
M106 S255
M106 S255 S255.00
G1 X13.10 Y47.99 F750
M106 S0

; Pass 0 Path 200
G0 X13.10 Y48.09
M106 S255
M106 S255 S255.00
G1 X65.94 Y48.09 F750
M106 S0

; Pass 0 Path 201
G0 X66.04 Y48.19
M106 S255
M106 S255 S255.00
G1 X13.10 Y48.19 F750
M106 S0

; Pass 0 Path 202
G0 X13.10 Y48.29
M106 S255
M106 S255 S255.00
G1 X66.14 Y48.29 F750
M106 S0

; Pass 0 Path 203
G0 X66.24 Y48.39
M106 S255
M106 S255 S255.00
G1 X13.10 Y48.39 F750
M106 S0

; Pass 0 Path 204
G0 X13.10 Y48.49
M106 S255
M106 S255 S255.00
G1 X66.34 Y48.49 F750
M106 S0

; Pass 0 Path 205
G0 X66.44 Y48.59
M106 S255
M106 S255 S255.00
G1 X13.10 Y48.59 F750
M106 S0

; Pass 0 Path 206
G0 X13.10 Y50.69
M106 S255
M106 S255 S255.00
G1 X66.38 Y50.69 F750
M106 S0

; Pass 0 Path 207
G0 X66.44 Y50.59
M106 S255
M106 S255 S255.00
G1 X63.90 Y50.59 F750
M106 S0

; Pass 0 Path 208
G0 X63.90 Y50.49
M106 S255
M106 S255 S255.00
G1 X66.44 Y50.49 F750
M106 S0

; Pass 0 Path 209
G0 X66.44 Y50.39
M106 S255
M106 S255 S255.00
G1 X63.90 Y50.39 F750
M106 S0

; Pass 0 Path 210
G0 X63.90 Y50.29
M106 S255
M106 S255 S255.00
G1 X66.44 Y50.29 F750
M106 S0

; Pass 0 Path 211
G0 X66.44 Y50.19
M106 S255
M106 S255 S255.00
G1 X63.90 Y50.19 F750
M106 S0

; Pass 0 Path 212
G0 X63.90 Y50.09
M106 S255
M106 S255 S255.00
G1 X66.44 Y50.09 F750
M106 S0

; Pass 0 Path 213
G0 X66.44 Y49.99
M106 S255
M106 S255 S255.00
G1 X63.90 Y49.99 F750
M106 S0

; Pass 0 Path 214
G0 X63.90 Y49.89
M106 S255
M106 S255 S255.00
G1 X66.44 Y49.89 F750
M106 S0

; Pass 0 Path 215
G0 X66.44 Y49.79
M106 S255
M106 S255 S255.00
G1 X63.90 Y49.79 F750
M106 S0

; Pass 0 Path 216
G0 X63.90 Y49.69
M106 S255
M106 S255 S255.00
G1 X66.44 Y49.69 F750
M106 S0

; Pass 0 Path 217
G0 X66.44 Y49.59
M106 S255
M106 S255 S255.00
G1 X63.90 Y49.59 F750
M106 S0

; Pass 0 Path 218
G0 X63.90 Y49.49
M106 S255
M106 S255 S255.00
G1 X66.44 Y49.49 F750
M106 S0

; Pass 0 Path 219
G0 X66.44 Y49.39
M106 S255
M106 S255 S255.00
G1 X63.90 Y49.39 F750
M106 S0

; Pass 0 Path 220
G0 X63.90 Y49.29
M106 S255
M106 S255 S255.00
G1 X66.44 Y49.29 F750
M106 S0

; Pass 0 Path 221
G0 X66.44 Y49.19
M106 S255
M106 S255 S255.00
G1 X63.90 Y49.19 F750
M106 S0

; Pass 0 Path 222
G0 X63.90 Y49.09
M106 S255
M106 S255 S255.00
G1 X66.44 Y49.09 F750
M106 S0

; Pass 0 Path 223
G0 X66.44 Y48.99
M106 S255
M106 S255 S255.00
G1 X63.90 Y48.99 F750
M106 S0

; Pass 0 Path 224
G0 X63.90 Y48.89
M106 S255
M106 S255 S255.00
G1 X66.44 Y48.89 F750
M106 S0

; Pass 0 Path 225
G0 X66.44 Y48.79
M106 S255
M106 S255 S255.00
G1 X63.90 Y48.79 F750
M106 S0

; Pass 0 Path 226
G0 X63.90 Y48.69
M106 S255
M106 S255 S255.00
G1 X66.44 Y48.69 F750
M106 S0

; Pass 0 Path 227
G0 X66.28 Y50.79
M106 S255
M106 S255 S255.00
G1 X13.10 Y50.79 F750
M106 S0

; Pass 0 Path 228
G0 X13.10 Y50.89
M106 S255
M106 S255 S255.00
G1 X66.18 Y50.89 F750
M106 S0

; Pass 0 Path 229
G0 X66.08 Y50.99
M106 S255
M106 S255 S255.00
G1 X13.10 Y50.99 F750
M106 S0

; Pass 0 Path 230
G0 X13.10 Y51.09
M106 S255
M106 S255 S255.00
G1 X65.98 Y51.09 F750
M106 S0

; Pass 0 Path 231
G0 X65.88 Y51.19
M106 S255
M106 S255 S255.00
G1 X13.10 Y51.19 F750
M106 S0

; Pass 0 Path 232
G0 X13.10 Y51.29
M106 S255
M106 S255 S255.00
G1 X65.78 Y51.29 F750
M106 S0

; Pass 0 Path 233
G0 X65.68 Y51.39
M106 S255
M106 S255 S255.00
G1 X13.10 Y51.39 F750
M106 S0

; Pass 0 Path 234
G0 X13.10 Y51.49
M106 S255
M106 S255 S255.00
G1 X65.58 Y51.49 F750
M106 S0

; Pass 0 Path 235
G0 X65.48 Y51.59
M106 S255
M106 S255 S255.00
G1 X13.10 Y51.59 F750
M106 S0

; Pass 0 Path 236
G0 X13.10 Y51.69
M106 S255
M106 S255 S255.00
G1 X65.38 Y51.69 F750
M106 S0

; Pass 0 Path 237
G0 X65.28 Y51.79
M106 S255
M106 S255 S255.00
G1 X13.10 Y51.79 F750
M106 S0

; Pass 0 Path 238
G0 X13.10 Y51.89
M106 S255
M106 S255 S255.00
G1 X65.18 Y51.89 F750
M106 S0

; Pass 0 Path 239
G0 X65.08 Y51.99
M106 S255
M106 S255 S255.00
G1 X13.10 Y51.99 F750
M106 S0

; Pass 0 Path 240
G0 X13.10 Y52.09
M106 S255
M106 S255 S255.00
G1 X64.98 Y52.09 F750
M106 S0

; Pass 0 Path 241
G0 X64.88 Y52.19
M106 S255
M106 S255 S255.00
G1 X13.10 Y52.19 F750
M106 S0

; Pass 0 Path 242
G0 X13.10 Y52.29
M106 S255
M106 S255 S255.00
G1 X64.78 Y52.29 F750
M106 S0

; Pass 0 Path 243
G0 X64.68 Y52.39
M106 S255
M106 S255 S255.00
G1 X13.10 Y52.39 F750
M106 S0

; Pass 0 Path 244
G0 X13.10 Y52.49
M106 S255
M106 S255 S255.00
G1 X64.58 Y52.49 F750
M106 S0

; Pass 0 Path 245
G0 X64.48 Y52.59
M106 S255
M106 S255 S255.00
G1 X13.10 Y52.59 F750
M106 S0

; Pass 0 Path 246
G0 X13.10 Y52.69
M106 S255
M106 S255 S255.00
G1 X64.38 Y52.69 F750
M106 S0

; Pass 0 Path 247
G0 X64.28 Y52.79
M106 S255
M106 S255 S255.00
G1 X13.10 Y52.79 F750
M106 S0

; Pass 0 Path 248
G0 X13.10 Y52.89
M106 S255
M106 S255 S255.00
G1 X64.18 Y52.89 F750
M106 S0

; Pass 0 Path 249
G0 X64.08 Y52.99
M106 S255
M106 S255 S255.00
G1 X13.10 Y52.99 F750
M106 S0

; Pass 0 Path 250
G0 X13.10 Y53.09
M106 S255
M106 S255 S255.00
G1 X63.98 Y53.09 F750
M106 S0

; Pass 0 Path 251
G0 X63.90 Y54.69
M106 S255
M106 S255 S255.00
G1 X13.10 Y54.69 F750
M106 S0

; Pass 0 Path 252
G0 X13.00 Y54.79
M106 S255
M106 S255 S255.00
G1 X63.90 Y54.79 F750
M106 S0

; Pass 0 Path 253
G0 X63.90 Y54.89
M106 S255
M106 S255 S255.00
G1 X12.90 Y54.89 F750
M106 S0

; Pass 0 Path 254
G0 X12.80 Y54.99
M106 S255
M106 S255 S255.00
G1 X63.90 Y54.99 F750
M106 S0

; Pass 0 Path 255
G0 X63.90 Y55.09
M106 S255
M106 S255 S255.00
G1 X12.70 Y55.09 F750
M106 S0

; Pass 0 Path 256
G0 X12.60 Y55.19
M106 S255
M106 S255 S255.00
G1 X63.90 Y55.19 F750
M106 S0

; Pass 0 Path 257
G0 X63.90 Y55.29
M106 S255
M106 S255 S255.00
G1 X12.50 Y55.29 F750
M106 S0

; Pass 0 Path 258
G0 X12.40 Y55.39
M106 S255
M106 S255 S255.00
G1 X63.90 Y55.39 F750
M106 S0

; Pass 0 Path 259
G0 X63.90 Y55.49
M106 S255
M106 S255 S255.00
G1 X12.30 Y55.49 F750
M106 S0

; Pass 0 Path 260
G0 X12.20 Y55.59
M106 S255
M106 S255 S255.00
G1 X63.90 Y55.59 F750
M106 S0

; Pass 0 Path 261
G0 X63.90 Y55.69
M106 S255
M106 S255 S255.00
G1 X12.10 Y55.69 F750
M106 S0

; Pass 0 Path 262
G0 X12.00 Y55.79
M106 S255
M106 S255 S255.00
G1 X63.90 Y55.79 F750
M106 S0

; Pass 0 Path 263
G0 X63.90 Y55.89
M106 S255
M106 S255 S255.00
G1 X11.90 Y55.89 F750
M106 S0

; Pass 0 Path 264
G0 X11.80 Y55.99
M106 S255
M106 S255 S255.00
G1 X63.90 Y55.99 F750
M106 S0

; Pass 0 Path 265
G0 X63.90 Y56.09
M106 S255
M106 S255 S255.00
G1 X11.70 Y56.09 F750
M106 S0

; Pass 0 Path 266
G0 X11.60 Y56.19
M106 S255
M106 S255 S255.00
G1 X63.90 Y56.19 F750
M106 S0

; Pass 0 Path 267
G0 X63.90 Y56.29
M106 S255
M106 S255 S255.00
G1 X11.50 Y56.29 F750
M106 S0

; Pass 0 Path 268
G0 X11.40 Y56.39
M106 S255
M106 S255 S255.00
G1 X63.90 Y56.39 F750
M106 S0

; Pass 0 Path 269
G0 X63.90 Y56.49
M106 S255
M106 S255 S255.00
G1 X11.30 Y56.49 F750
M106 S0

; Pass 0 Path 270
G0 X11.20 Y56.59
M106 S255
M106 S255 S255.00
G1 X63.90 Y56.59 F750
M106 S0

; Pass 0 Path 271
G0 X63.90 Y56.69
M106 S255
M106 S255 S255.00
G1 X11.10 Y56.69 F750
M106 S0

; Pass 0 Path 272
G0 X11.00 Y56.79
M106 S255
M106 S255 S255.00
G1 X63.90 Y56.79 F750
M106 S0

; Pass 0 Path 273
G0 X63.90 Y56.89
M106 S255
M106 S255 S255.00
G1 X10.90 Y56.89 F750
M106 S0

; Pass 0 Path 274
G0 X10.80 Y56.99
M106 S255
M106 S255 S255.00
G1 X63.90 Y56.99 F750
M106 S0

; Pass 0 Path 275
G0 X63.90 Y57.09
M106 S255
M106 S255 S255.00
G1 X10.70 Y57.09 F750
M106 S0

; Pass 0 Path 276
G0 X10.60 Y57.19
M106 S255
M106 S255 S255.00
G1 X63.90 Y57.19 F750
M106 S0

; Pass 0 Path 277
G0 X63.90 Y59.29
M106 S255
M106 S255 S255.00
G1 X10.59 Y59.29 F750
M106 S0

; Pass 0 Path 278
G0 X10.56 Y59.19
M106 S255
M106 S255 S255.00
G1 X13.10 Y59.19 F750
M106 S0

; Pass 0 Path 279
G0 X13.10 Y59.09
M106 S255
M106 S255 S255.00
G1 X10.56 Y59.09 F750
M106 S0

; Pass 0 Path 280
G0 X10.56 Y58.99
M106 S255
M106 S255 S255.00
G1 X13.10 Y58.99 F750
M106 S0

; Pass 0 Path 281
G0 X13.10 Y58.89
M106 S255
M106 S255 S255.00
G1 X10.56 Y58.89 F750
M106 S0

; Pass 0 Path 282
G0 X10.56 Y58.79
M106 S255
M106 S255 S255.00
G1 X13.10 Y58.79 F750
M106 S0

; Pass 0 Path 283
G0 X13.10 Y58.69
M106 S255
M106 S255 S255.00
G1 X10.56 Y58.69 F750
M106 S0

; Pass 0 Path 284
G0 X10.56 Y58.59
M106 S255
M106 S255 S255.00
G1 X13.10 Y58.59 F750
M106 S0

; Pass 0 Path 285
G0 X13.10 Y58.49
M106 S255
M106 S255 S255.00
G1 X10.56 Y58.49 F750
M106 S0

; Pass 0 Path 286
G0 X10.56 Y58.39
M106 S255
M106 S255 S255.00
G1 X13.10 Y58.39 F750
M106 S0

; Pass 0 Path 287
G0 X13.10 Y58.29
M106 S255
M106 S255 S255.00
G1 X10.56 Y58.29 F750
M106 S0

; Pass 0 Path 288
G0 X10.56 Y58.19
M106 S255
M106 S255 S255.00
G1 X13.10 Y58.19 F750
M106 S0

; Pass 0 Path 289
G0 X13.10 Y58.09
M106 S255
M106 S255 S255.00
G1 X10.56 Y58.09 F750
M106 S0

; Pass 0 Path 290
G0 X10.56 Y57.99
M106 S255
M106 S255 S255.00
G1 X13.10 Y57.99 F750
M106 S0

; Pass 0 Path 291
G0 X13.10 Y57.89
M106 S255
M106 S255 S255.00
G1 X10.56 Y57.89 F750
M106 S0

; Pass 0 Path 292
G0 X10.56 Y57.79
M106 S255
M106 S255 S255.00
G1 X13.10 Y57.79 F750
M106 S0

; Pass 0 Path 293
G0 X13.10 Y57.69
M106 S255
M106 S255 S255.00
G1 X10.56 Y57.69 F750
M106 S0

; Pass 0 Path 294
G0 X10.56 Y57.59
M106 S255
M106 S255 S255.00
G1 X13.10 Y57.59 F750
M106 S0

; Pass 0 Path 295
G0 X13.10 Y57.49
M106 S255
M106 S255 S255.00
G1 X10.56 Y57.49 F750
M106 S0

; Pass 0 Path 296
G0 X10.56 Y57.39
M106 S255
M106 S255 S255.00
G1 X13.10 Y57.39 F750
M106 S0

; Pass 0 Path 297
G0 X13.10 Y57.29
M106 S255
M106 S255 S255.00
G1 X10.56 Y57.29 F750
M106 S0

; Pass 0 Path 298
G0 X10.69 Y59.39
M106 S255
M106 S255 S255.00
G1 X63.90 Y59.39 F750
M106 S0

; Pass 0 Path 299
G0 X63.90 Y59.49
M106 S255
M106 S255 S255.00
G1 X10.79 Y59.49 F750
M106 S0

; Pass 0 Path 300
G0 X10.89 Y59.59
M106 S255
M106 S255 S255.00
G1 X63.90 Y59.59 F750
M106 S0

; Pass 0 Path 301
G0 X63.90 Y59.69
M106 S255
M106 S255 S255.00
G1 X10.99 Y59.69 F750
M106 S0

; Pass 0 Path 302
G0 X11.09 Y59.79
M106 S255
M106 S255 S255.00
G1 X63.90 Y59.79 F750
M106 S0

; Pass 0 Path 303
G0 X63.90 Y59.89
M106 S255
M106 S255 S255.00
G1 X11.19 Y59.89 F750
M106 S0

; Pass 0 Path 304
G0 X11.29 Y59.99
M106 S255
M106 S255 S255.00
G1 X63.90 Y59.99 F750
M106 S0

; Pass 0 Path 305
G0 X63.90 Y60.09
M106 S255
M106 S255 S255.00
G1 X11.39 Y60.09 F750
M106 S0

; Pass 0 Path 306
G0 X11.49 Y60.19
M106 S255
M106 S255 S255.00
G1 X63.90 Y60.19 F750
M106 S0

; Pass 0 Path 307
G0 X63.90 Y60.29
M106 S255
M106 S255 S255.00
G1 X11.59 Y60.29 F750
M106 S0

; Pass 0 Path 308
G0 X11.69 Y60.39
M106 S255
M106 S255 S255.00
G1 X63.90 Y60.39 F750
M106 S0

; Pass 0 Path 309
G0 X63.90 Y60.49
M106 S255
M106 S255 S255.00
G1 X11.79 Y60.49 F750
M106 S0

; Pass 0 Path 310
G0 X11.89 Y60.59
M106 S255
M106 S255 S255.00
G1 X63.90 Y60.59 F750
M106 S0

; Pass 0 Path 311
G0 X63.90 Y60.69
M106 S255
M106 S255 S255.00
G1 X11.99 Y60.69 F750
M106 S0

; Pass 0 Path 312
G0 X12.09 Y60.79
M106 S255
M106 S255 S255.00
G1 X63.90 Y60.79 F750
M106 S0

; Pass 0 Path 313
G0 X63.90 Y60.89
M106 S255
M106 S255 S255.00
G1 X12.19 Y60.89 F750
M106 S0

; Pass 0 Path 314
G0 X12.29 Y60.99
M106 S255
M106 S255 S255.00
G1 X63.90 Y60.99 F750
M106 S0

; Pass 0 Path 315
G0 X63.90 Y61.09
M106 S255
M106 S255 S255.00
G1 X12.39 Y61.09 F750
M106 S0

; Pass 0 Path 316
G0 X12.49 Y61.19
M106 S255
M106 S255 S255.00
G1 X63.90 Y61.19 F750
M106 S0

; Pass 0 Path 317
G0 X63.90 Y61.29
M106 S255
M106 S255 S255.00
G1 X12.59 Y61.29 F750
M106 S0

; Pass 0 Path 318
G0 X12.69 Y61.39
M106 S255
M106 S255 S255.00
G1 X63.90 Y61.39 F750
M106 S0

; Pass 0 Path 319
G0 X63.90 Y61.49
M106 S255
M106 S255 S255.00
G1 X12.79 Y61.49 F750
M106 S0

; Pass 0 Path 320
G0 X12.89 Y61.59
M106 S255
M106 S255 S255.00
G1 X63.90 Y61.59 F750
M106 S0

; Pass 0 Path 321
G0 X63.90 Y61.69
M106 S255
M106 S255 S255.00
G1 X12.99 Y61.69 F750
M106 S0

; Pass 0 Path 322
G0 X13.09 Y61.79
M106 S255
M106 S255 S255.00
G1 X63.90 Y61.79 F750
M106 S0

; Pass 0 Path 323
G0 X69.80 Y61.09
M106 S255
M106 S255 S255.00
G1 X74.00 Y61.09 F750
M106 S0

; Pass 0 Path 324
G0 X74.00 Y60.99
M106 S255
M106 S255 S255.00
G1 X69.80 Y60.99 F750
M106 S0

; Pass 0 Path 325
G0 X69.80 Y60.89
M106 S255
M106 S255 S255.00
G1 X74.00 Y60.89 F750
M106 S0

; Pass 0 Path 326
G0 X74.00 Y60.79
M106 S255
M106 S255 S255.00
G1 X69.80 Y60.79 F750
M106 S0

; Pass 0 Path 327
G0 X69.80 Y60.69
M106 S255
M106 S255 S255.00
G1 X74.00 Y60.69 F750
M106 S0

; Pass 0 Path 328
G0 X74.00 Y60.59
M106 S255
M106 S255 S255.00
G1 X69.80 Y60.59 F750
M106 S0

; Pass 0 Path 329
G0 X69.80 Y60.49
M106 S255
M106 S255 S255.00
G1 X74.00 Y60.49 F750
M106 S0

; Pass 0 Path 330
G0 X74.00 Y60.39
M106 S255
M106 S255 S255.00
G1 X69.80 Y60.39 F750
M106 S0

; Pass 0 Path 331
G0 X69.80 Y60.29
M106 S255
M106 S255 S255.00
G1 X74.00 Y60.29 F750
M106 S0

; Pass 0 Path 332
G0 X74.00 Y60.19
M106 S255
M106 S255 S255.00
G1 X69.80 Y60.19 F750
M106 S0

; Pass 0 Path 333
G0 X69.80 Y60.09
M106 S255
M106 S255 S255.00
G1 X74.00 Y60.09 F750
M106 S0

; Pass 0 Path 334
G0 X74.00 Y59.99
M106 S255
M106 S255 S255.00
G1 X69.80 Y59.99 F750
M106 S0

; Pass 0 Path 335
G0 X69.80 Y59.89
M106 S255
M106 S255 S255.00
G1 X74.00 Y59.89 F750
M106 S0

; Pass 0 Path 336
G0 X72.67 Y62.19
M106 S255
M106 S255 S255.00
G1 X13.10 Y62.19 F750
M106 S0

; Pass 0 Path 337
G0 X13.10 Y62.29
M106 S255
M106 S255 S255.00
G1 X72.84 Y62.29 F750
M106 S0

; Pass 0 Path 338
G0 X72.96 Y62.39
M106 S255
M106 S255 S255.00
G1 X13.10 Y62.39 F750
M106 S0

; Pass 0 Path 339
G0 X13.10 Y62.49
M106 S255
M106 S255 S255.00
G1 X73.06 Y62.49 F750
M106 S0

; Pass 0 Path 340
G0 X73.14 Y62.59
M106 S255
M106 S255 S255.00
G1 X13.10 Y62.59 F750
M106 S0

; Pass 0 Path 341
G0 X13.10 Y62.69
M106 S255
M106 S255 S255.00
G1 X73.20 Y62.69 F750
M106 S0

; Pass 0 Path 342
G0 X73.90 Y62.79
M106 S255
M106 S255 S255.00
G1 X13.10 Y62.79 F750
M106 S0

; Pass 0 Path 343
G0 X13.10 Y62.89
M106 S255
M106 S255 S255.00
G1 X73.90 Y62.89 F750
M106 S0

; Pass 0 Path 344
G0 X73.90 Y62.99
M106 S255
M106 S255 S255.00
G1 X13.10 Y62.99 F750
M106 S0

; Pass 0 Path 345
G0 X13.10 Y63.09
M106 S255
M106 S255 S255.00
G1 X73.90 Y63.09 F750
M106 S0

; Pass 0 Path 346
G0 X73.90 Y63.19
M106 S255
M106 S255 S255.00
G1 X13.10 Y63.19 F750
M106 S0

; Pass 0 Path 347
G0 X13.10 Y63.29
M106 S255
M106 S255 S255.00
G1 X73.90 Y63.29 F750
M106 S0

; Pass 0 Path 348
G0 X73.90 Y63.39
M106 S255
M106 S255 S255.00
G1 X13.10 Y63.39 F750
M106 S0

; Pass 0 Path 349
G0 X13.10 Y63.49
M106 S255
M106 S255 S255.00
G1 X73.90 Y63.49 F750
M106 S0

; Pass 0 Path 350
G0 X73.90 Y63.59
M106 S255
M106 S255 S255.00
G1 X13.10 Y63.59 F750
M106 S0

; Pass 0 Path 351
G0 X13.10 Y63.69
M106 S255
M106 S255 S255.00
G1 X73.90 Y63.69 F750
M106 S0

; Pass 0 Path 352
G0 X73.90 Y63.79
M106 S255
M106 S255 S255.00
G1 X13.10 Y63.79 F750
M106 S0

; Pass 0 Path 353
G0 X13.10 Y63.89
M106 S255
M106 S255 S255.00
G1 X73.90 Y63.89 F750
M106 S0

; Pass 0 Path 354
G0 X73.18 Y63.99
M106 S255
M106 S255 S255.00
G1 X13.10 Y63.99 F750
M106 S0

; Pass 0 Path 355
G0 X13.10 Y64.09
M106 S255
M106 S255 S255.00
G1 X73.11 Y64.09 F750
M106 S0

; Pass 0 Path 356
G0 X73.03 Y64.19
M106 S255
M106 S255 S255.00
G1 X13.10 Y64.19 F750
M106 S0

; Pass 0 Path 357
G0 X13.10 Y64.29
M106 S255
M106 S255 S255.00
G1 X72.93 Y64.29 F750
M106 S0

; Pass 0 Path 358
G0 X72.79 Y64.39
M106 S255
M106 S255 S255.00
G1 X13.10 Y64.39 F750
M106 S0

; Pass 0 Path 359
G0 X13.10 Y64.49
M106 S255
M106 S255 S255.00
G1 X72.61 Y64.49 F750
M106 S0

; Pass 0 Path 360
G0 X72.21 Y64.59
M106 S255
M106 S255 S255.00
G1 X13.10 Y64.59 F750
M106 S0

; Pass 0 Path 361
G0 X13.10 Y62.09
M106 S255
M106 S255 S255.00
G1 X72.39 Y62.09 F750
M106 S0

; Pass 0 Path 362
G0 X74.00 Y65.49
M106 S255
M106 S255 S255.00
G1 X69.80 Y65.49 F750
M106 S0

; Pass 0 Path 363
G0 X69.80 Y65.59
M106 S255
M106 S255 S255.00
G1 X74.00 Y65.59 F750
M106 S0

; Pass 0 Path 364
G0 X74.00 Y65.69
M106 S255
M106 S255 S255.00
G1 X69.80 Y65.69 F750
M106 S0

; Pass 0 Path 365
G0 X69.80 Y65.79
M106 S255
M106 S255 S255.00
G1 X74.00 Y65.79 F750
M106 S0

; Pass 0 Path 366
G0 X74.00 Y65.89
M106 S255
M106 S255 S255.00
G1 X69.80 Y65.89 F750
M106 S0

; Pass 0 Path 367
G0 X69.80 Y65.99
M106 S255
M106 S255 S255.00
G1 X74.00 Y65.99 F750
M106 S0

; Pass 0 Path 368
G0 X74.00 Y66.09
M106 S255
M106 S255 S255.00
G1 X69.80 Y66.09 F750
M106 S0

; Pass 0 Path 369
G0 X69.80 Y66.19
M106 S255
M106 S255 S255.00
G1 X74.00 Y66.19 F750
M106 S0

; Pass 0 Path 370
G0 X74.00 Y66.29
M106 S255
M106 S255 S255.00
G1 X69.80 Y66.29 F750
M106 S0

; Pass 0 Path 371
G0 X69.80 Y66.39
M106 S255
M106 S255 S255.00
G1 X74.00 Y66.39 F750
M106 S0

; Pass 0 Path 372
G0 X74.00 Y66.49
M106 S255
M106 S255 S255.00
G1 X69.80 Y66.49 F750
M106 S0

; Pass 0 Path 373
G0 X69.80 Y66.59
M106 S255
M106 S255 S255.00
G1 X74.00 Y66.59 F750
M106 S0

; Pass 0 Path 374
G0 X74.00 Y66.69
M106 S255
M106 S255 S255.00
G1 X69.80 Y66.69 F750
M106 S0

; Pass 0 Path 375
G0 X69.80 Y66.79
M106 S255
M106 S255 S255.00
G1 X74.00 Y66.79 F750
M106 S0

; Pass 0 Path 376
G0 X7.20 Y29.99
M106 S255
M106 S255 S255.00
G1 X3.00 Y29.99 F750
M106 S0

; Pass 0 Path 377
G0 X3.00 Y29.89
M106 S255
M106 S255 S255.00
G1 X7.20 Y29.89 F750
M106 S0

; Pass 0 Path 378
G0 X7.20 Y29.79
M106 S255
M106 S255 S255.00
G1 X3.00 Y29.79 F750
M106 S0

; Pass 0 Path 379
G0 X3.00 Y29.69
M106 S255
M106 S255 S255.00
G1 X7.20 Y29.69 F750
M106 S0

; Pass 0 Path 380
G0 X7.20 Y29.59
M106 S255
M106 S255 S255.00
G1 X3.00 Y29.59 F750
M106 S0

; Pass 0 Path 381
G0 X3.00 Y29.49
M106 S255
M106 S255 S255.00
G1 X7.20 Y29.49 F750
M106 S0

; Pass 0 Path 382
G0 X7.20 Y29.39
M106 S255
M106 S255 S255.00
G1 X3.00 Y29.39 F750
M106 S0

; Pass 0 Path 383
G0 X3.00 Y29.29
M106 S255
M106 S255 S255.00
G1 X7.20 Y29.29 F750
M106 S0

; Pass 0 Path 384
G0 X7.20 Y29.19
M106 S255
M106 S255 S255.00
G1 X3.00 Y29.19 F750
M106 S0

; Pass 0 Path 385
G0 X3.00 Y29.09
M106 S255
M106 S255 S255.00
G1 X7.20 Y29.09 F750
M106 S0

; Pass 0 Path 386
G0 X7.20 Y28.99
M106 S255
M106 S255 S255.00
G1 X3.00 Y28.99 F750
M106 S0

; Pass 0 Path 387
G0 X3.00 Y28.89
M106 S255
M106 S255 S255.00
G1 X7.20 Y28.89 F750
M106 S0

; Pass 0 Path 388
G0 X7.20 Y28.79
M106 S255
M106 S255 S255.00
G1 X3.00 Y28.79 F750
M106 S0

; Pass 0 Path 389
G0 X3.00 Y28.69
M106 S255
M106 S255 S255.00
G1 X7.20 Y28.69 F750
M106 S0
G91 ;Relative positioning
G1 Z20 ;Raise Z more
G90 ;Absolute positionning

G1 X0 Y150 ;Present print
M106 S0 ;Turn-off laser
M104 S0 ;Turn-off hotend
M140 S0 ;Turn-off bed

M84 X Y E ;Disable all steppers but Z