M201 X500.00 Y500.00 Z100.00 E5000.00 ;Setup machine max acceleration
M203 X500.00 Y500.00 Z10.00 E75.00 ;Setup machine max feedrate
M204 P500.00 R1000.00 T500.00 ;Setup Print/Retract/Travel acceleration
M205 X8.00 Y8.00 Z0.40 E5.00 ;Setup Jerk
M220 S100 ;Reset Feedrate
M221 S100 ;Reset Flowrate

G21 ; (metric values)
G90 ; (absolute positioning)
M82 ; (set extruder to absolute mode)
G28 ; (home all axis)
G29 L70 R120 F25 B65; (standard is L70 R120 F25 B65)
G0 Z40 F1000

;Set new Zero Point for Lasing
G0 X5 Y5 ;Go to start testpoint
M84 X Y ;Disable X Y stepper
M106 S1
M0 Adjust Zeroing Then click
M106 S0
G92 X0 Y0 ;new zeroing
M17 X Y ;Enable steppers again

G0 F500.00
M106 S0
G0 X4.6091Y25.4670
M106 S255
G1 X3.9930Y25.4670
G1 X3.9930Y25.9320
G1 X3.9989Y25.9320
G1 X4.0837Y25.8384
G1 X4.1089Y25.8129
G1 X4.2131Y25.7183
G1 X4.2469Y25.6906
G1 X4.3533Y25.6117
G1 X4.3864Y25.5894
G1 X4.5167Y25.5117
G1 X4.5412Y25.4991
G1 X4.6091Y25.4670
G1 X4.0880Y25.7034
G1 X4.1490Y25.6482
G1 X4.1709Y25.6295
G1 X4.2608Y25.5620
G1 X4.0880Y25.5620
G1 X4.0880Y25.7034
M106 S0
G0 X4.0880Y28.4806
M106 S255
G1 X4.0880Y28.6220
G1 X4.2608Y28.6220
G1 X4.1709Y28.5545
G1 X4.1490Y28.5359
G1 X4.0880Y28.4806
G1 X3.9930Y28.7170
G1 X4.6091Y28.7170
G1 X4.5412Y28.6849
G1 X4.5167Y28.6723
G1 X4.3864Y28.5946
G1 X4.3533Y28.5723
G1 X4.2469Y28.4934
G1 X4.2131Y28.4657
G1 X4.1090Y28.3712
G1 X4.0837Y28.3456
G1 X3.9989Y28.2521
G1 X3.9930Y28.2521
G1 X3.9930Y28.7170
G1 X3.8980Y28.8120
G1 X7.6738Y28.8121
G1 X7.6999Y28.8132
G1 X7.7253Y28.8159
G1 X7.7495Y28.8198
G1 X7.7770Y28.8261
G1 X7.7996Y28.8327
G1 X7.8260Y28.8421
G1 X7.8465Y28.8509
G1 X7.8685Y28.8617
G1 X7.8930Y28.8757
G1 X7.9118Y28.8879
G1 X7.9352Y28.9052
G1 X7.9524Y28.9196
G1 X7.9738Y28.9397
G1 X7.9904Y28.9576
G1 X8.0048Y28.9748
G1 X8.0222Y28.9982
G1 X8.0343Y29.0170
G1 X8.0489Y29.0425
G1 X8.0601Y29.0656
G1 X8.0696Y29.0884
G1 X8.0777Y29.1115
G1 X8.0839Y29.1330
G1 X8.0902Y29.1605
G1 X8.0944Y29.1870
G1 X8.0969Y29.2128
G1 X8.0980Y29.2417
G1 X8.0980Y30.5932
G1 X8.0961Y30.6317
G1 X8.0904Y30.6723
G1 X8.0811Y30.7111
G1 X8.0696Y30.7456
G1 X8.0531Y30.7832
G1 X8.0343Y30.8170
G1 X8.0235Y30.8339
G1 X8.0105Y30.8518
G1 X7.9897Y30.8772
G1 X7.9627Y30.9050
G1 X7.9315Y30.9317
G1 X7.9009Y30.9534
G1 X7.8654Y30.9739
G1 X7.8292Y30.9906
G1 X7.7905Y31.0041
G1 X7.7495Y31.0142
G1 X7.7126Y31.0196
G1 X7.6894Y31.0214
G1 X7.6680Y31.0220
G1 X3.8980Y31.0220
G1 X3.8980Y66.9920
G1 X69.8400Y66.9920
G1 X69.8400Y66.0697
G1 X69.8419Y66.0323
G1 X69.8472Y65.9939
G1 X69.8519Y65.9721
G1 X69.8596Y65.9437
G1 X69.8680Y65.9195
G1 X69.8775Y65.8966
G1 X69.8881Y65.8746
G1 X69.8989Y65.8550
G1 X69.9139Y65.8311
G1 X69.9296Y65.8094
G1 X69.9453Y65.7902
G1 X69.9618Y65.7722
G1 X69.9779Y65.7566
G1 X69.9992Y65.7381
G1 X70.0186Y65.7232
G1 X70.0371Y65.7106
G1 X70.0611Y65.6962
G1 X70.0820Y65.6854
G1 X70.1077Y65.6738
G1 X70.1296Y65.6657
G1 X70.1509Y65.6589
G1 X70.1735Y65.6531
G1 X70.1977Y65.6482
G1 X70.2208Y65.6449
G1 X70.2408Y65.6431
G1 X70.2665Y65.6420
G1 X74.0400Y65.6420
G1 X74.0400Y64.9870
G1 X73.8947Y64.9870
G1 X73.8711Y65.0156
G1 X73.7860Y65.1094
G1 X73.7704Y65.1257
G1 X73.6625Y65.2241
G1 X73.6337Y65.2477
G1 X73.5164Y65.3342
G1 X73.4974Y65.3463
G1 X73.3895Y65.4110
G1 X73.3554Y65.4294
G1 X73.2275Y65.4896
G1 X73.2017Y65.4999
G1 X73.0663Y65.5479
G1 X73.0434Y65.5544
G1 X72.9045Y65.5887
G1 X72.8811Y65.5929
G1 X72.7389Y65.6136
G1 X72.7159Y65.6154
G1 X72.5742Y65.6220
G1 X13.5690Y65.6220
G1 X13.5328Y65.6204
G1 X13.5002Y65.6164
G1 X13.4691Y65.6101
G1 X13.4330Y65.5998
G1 X13.4011Y65.5878
G1 X13.3695Y65.5729
G1 X13.3361Y65.5534
G1 X13.3092Y65.5345
G1 X13.2846Y65.5144
G1 X13.2600Y65.4909
G1 X13.2351Y65.4629
G1 X13.2135Y65.4339
G1 X13.1932Y65.4009
G1 X13.1784Y65.3716
G1 X13.1662Y65.3423
G1 X13.1556Y65.3100
G1 X13.1468Y65.2735
G1 X13.1418Y65.2401
G1 X13.1396Y65.2143
G1 X13.1390Y65.1920
G1 X13.1390Y62.6520
G1 X13.1404Y62.6175
G1 X13.1448Y62.5823
G1 X10.7225Y60.1596
G1 X10.7096Y60.1459
G1 X10.6929Y60.1261
G1 X10.6789Y60.1075
G1 X10.6676Y60.0909
G1 X10.6555Y60.0710
G1 X10.6444Y60.0502
G1 X10.6341Y60.0280
G1 X10.6262Y60.0083
G1 X10.6156Y59.9760
G1 X10.6062Y59.9360
G1 X10.6009Y59.8977
G1 X10.5990Y59.8615
G1 X10.5990Y57.8260
G1 X10.6009Y57.7863
G1 X10.6062Y57.7480
G1 X10.6140Y57.7136
G1 X10.6227Y57.6856
G1 X10.6369Y57.6496
G1 X10.6527Y57.6181
G1 X10.6729Y57.5851
G1 X10.6944Y57.5560
G1 X10.7167Y57.5304
G1 X13.2652Y54.9817
G1 X13.2943Y54.9552
G1 X13.3271Y54.9305
G1 X13.3611Y54.9097
G1 X13.3979Y54.8916
G1 X13.4165Y54.8840
G1 X13.4374Y54.8767
G1 X13.4725Y54.8671
G1 X13.5117Y54.8599
G1 X13.5476Y54.8566
G1 X13.5690Y54.8560
G1 X64.3690Y54.8560
G1 X64.4017Y54.8573
G1 X64.4228Y54.8595
G1 X64.4459Y54.8630
G1 X64.4825Y54.8713
G1 X64.5215Y54.8840
G1 X64.5581Y54.8999
G1 X64.5769Y54.9097
G1 X64.5940Y54.9197
G1 X64.6213Y54.9379
G1 X64.6516Y54.9620
G1 X64.6688Y54.9778
G1 X64.6836Y54.9930
G1 X64.7087Y55.0225
G1 X64.7304Y55.0531
G1 X64.7509Y55.0886
G1 X64.7685Y55.1270
G1 X64.7815Y55.1646
G1 X64.7914Y55.2057
G1 X64.7971Y55.2463
G1 X64.7990Y55.2857
G1 X64.7990Y57.8260
G1 X64.7979Y57.8553
G1 X64.7954Y57.8810
G1 X64.7895Y57.9157
G1 X64.7797Y57.9532
G1 X64.7676Y57.9872
G1 X64.7536Y58.0182
G1 X64.7353Y58.0510
G1 X64.7171Y58.0783
G1 X64.6937Y58.1078
G1 X64.6679Y58.1350
G1 X64.6398Y58.1599
G1 X64.6109Y58.1815
G1 X64.5779Y58.2018
G1 X64.5475Y58.2171
G1 X64.5182Y58.2292
G1 X64.4814Y58.2410
G1 X64.4459Y58.2490
G1 X64.4078Y58.2542
G1 X64.3690Y58.2560
G1 X13.9990Y58.2560
G1 X13.9990Y59.4280
G1 X64.3690Y59.4280
G1 X64.3913Y59.4286
G1 X64.4263Y59.4319
G1 X64.4644Y59.4388
G1 X64.4995Y59.4483
G1 X64.5369Y59.4622
G1 X64.5695Y59.4777
G1 X64.6029Y59.4972
G1 X64.6362Y59.5212
G1 X64.6620Y59.5434
G1 X64.6844Y59.5658
G1 X64.7094Y59.5954
G1 X64.7304Y59.6251
G1 X64.7499Y59.6585
G1 X64.7653Y59.6912
G1 X64.7787Y59.7275
G1 X64.7882Y59.7626
G1 X64.7949Y59.7995
G1 X64.7979Y59.8279
G1 X64.7990Y59.8577
G1 X64.7990Y62.2220
G1 X72.5701Y62.2220
G1 X72.7237Y62.2291
G1 X72.7564Y62.2326
G1 X72.8988Y62.2541
G1 X72.9220Y62.2592
G1 X73.0590Y62.2939
G1 X73.0832Y62.3017
G1 X73.2168Y62.3499
G1 X73.2388Y62.3595
G1 X73.3533Y62.4136
G1 X73.3875Y62.4318
G1 X73.5111Y62.5063
G1 X73.5315Y62.5205
G1 X73.6466Y62.6064
G1 X73.6638Y62.6211
G1 X73.7568Y62.7054
G1 X73.7741Y62.7220
G1 X73.8719Y62.8293
G1 X73.8946Y62.8569
G1 X74.0400Y62.8569
G1 X74.0400Y62.2020
G1 X70.2639Y62.2019
G1 X70.2373Y62.2007
G1 X70.2115Y62.1979
G1 X70.1837Y62.1932
G1 X70.1565Y62.1867
G1 X70.1307Y62.1787
G1 X70.1032Y62.1683
G1 X70.0788Y62.1571
G1 X70.0560Y62.1449
G1 X70.0361Y62.1328
G1 X70.0177Y62.1201
G1 X69.9954Y62.1028
G1 X69.9753Y62.0850
G1 X69.9578Y62.0676
G1 X69.9415Y62.0493
G1 X69.9275Y62.0318
G1 X69.9112Y62.0088
G1 X69.8983Y61.9880
G1 X69.8875Y61.9684
G1 X69.8756Y61.9431
G1 X69.8672Y61.9223
G1 X69.8593Y61.8992
G1 X69.8519Y61.8720
G1 X69.8472Y61.8501
G1 X69.8435Y61.8259
G1 X69.8411Y61.8013
G1 X69.8400Y61.7723
G1 X69.8400Y60.4220
G1 X69.8418Y60.3831
G1 X69.8472Y60.3439
G1 X69.8566Y60.3040
G1 X69.8684Y60.2684
G1 X69.8849Y60.2308
G1 X69.9037Y60.1970
G1 X69.9219Y60.1697
G1 X69.9354Y60.1520
G1 X69.9484Y60.1368
G1 X69.9753Y60.1090
G1 X70.0065Y60.0823
G1 X70.0371Y60.0606
G1 X70.0726Y60.0401
G1 X70.1088Y60.0234
G1 X70.1475Y60.0099
G1 X70.1885Y59.9998
G1 X70.2254Y59.9944
G1 X70.2486Y59.9926
G1 X70.2700Y59.9920
G1 X74.0400Y59.9920
G1 X74.0400Y24.0220
G1 X8.0980Y24.0220
G1 X8.0980Y24.9452
G1 X8.0974Y24.9643
G1 X8.0953Y24.9901
G1 X8.0918Y25.0143
G1 X8.0872Y25.0374
G1 X8.0801Y25.0645
G1 X8.0708Y25.0923
G1 X8.0605Y25.1173
G1 X8.0483Y25.1425
G1 X8.0337Y25.1680
G1 X8.0188Y25.1906
G1 X8.0019Y25.2128
G1 X7.9826Y25.2350
G1 X7.9636Y25.2542
G1 X7.9436Y25.2720
G1 X7.9203Y25.2901
G1 X7.9009Y25.3034
G1 X7.8739Y25.3195
G1 X7.8476Y25.3326
G1 X7.8260Y25.3419
G1 X7.7985Y25.3517
G1 X7.7668Y25.3604
G1 X7.7369Y25.3664
G1 X7.7042Y25.3704
G1 X7.6692Y25.3720
G1 X3.8980Y25.3720
G1 X3.8980Y26.0270
G1 X4.0433Y26.0270
G1 X4.0669Y25.9984
G1 X4.1520Y25.9046
G1 X4.1676Y25.8883
G1 X4.2755Y25.7899
G1 X4.3043Y25.7663
G1 X4.4216Y25.6798
G1 X4.4406Y25.6677
G1 X4.5485Y25.6030
G1 X4.5826Y25.5846
G1 X4.7105Y25.5244
G1 X4.7363Y25.5141
G1 X4.8717Y25.4661
G1 X4.8946Y25.4596
G1 X5.0335Y25.4253
G1 X5.0569Y25.4211
G1 X5.1990Y25.4004
G1 X5.2221Y25.3986
G1 X5.3638Y25.3920
G1 X64.3690Y25.3920
G1 X64.3913Y25.3926
G1 X64.4182Y25.3949
G1 X64.4553Y25.4008
G1 X64.4903Y25.4095
G1 X64.5269Y25.4221
G1 X64.5570Y25.4354
G1 X64.5860Y25.4509
G1 X64.6176Y25.4712
G1 X64.6445Y25.4920
G1 X64.6713Y25.5163
G1 X64.6975Y25.5447
G1 X64.7191Y25.5725
G1 X64.7401Y25.6050
G1 X64.7541Y25.6308
G1 X64.7685Y25.6630
G1 X64.7811Y25.6995
G1 X64.7900Y25.7346
G1 X64.7955Y25.7682
G1 X64.7979Y25.7928
G1 X64.7990Y25.8220
G1 X64.7990Y28.3620
G1 X64.7974Y28.3982
G1 X64.7932Y28.4317
G1 X67.2153Y30.8542
G1 X67.2283Y30.8681
G1 X67.2451Y30.8879
G1 X67.2591Y30.9065
G1 X67.2704Y30.9231
G1 X67.2819Y30.9420
G1 X67.2915Y30.9596
G1 X67.3015Y30.9806
G1 X67.3110Y31.0035
G1 X67.3224Y31.0380
G1 X67.3314Y31.0757
G1 X67.3366Y31.1114
G1 X67.3389Y31.1502
G1 X67.3390Y33.1883
G1 X67.3371Y33.2277
G1 X67.3312Y33.2695
G1 X67.3211Y33.3105
G1 X67.3071Y33.3503
G1 X67.2893Y33.3885
G1 X67.2678Y33.4248
G1 X67.2429Y33.4589
G1 X67.2278Y33.4765
G1 X67.2137Y33.4914
G1 X64.6646Y36.0403
G1 X64.6362Y36.0648
G1 X64.6048Y36.0875
G1 X64.5695Y36.1083
G1 X64.5369Y36.1238
G1 X64.4995Y36.1377
G1 X64.4644Y36.1472
G1 X64.4263Y36.1541
G1 X64.3904Y36.1574
G1 X64.3690Y36.1580
G1 X13.5690Y36.1580
G1 X13.5363Y36.1567
G1 X13.5152Y36.1545
G1 X13.4921Y36.1510
G1 X13.4555Y36.1427
G1 X13.4165Y36.1300
G1 X13.3799Y36.1141
G1 X13.3611Y36.1043
G1 X13.3440Y36.0943
G1 X13.3167Y36.0761
G1 X13.2864Y36.0520
G1 X13.2692Y36.0362
G1 X13.2544Y36.0210
G1 X13.2293Y35.9915
G1 X13.2076Y35.9609
G1 X13.1871Y35.9254
G1 X13.1695Y35.8870
G1 X13.1565Y35.8493
G1 X13.1466Y35.8083
G1 X13.1409Y35.7677
G1 X13.1390Y35.7283
G1 X13.1390Y33.1880
G1 X13.1401Y33.1588
G1 X13.1426Y33.1330
G1 X13.1485Y33.0983
G1 X13.1583Y33.0608
G1 X13.1704Y33.0268
G1 X13.1844Y32.9958
G1 X13.2027Y32.9630
G1 X13.2209Y32.9357
G1 X13.2443Y32.9063
G1 X13.2701Y32.8790
G1 X13.2981Y32.8541
G1 X13.3271Y32.8325
G1 X13.3601Y32.8122
G1 X13.3905Y32.7969
G1 X13.4198Y32.7848
G1 X13.4566Y32.7730
G1 X13.4921Y32.7650
G1 X13.5302Y32.7598
G1 X13.5690Y32.7580
G1 X63.9390Y32.7580
G1 X63.9390Y31.5860
G1 X13.5690Y31.5860
G1 X13.5467Y31.5854
G1 X13.5117Y31.5821
G1 X13.4736Y31.5752
G1 X13.4385Y31.5657
G1 X13.4011Y31.5518
G1 X13.3685Y31.5363
G1 X13.3351Y31.5168
G1 X13.3018Y31.4928
G1 X13.2760Y31.4706
G1 X13.2536Y31.4481
G1 X13.2286Y31.4186
G1 X13.2076Y31.3889
G1 X13.1881Y31.3555
G1 X13.1727Y31.3228
G1 X13.1593Y31.2865
G1 X13.1498Y31.2514
G1 X13.1431Y31.2145
G1 X13.1401Y31.1861
G1 X13.1390Y31.1563
G1 X13.1390Y28.7920
G1 X5.3679Y28.7920
G1 X5.2143Y28.7849
G1 X5.1816Y28.7814
G1 X5.0392Y28.7599
G1 X5.0160Y28.7548
G1 X4.8790Y28.7201
G1 X4.8548Y28.7123
G1 X4.7212Y28.6641
G1 X4.6992Y28.6545
G1 X4.5847Y28.6004
G1 X4.5505Y28.5822
G1 X4.4269Y28.5077
G1 X4.4065Y28.4935
G1 X4.2914Y28.4076
G1 X4.2742Y28.3929
G1 X4.1812Y28.3086
G1 X4.1639Y28.2920
G1 X4.0661Y28.1847
G1 X4.0434Y28.1571
G1 X3.8980Y28.1571
G1 X3.8980Y28.8120
G1 X3.8030Y28.9070
G1 X7.6703Y28.9070
G1 X7.6932Y28.9080
G1 X7.7125Y28.9101
G1 X7.7358Y28.9140
G1 X7.7562Y28.9189
G1 X7.7764Y28.9251
G1 X7.7985Y28.9335
G1 X7.8175Y28.9423
G1 X7.8362Y28.9524
G1 X7.8521Y28.9622
G1 X7.8712Y28.9758
G1 X7.8842Y28.9862
G1 X7.9014Y29.0018
G1 X7.9254Y29.0276
G1 X7.9398Y29.0463
G1 X7.9491Y29.0599
G1 X7.9611Y29.0799
G1 X7.9687Y29.0946
G1 X7.9784Y29.1161
G1 X7.9849Y29.1336
G1 X7.9899Y29.1494
G1 X7.9955Y29.1720
G1 X8.0011Y29.2067
G1 X8.0030Y29.2420
G1 X8.0030Y30.5920
G1 X8.0016Y30.6224
G1 X7.9970Y30.6549
G1 X7.9892Y30.6869
G1 X7.9793Y30.7157
G1 X7.9656Y30.7457
G1 X7.9491Y30.7741
G1 X7.9299Y30.8008
G1 X7.9130Y30.8203
G1 X7.8894Y30.8433
G1 X7.8712Y30.8582
G1 X7.8462Y30.8756
G1 X7.8154Y30.8927
G1 X7.7874Y30.9049
G1 X7.7562Y30.9151
G1 X7.7241Y30.9222
G1 X7.6932Y30.9260
G1 X7.6680Y30.9270
G1 X3.8030Y30.9270
G1 X3.8030Y67.0870
G1 X69.9350Y67.0870
G1 X69.9350Y66.0720
G1 X69.9359Y66.0486
G1 X69.9381Y66.0275
G1 X69.9410Y66.0090
G1 X69.9463Y65.9861
G1 X69.9509Y65.9702
G1 X69.9588Y65.9482
G1 X69.9653Y65.9330
G1 X69.9758Y65.9119
G1 X69.9942Y65.8819
G1 X70.0081Y65.8632
G1 X70.0187Y65.8506
G1 X70.0314Y65.8369
G1 X70.0486Y65.8207
G1 X70.0612Y65.8101
G1 X70.0800Y65.7962
G1 X70.0938Y65.7872
G1 X70.1143Y65.7755
G1 X70.1463Y65.7608
G1 X70.1682Y65.7529
G1 X70.1841Y65.7483
G1 X70.2071Y65.7430
G1 X70.2278Y65.7397
G1 X70.2466Y65.7379
G1 X70.2677Y65.7370
G1 X74.1350Y65.7370
G1 X74.1350Y64.8920
G1 X73.8469Y64.8920
G1 X73.8180Y64.9310
G1 X73.8062Y64.9456
G1 X73.7098Y65.0519
G1 X73.6934Y65.0679
G1 X73.6007Y65.1519
G1 X73.5803Y65.1689
G1 X73.4636Y65.2552
G1 X73.3404Y65.3297
G1 X73.3124Y65.3446
G1 X73.1987Y65.3984
G1 X73.1810Y65.4061
G1 X73.0515Y65.4527
G1 X73.0337Y65.4585
G1 X72.8992Y65.4926
G1 X72.8808Y65.4966
G1 X72.7296Y65.5190
G1 X72.7109Y65.5205
G1 X72.5732Y65.5270
G1 X13.5690Y65.5270
G1 X13.5403Y65.5257
G1 X13.5152Y65.5226
G1 X13.4921Y65.5180
G1 X13.4628Y65.5096
G1 X13.4386Y65.5005
G1 X13.4133Y65.4885
G1 X13.3869Y65.4731
G1 X13.3658Y65.4582
G1 X13.3476Y65.4433
G1 X13.3256Y65.4221
G1 X13.3071Y65.4008
G1 X13.2891Y65.3760
G1 X13.2748Y65.3521
G1 X13.2633Y65.3289
G1 X13.2521Y65.3004
G1 X13.2453Y65.2779
G1 X13.2396Y65.2527
G1 X13.2354Y65.2224
G1 X13.2340Y65.1920
G1 X13.2340Y62.6514
G1 X13.2351Y62.6251
G1 X13.2384Y62.5983
G1 X13.2425Y62.5774
G1 X13.2493Y62.5521
G1 X10.7917Y60.0945
G1 X10.7762Y60.0777
G1 X10.7628Y60.0612
G1 X10.7479Y60.0401
G1 X10.7348Y60.0181
G1 X10.7243Y59.9970
G1 X10.7178Y59.9817
G1 X10.7099Y59.9598
G1 X10.7053Y59.9439
G1 X10.7000Y59.9209
G1 X10.6971Y59.9025
G1 X10.6950Y59.8832
G1 X10.6941Y59.8632
G1 X10.6940Y57.8260
G1 X10.6954Y57.7956
G1 X10.6996Y57.7654
G1 X10.7053Y57.7401
G1 X10.7121Y57.7176
G1 X10.7233Y57.6891
G1 X10.7359Y57.6639
G1 X10.7519Y57.6379
G1 X10.7685Y57.6154
G1 X10.7876Y57.5937
G1 X13.3321Y55.0491
G1 X13.3546Y55.0286
G1 X13.3809Y55.0089
G1 X13.4089Y54.9918
G1 X13.4364Y54.9784
G1 X13.4672Y54.9669
G1 X13.4944Y54.9595
G1 X13.5245Y54.9541
G1 X13.5526Y54.9514
G1 X64.3690Y54.9510
G1 X64.3976Y54.9523
G1 X64.4296Y54.9566
G1 X64.4616Y54.9641
G1 X64.4927Y54.9747
G1 X64.5164Y54.9853
G1 X64.5452Y55.0012
G1 X64.5647Y55.0142
G1 X64.5887Y55.0332
G1 X64.6140Y55.0576
G1 X64.6309Y55.0772
G1 X64.6501Y55.1039
G1 X64.6666Y55.1323
G1 X64.6802Y55.1622
G1 X64.6902Y55.1911
G1 X64.6980Y55.2230
G1 X64.7026Y55.2556
G1 X64.7040Y55.2860
G1 X64.7040Y57.8260
G1 X64.7021Y57.8613
G1 X64.6980Y57.8890
G1 X64.6909Y57.9187
G1 X64.6802Y57.9498
G1 X64.6697Y57.9734
G1 X64.6586Y57.9942
G1 X64.6421Y58.0199
G1 X64.6248Y58.0422
G1 X64.6041Y58.0646
G1 X64.5834Y58.0834
G1 X64.5590Y58.1018
G1 X64.5311Y58.1191
G1 X64.5080Y58.1307
G1 X64.4862Y58.1397
G1 X64.4571Y58.1491
G1 X64.4296Y58.1554
G1 X64.3994Y58.1596
G1 X64.3690Y58.1610
G1 X13.9040Y58.1610
G1 X13.9040Y59.5230
G1 X64.3854Y59.5234
G1 X64.4135Y59.5261
G1 X64.4436Y59.5315
G1 X64.4708Y59.5389
G1 X64.4994Y59.5495
G1 X64.5247Y59.5615
G1 X64.5530Y59.5781
G1 X64.5778Y59.5961
G1 X64.5991Y59.6146
G1 X64.6203Y59.6366
G1 X64.6352Y59.6548
G1 X64.6526Y59.6798
G1 X64.6687Y59.7085
G1 X64.6802Y59.7342
G1 X64.6902Y59.7631
G1 X64.6970Y59.7902
G1 X64.7018Y59.8204
G1 X64.7036Y59.8416
G1 X64.7040Y59.8580
G1 X64.7040Y62.3170
G1 X72.5700Y62.3170
G1 X72.7162Y62.3238
G1 X72.7431Y62.3267
G1 X72.8808Y62.3474
G1 X72.8992Y62.3514
G1 X73.0337Y62.3855
G1 X73.0515Y62.3913
G1 X73.1863Y62.4401
G1 X73.3119Y62.4991
G1 X73.3317Y62.5093
G1 X73.4478Y62.5787
G1 X73.4636Y62.5888
G1 X73.5757Y62.6716
G1 X73.5936Y62.6858
G1 X73.6934Y62.7761
G1 X73.7115Y62.7939
G1 X73.8062Y62.8984
G1 X73.8180Y62.9130
G1 X73.8469Y62.9519
G1 X74.1350Y62.9520
G1 X74.1350Y62.1070
G1 X70.2653Y62.1070
G1 X70.2396Y62.1056
G1 X70.2163Y62.1026
G1 X70.1954Y62.0985
G1 X70.1751Y62.0932
G1 X70.1528Y62.0857
G1 X70.1332Y62.0777
G1 X70.1143Y62.0685
G1 X70.0938Y62.0568
G1 X70.0800Y62.0478
G1 X70.0612Y62.0339
G1 X70.0349Y62.0106
G1 X70.0095Y61.9826
G1 X69.9969Y61.9659
G1 X69.9864Y61.9502
G1 X69.9693Y61.9194
G1 X69.9596Y61.8979
G1 X69.9524Y61.8782
G1 X69.9469Y61.8602
G1 X69.9420Y61.8398
G1 X69.9364Y61.8024
G1 X69.9350Y61.7720
G1 X69.9350Y60.4220
G1 X69.9364Y60.3916
G1 X69.9410Y60.3590
G1 X69.9488Y60.3271
G1 X69.9588Y60.2982
G1 X69.9724Y60.2683
G1 X69.9889Y60.2399
G1 X70.0081Y60.2132
G1 X70.0250Y60.1936
G1 X70.0503Y60.1692
G1 X70.0743Y60.1502
G1 X70.0938Y60.1372
G1 X70.1226Y60.1213
G1 X70.1506Y60.1091
G1 X70.1819Y60.0989
G1 X70.2140Y60.0918
G1 X70.2448Y60.0880
G1 X70.2700Y60.0870
G1 X74.1350Y60.0870
G1 X74.1350Y23.9270
G1 X8.0030Y23.9270
G1 X8.0030Y24.9426
G1 X8.0016Y24.9724
G1 X7.9974Y25.0026
G1 X7.9917Y25.0279
G1 X7.9856Y25.0482
G1 X7.9784Y25.0679
G1 X7.9687Y25.0894
G1 X7.9588Y25.1081
G1 X7.9479Y25.1260
G1 X7.9342Y25.1452
G1 X7.9208Y25.1617
G1 X7.9066Y25.1771
G1 X7.8877Y25.1948
G1 X7.8712Y25.2082
G1 X7.8521Y25.2218
G1 X7.8342Y25.2328
G1 X7.8154Y25.2427
G1 X7.7939Y25.2524
G1 X7.7698Y25.2611
G1 X7.7449Y25.2680
G1 X7.7218Y25.2726
G1 X7.6967Y25.2757
G1 X7.6686Y25.2770
G1 X3.8030Y25.2770
G1 X3.8030Y26.1220
G1 X4.0911Y26.1220
G1 X4.1200Y26.0830
G1 X4.1318Y26.0684
G1 X4.2282Y25.9621
G1 X4.2446Y25.9461
G1 X4.3373Y25.8621
G1 X4.3577Y25.8451
G1 X4.4744Y25.7588
G1 X4.5976Y25.6843
G1 X4.6256Y25.6694
G1 X4.7393Y25.6156
G1 X4.7570Y25.6079
G1 X4.8865Y25.5613
G1 X4.9043Y25.5555
G1 X5.0388Y25.5214
G1 X5.0572Y25.5174
G1 X5.2084Y25.4950
G1 X5.2271Y25.4935
G1 X5.3648Y25.4870
G1 X64.3690Y25.4870
G1 X64.3924Y25.4879
G1 X64.4112Y25.4897
G1 X64.4367Y25.4940
G1 X64.4639Y25.5008
G1 X64.4927Y25.5108
G1 X64.5185Y25.5223
G1 X64.5452Y25.5372
G1 X64.5647Y25.5502
G1 X64.5852Y25.5661
G1 X64.6092Y25.5886
G1 X64.6295Y25.6114
G1 X64.6461Y25.6339
G1 X64.6621Y25.6599
G1 X64.6737Y25.6830
G1 X64.6827Y25.7048
G1 X64.6921Y25.7339
G1 X64.6984Y25.7614
G1 X64.7026Y25.7916
G1 X64.7040Y25.8220
G1 X64.7040Y28.3626
G1 X64.7027Y28.3906
G1 X64.6996Y28.4157
G1 X64.6955Y28.4366
G1 X64.6887Y28.4619
G1 X67.1463Y30.9195
G1 X67.1618Y30.9363
G1 X67.1752Y30.9528
G1 X67.1901Y30.9739
G1 X67.2032Y30.9959
G1 X67.2194Y31.0301
G1 X67.2266Y31.0498
G1 X67.2321Y31.0678
G1 X67.2370Y31.0882
G1 X67.2409Y31.1115
G1 X67.2430Y31.1308
G1 X67.2439Y31.1496
G1 X67.2440Y33.1880
G1 X67.2426Y33.2184
G1 X67.2380Y33.2509
G1 X67.2302Y33.2829
G1 X67.2194Y33.3139
G1 X67.2055Y33.3437
G1 X67.1888Y33.3721
G1 X67.1695Y33.3986
G1 X67.1459Y33.4249
G1 X64.6009Y35.9698
G1 X64.5778Y35.9899
G1 X64.5530Y36.0079
G1 X64.5291Y36.0222
G1 X64.5016Y36.0356
G1 X64.4708Y36.0471
G1 X64.4436Y36.0545
G1 X64.4135Y36.0599
G1 X64.3854Y36.0626
G1 X13.5690Y36.0630
G1 X13.5404Y36.0617
G1 X13.5084Y36.0574
G1 X13.4764Y36.0499
G1 X13.4453Y36.0392
G1 X13.4216Y36.0287
G1 X13.3928Y36.0128
G1 X13.3733Y35.9998
G1 X13.3493Y35.9808
G1 X13.3240Y35.9563
G1 X13.3071Y35.9368
G1 X13.2879Y35.9101
G1 X13.2714Y35.8817
G1 X13.2578Y35.8517
G1 X13.2478Y35.8229
G1 X13.2400Y35.7909
G1 X13.2354Y35.7584
G1 X13.2340Y35.7280
G1 X13.2340Y33.1880
G1 X13.2359Y33.1527
G1 X13.2400Y33.1251
G1 X13.2471Y33.0954
G1 X13.2578Y33.0643
G1 X13.2683Y33.0406
G1 X13.2794Y33.0198
G1 X13.2959Y32.9941
G1 X13.3131Y32.9718
G1 X13.3339Y32.9494
G1 X13.3546Y32.9306
G1 X13.3790Y32.9122
G1 X13.4069Y32.8949
G1 X13.4300Y32.8833
G1 X13.4518Y32.8743
G1 X13.4809Y32.8649
G1 X13.5084Y32.8586
G1 X13.5386Y32.8544
G1 X13.5690Y32.8530
G1 X64.0340Y32.8530
G1 X64.0340Y31.4910
G1 X13.5526Y31.4906
G1 X13.5245Y31.4879
G1 X13.4944Y31.4825
G1 X13.4672Y31.4751
G1 X13.4385Y31.4645
G1 X13.4133Y31.4525
G1 X13.3849Y31.4358
G1 X13.3602Y31.4179
G1 X13.3389Y31.3994
G1 X13.3162Y31.3757
G1 X13.2972Y31.3517
G1 X13.2842Y31.3322
G1 X13.2693Y31.3055
G1 X13.2577Y31.2797
G1 X13.2478Y31.2509
G1 X13.2410Y31.2237
G1 X13.2362Y31.1936
G1 X13.2344Y31.1724
G1 X13.2340Y31.1560
G1 X13.2340Y28.6970
G1 X5.3680Y28.6970
G1 X5.2218Y28.6902
G1 X5.1949Y28.6873
G1 X5.0572Y28.6666
G1 X5.0388Y28.6626
G1 X4.9043Y28.6285
G1 X4.8865Y28.6227
G1 X4.7517Y28.5739
G1 X4.6261Y28.5149
G1 X4.6063Y28.5047
G1 X4.4902Y28.4353
G1 X4.4744Y28.4252
G1 X4.3623Y28.3424
G1 X4.3444Y28.3282
G1 X4.2446Y28.2379
G1 X4.2265Y28.2201
G1 X4.1318Y28.1156
G1 X4.1200Y28.1010
G1 X4.0911Y28.0621
G1 X3.8030Y28.0620
G1 X3.8030Y28.9070
G1 X3.7080Y29.0020
G1 X7.6692Y29.0020
G1 X7.6986Y29.0040
G1 X7.7172Y29.0072
G1 X7.7353Y29.0117
G1 X7.7532Y29.0177
G1 X7.7664Y29.0232
G1 X7.7790Y29.0292
G1 X7.7953Y29.0386
G1 X7.8183Y29.0550
G1 X7.8394Y29.0741
G1 X7.8550Y29.0917
G1 X7.8714Y29.1147
G1 X7.8785Y29.1267
G1 X7.8868Y29.1437
G1 X7.8969Y29.1700
G1 X7.9038Y29.1976
G1 X7.9073Y29.2244
G1 X7.9080Y29.2420
G1 X7.9080Y30.5920
G1 X7.9070Y30.6131
G1 X7.9038Y30.6364
G1 X7.8983Y30.6593
G1 X7.8906Y30.6816
G1 X7.8808Y30.7029
G1 X7.8689Y30.7233
G1 X7.8550Y30.7423
G1 X7.8394Y30.7599
G1 X7.8221Y30.7759
G1 X7.8033Y30.7901
G1 X7.7833Y30.8024
G1 X7.7664Y30.8108
G1 X7.7444Y30.8194
G1 X7.7218Y30.8258
G1 X7.6986Y30.8300
G1 X7.6786Y30.8317
G1 X3.7080Y30.8320
G1 X3.7080Y67.1820
G1 X70.0300Y67.1820
G1 X70.0300Y66.0720
G1 X70.0310Y66.0509
G1 X70.0352Y66.0228
G1 X70.0426Y65.9956
G1 X70.0474Y65.9824
G1 X70.0551Y65.9652
G1 X70.0691Y65.9407
G1 X70.0861Y65.9179
G1 X70.1055Y65.8974
G1 X70.1234Y65.8821
G1 X70.1347Y65.8739
G1 X70.1507Y65.8638
G1 X70.1632Y65.8571
G1 X70.1804Y65.8494
G1 X70.2072Y65.8404
G1 X70.2256Y65.8362
G1 X70.2394Y65.8340
G1 X70.2688Y65.8320
G1 X74.2300Y65.8320
G1 X74.2300Y64.7970
G1 X73.7991Y64.7970
G1 X73.7357Y64.8817
G1 X73.6451Y64.9821
G1 X73.6301Y64.9971
G1 X73.5342Y65.0839
G1 X73.5186Y65.0965
G1 X73.4108Y65.1762
G1 X73.2921Y65.2479
G1 X73.2777Y65.2558
G1 X73.1576Y65.3128
G1 X73.1369Y65.3213
G1 X73.0061Y65.3676
G1 X72.8761Y65.4004
G1 X72.8530Y65.4050
G1 X72.7203Y65.4245
G1 X72.5723Y65.4320
G1 X13.5690Y65.4320
G1 X13.5479Y65.4310
G1 X13.5292Y65.4286
G1 X13.5152Y65.4258
G1 X13.4926Y65.4194
G1 X13.4749Y65.4127
G1 X13.4537Y65.4025
G1 X13.4337Y65.3901
G1 X13.4187Y65.3790
G1 X13.4011Y65.3634
G1 X13.3881Y65.3496
G1 X13.3735Y65.3312
G1 X13.3656Y65.3193
G1 X13.3562Y65.3029
G1 X13.3464Y65.2816
G1 X13.3401Y65.2640
G1 X13.3342Y65.2412
G1 X13.3310Y65.2226
G1 X13.3293Y65.2026
G1 X13.3290Y62.6485
G1 X13.3300Y62.6309
G1 X13.3324Y62.6122
G1 X13.3387Y62.5847
G1 X13.3483Y62.5579
G1 X13.3562Y62.5411
G1 X13.3621Y62.5305
G1 X10.8593Y60.0277
G1 X10.8391Y60.0046
G1 X10.8281Y59.9893
G1 X10.8186Y59.9733
G1 X10.8064Y59.9476
G1 X10.7974Y59.9208
G1 X10.7932Y59.9024
G1 X10.7910Y59.8886
G1 X10.7890Y59.8615
G1 X10.7890Y57.8260
G1 X10.7900Y57.8049
G1 X10.7932Y57.7816
G1 X10.7974Y57.7632
G1 X10.8016Y57.7496
G1 X10.8102Y57.7276
G1 X10.8186Y57.7107
G1 X10.8309Y57.6907
G1 X10.8420Y57.6757
G1 X10.8568Y57.6588
G1 X13.3993Y55.1163
G1 X13.4149Y55.1021
G1 X13.4337Y55.0879
G1 X13.4537Y55.0756
G1 X13.4749Y55.0653
G1 X13.4970Y55.0571
G1 X13.5152Y55.0522
G1 X13.5384Y55.0480
G1 X13.5584Y55.0463
G1 X64.3690Y55.0460
G1 X64.3901Y55.0470
G1 X64.4134Y55.0502
G1 X64.4363Y55.0557
G1 X64.4586Y55.0634
G1 X64.4758Y55.0711
G1 X64.4963Y55.0826
G1 X64.5082Y55.0905
G1 X64.5266Y55.1051
G1 X64.5436Y55.1214
G1 X64.5560Y55.1357
G1 X64.5699Y55.1547
G1 X64.5818Y55.1750
G1 X64.5916Y55.1964
G1 X64.5993Y55.2187
G1 X64.6048Y55.2416
G1 X64.6080Y55.2649
G1 X64.6090Y55.2860
G1 X64.6090Y57.8260
G1 X64.6083Y57.8436
G1 X64.6056Y57.8658
G1 X64.6006Y57.8888
G1 X64.5964Y57.9024
G1 X64.5878Y57.9244
G1 X64.5794Y57.9413
G1 X64.5671Y57.9613
G1 X64.5560Y57.9763
G1 X64.5404Y57.9939
G1 X64.5231Y58.0099
G1 X64.5043Y58.0241
G1 X64.4843Y58.0365
G1 X64.4673Y58.0448
G1 X64.4454Y58.0534
G1 X64.4318Y58.0576
G1 X64.4134Y58.0618
G1 X64.3901Y58.0650
G1 X64.3690Y58.0660
G1 X13.8090Y58.0660
G1 X13.8090Y59.6180
G1 X64.3796Y59.6183
G1 X64.3996Y59.6200
G1 X64.4228Y59.6242
G1 X64.4410Y59.6291
G1 X64.4631Y59.6373
G1 X64.4843Y59.6475
G1 X64.5043Y59.6599
G1 X64.5193Y59.6710
G1 X64.5369Y59.6866
G1 X64.5529Y59.7039
G1 X64.5645Y59.7188
G1 X64.5724Y59.7307
G1 X64.5839Y59.7512
G1 X64.5916Y59.7684
G1 X64.5993Y59.7907
G1 X64.6048Y59.8136
G1 X64.6080Y59.8369
G1 X64.6090Y59.8580
G1 X64.6085Y62.4120
G1 X72.5700Y62.4120
G1 X72.7097Y62.4186
G1 X72.7297Y62.4207
G1 X72.8623Y62.4406
G1 X73.0061Y62.4764
G1 X73.1500Y62.5279
G1 X73.2713Y62.5850
G1 X73.2890Y62.5943
G1 X73.4108Y62.6678
G1 X73.5186Y62.7475
G1 X73.5360Y62.7617
G1 X73.6301Y62.8469
G1 X73.6451Y62.8619
G1 X73.7357Y62.9623
G1 X73.7990Y63.0469
G1 X74.2300Y63.0470
G1 X74.2300Y62.0120
G1 X70.2688Y62.0120
G1 X70.2394Y62.0100
G1 X70.2208Y62.0069
G1 X70.2027Y62.0023
G1 X70.1848Y61.9963
G1 X70.1717Y61.9908
G1 X70.1591Y61.9848
G1 X70.1427Y61.9754
G1 X70.1197Y61.9590
G1 X70.0986Y61.9399
G1 X70.0830Y61.9223
G1 X70.0666Y61.8993
G1 X70.0596Y61.8873
G1 X70.0512Y61.8704
G1 X70.0411Y61.8440
G1 X70.0342Y61.8164
G1 X70.0307Y61.7896
G1 X70.0300Y61.7720
G1 X70.0300Y60.4220
G1 X70.0310Y60.4009
G1 X70.0342Y60.3776
G1 X70.0397Y60.3547
G1 X70.0474Y60.3324
G1 X70.0572Y60.3110
G1 X70.0691Y60.2907
G1 X70.0830Y60.2717
G1 X70.0986Y60.2541
G1 X70.1159Y60.2381
G1 X70.1347Y60.2239
G1 X70.1547Y60.2115
G1 X70.1717Y60.2032
G1 X70.1936Y60.1946
G1 X70.2162Y60.1882
G1 X70.2394Y60.1840
G1 X70.2594Y60.1823
G1 X74.2300Y60.1820
G1 X74.2300Y23.8320
G1 X7.9080Y23.8320
G1 X7.9080Y24.9420
G1 X7.9060Y24.9726
G1 X7.9038Y24.9864
G1 X7.8996Y25.0048
G1 X7.8954Y25.0184
G1 X7.8887Y25.0361
G1 X7.8808Y25.0529
G1 X7.8714Y25.0693
G1 X7.8635Y25.0812
G1 X7.8519Y25.0961
G1 X7.8394Y25.1099
G1 X7.8256Y25.1229
G1 X7.8033Y25.1401
G1 X7.7873Y25.1501
G1 X7.7748Y25.1569
G1 X7.7576Y25.1646
G1 X7.7400Y25.1709
G1 X7.7218Y25.1758
G1 X7.7078Y25.1786
G1 X7.6891Y25.1810
G1 X7.6680Y25.1820
G1 X3.7080Y25.1820
G1 X3.7080Y26.2170
G1 X4.1389Y26.2170
G1 X4.2023Y26.1323
G1 X4.2929Y26.0319
G1 X4.3079Y26.0169
G1 X4.4038Y25.9301
G1 X4.4194Y25.9175
G1 X4.5272Y25.8378
G1 X4.6459Y25.7661
G1 X4.6603Y25.7582
G1 X4.7804Y25.7012
G1 X4.8011Y25.6927
G1 X4.9274Y25.6477
G1 X5.0619Y25.6136
G1 X5.0850Y25.6090
G1 X5.2177Y25.5895
G1 X5.3657Y25.5820
G1 X64.3690Y25.5820
G1 X64.3996Y25.5840
G1 X64.4182Y25.5871
G1 X64.4410Y25.5931
G1 X64.4586Y25.5994
G1 X64.4799Y25.6092
G1 X64.5003Y25.6211
G1 X64.5156Y25.6321
G1 X64.5266Y25.6411
G1 X64.5436Y25.6574
G1 X64.5560Y25.6717
G1 X64.5699Y25.6907
G1 X64.5818Y25.7111
G1 X64.5897Y25.7279
G1 X64.5979Y25.7500
G1 X64.6028Y25.7682
G1 X64.6070Y25.7914
G1 X64.6087Y25.8114
G1 X64.6090Y28.3655
G1 X64.6080Y28.3831
G1 X64.6056Y28.4018
G1 X64.5993Y28.4293
G1 X64.5897Y28.4561
G1 X64.5818Y28.4729
G1 X64.5759Y28.4835
G1 X67.0787Y30.9863
G1 X67.0989Y31.0093
G1 X67.1099Y31.0247
G1 X67.1194Y31.0407
G1 X67.1316Y31.0664
G1 X67.1406Y31.0932
G1 X67.1439Y31.1068
G1 X67.1470Y31.1254
G1 X67.1490Y31.1525
G1 X67.1490Y33.1880
G1 X67.1480Y33.2091
G1 X67.1448Y33.2324
G1 X67.1393Y33.2553
G1 X67.1316Y33.2776
G1 X67.1218Y33.2989
G1 X67.1099Y33.3193
G1 X67.0960Y33.3383
G1 X67.0787Y33.3577
G1 X64.5362Y35.9002
G1 X64.5193Y35.9150
G1 X64.5003Y35.9289
G1 X64.4799Y35.9408
G1 X64.4631Y35.9487
G1 X64.4410Y35.9569
G1 X64.4228Y35.9618
G1 X64.3996Y35.9660
G1 X64.3796Y35.9677
G1 X13.5690Y35.9680
G1 X13.5479Y35.9670
G1 X13.5246Y35.9638
G1 X13.5017Y35.9583
G1 X13.4794Y35.9506
G1 X13.4622Y35.9429
G1 X13.4417Y35.9314
G1 X13.4298Y35.9235
G1 X13.4114Y35.9089
G1 X13.3944Y35.8926
G1 X13.3820Y35.8783
G1 X13.3681Y35.8593
G1 X13.3562Y35.8389
G1 X13.3464Y35.8176
G1 X13.3387Y35.7953
G1 X13.3332Y35.7724
G1 X13.3300Y35.7491
G1 X13.3290Y35.7280
G1 X13.3290Y33.1880
G1 X13.3297Y33.1704
G1 X13.3324Y33.1482
G1 X13.3374Y33.1252
G1 X13.3416Y33.1116
G1 X13.3502Y33.0897
G1 X13.3585Y33.0727
G1 X13.3709Y33.0527
G1 X13.3851Y33.0339
G1 X13.3976Y33.0201
G1 X13.4149Y33.0041
G1 X13.4337Y32.9899
G1 X13.4537Y32.9775
G1 X13.4707Y32.9692
G1 X13.4838Y32.9637
G1 X13.5062Y32.9564
G1 X13.5246Y32.9522
G1 X13.5479Y32.9490
G1 X13.5690Y32.9480
G1 X64.1290Y32.9480
G1 X64.1290Y31.3960
G1 X13.5584Y31.3957
G1 X13.5384Y31.3940
G1 X13.5152Y31.3898
G1 X13.4970Y31.3849
G1 X13.4749Y31.3767
G1 X13.4580Y31.3688
G1 X13.4377Y31.3569
G1 X13.4187Y31.3430
G1 X13.4011Y31.3274
G1 X13.3851Y31.3101
G1 X13.3735Y31.2952
G1 X13.3608Y31.2753
G1 X13.3541Y31.2628
G1 X13.3464Y31.2456
G1 X13.3387Y31.2233
G1 X13.3332Y31.2004
G1 X13.3300Y31.1771
G1 X13.3290Y31.1560
G1 X13.3294Y28.6020
G1 X5.3680Y28.6020
G1 X5.2282Y28.5954
G1 X5.2083Y28.5933
G1 X5.0757Y28.5734
G1 X4.9274Y28.5363
G1 X4.7880Y28.4861
G1 X4.6667Y28.4290
G1 X4.6490Y28.4197
G1 X4.5272Y28.3462
G1 X4.4194Y28.2665
G1 X4.4020Y28.2523
G1 X4.3079Y28.1671
G1 X4.2929Y28.1521
G1 X4.2023Y28.0517
G1 X4.1390Y27.9671
G1 X3.7080Y27.9670
G1 X3.7080Y29.0020
G1 X3.6130Y29.0970
G1 X7.6680Y29.0970
G1 X7.6847Y29.0980
G1 X7.7077Y29.1026
G1 X7.7257Y29.1090
G1 X7.7465Y29.1201
G1 X7.7618Y29.1315
G1 X7.7722Y29.1412
G1 X7.7816Y29.1520
G1 X7.7947Y29.1715
G1 X7.8028Y29.1888
G1 X7.8074Y29.2023
G1 X7.8106Y29.2161
G1 X7.8129Y29.2372
G1 X7.8130Y30.5920
G1 X7.8125Y30.6038
G1 X7.8106Y30.6179
G1 X7.8074Y30.6317
G1 X7.8028Y30.6452
G1 X7.7970Y30.6582
G1 X7.7899Y30.6705
G1 X7.7816Y30.6820
G1 X7.7722Y30.6928
G1 X7.7618Y30.7025
G1 X7.7506Y30.7111
G1 X7.7385Y30.7187
G1 X7.7257Y30.7250
G1 X7.7124Y30.7300
G1 X7.6987Y30.7337
G1 X7.6847Y30.7360
G1 X7.6728Y30.7369
G1 X3.6130Y30.7370
G1 X3.6130Y67.2770
G1 X70.1250Y67.2770
G1 X70.1251Y66.0672
G1 X70.1274Y66.0461
G1 X70.1306Y66.0323
G1 X70.1352Y66.0188
G1 X70.1433Y66.0015
G1 X70.1509Y65.9894
G1 X70.1658Y65.9712
G1 X70.1799Y65.9584
G1 X70.1915Y65.9501
G1 X70.2123Y65.9390
G1 X70.2303Y65.9326
G1 X70.2534Y65.9280
G1 X70.2700Y65.9270
G1 X74.3250Y65.9270
G1 X74.3250Y64.7020
G1 X73.7504Y64.7020
G1 X73.7424Y64.7140
G1 X73.6653Y64.8178
G1 X73.5755Y64.9174
G1 X73.5654Y64.9275
G1 X73.4694Y65.0143
G1 X73.3620Y65.0944
G1 X73.3501Y65.1023
G1 X73.2391Y65.1688
G1 X73.1093Y65.2302
G1 X72.9875Y65.2738
G1 X72.9739Y65.2780
G1 X72.8483Y65.3093
G1 X72.7158Y65.3293
G1 X72.7016Y65.3307
G1 X72.5712Y65.3370
G1 X13.5690Y65.3370
G1 X13.5572Y65.3365
G1 X13.5431Y65.3346
G1 X13.5293Y65.3314
G1 X13.5158Y65.3268
G1 X13.4985Y65.3187
G1 X13.4864Y65.3112
G1 X13.4752Y65.3025
G1 X13.4585Y65.2858
G1 X13.4499Y65.2746
G1 X13.4423Y65.2625
G1 X13.4342Y65.2452
G1 X13.4273Y65.2227
G1 X13.4250Y65.2087
G1 X13.4240Y65.1943
G1 X13.4241Y62.6472
G1 X13.4264Y62.6261
G1 X13.4310Y62.6076
G1 X13.4360Y62.5943
G1 X13.4471Y62.5735
G1 X13.4585Y62.5582
G1 X13.4682Y62.5478
G1 X13.4864Y62.5328
G1 X13.4991Y62.5250
G1 X13.4789Y62.5116
G1 X13.4665Y62.5005
G1 X10.9265Y59.9605
G1 X10.9154Y59.9481
G1 X10.9023Y59.9285
G1 X10.8942Y59.9112
G1 X10.8896Y59.8977
G1 X10.8850Y59.8746
G1 X10.8840Y59.8580
G1 X10.8840Y57.8260
G1 X10.8845Y57.8142
G1 X10.8873Y57.7953
G1 X10.8910Y57.7816
G1 X10.8960Y57.7683
G1 X10.9023Y57.7555
G1 X10.9099Y57.7434
G1 X10.9185Y57.7322
G1 X10.9265Y57.7235
G1 X13.4665Y55.1835
G1 X13.4752Y55.1755
G1 X13.4864Y55.1669
G1 X13.4985Y55.1593
G1 X13.5113Y55.1530
G1 X13.5246Y55.1480
G1 X13.5383Y55.1443
G1 X13.5524Y55.1420
G1 X13.5642Y55.1411
G1 X64.3690Y55.1410
G1 X64.3808Y55.1415
G1 X64.3997Y55.1443
G1 X64.4134Y55.1480
G1 X64.4267Y55.1530
G1 X64.4395Y55.1593
G1 X64.4516Y55.1668
G1 X64.4628Y55.1755
G1 X64.4732Y55.1852
G1 X64.4826Y55.1959
G1 X64.4909Y55.2075
G1 X64.4980Y55.2198
G1 X64.5038Y55.2328
G1 X64.5084Y55.2463
G1 X64.5116Y55.2601
G1 X64.5135Y55.2742
G1 X64.5140Y55.2860
G1 X64.5139Y57.8308
G1 X64.5130Y57.8427
G1 X64.5107Y57.8567
G1 X64.5070Y57.8704
G1 X64.5020Y57.8837
G1 X64.4957Y57.8965
G1 X64.4881Y57.9086
G1 X64.4732Y57.9268
G1 X64.4628Y57.9365
G1 X64.4516Y57.9452
G1 X64.4395Y57.9527
G1 X64.4267Y57.9590
G1 X64.4087Y57.9654
G1 X64.3949Y57.9686
G1 X64.3808Y57.9705
G1 X64.3690Y57.9710
G1 X13.7140Y57.9710
G1 X13.7140Y59.7130
G1 X64.3738Y59.7131
G1 X64.3856Y59.7140
G1 X64.3997Y59.7163
G1 X64.4134Y59.7200
G1 X64.4267Y59.7250
G1 X64.4395Y59.7313
G1 X64.4516Y59.7388
G1 X64.4628Y59.7475
G1 X64.4732Y59.7572
G1 X64.4881Y59.7754
G1 X64.4957Y59.7875
G1 X64.5020Y59.8003
G1 X64.5070Y59.8136
G1 X64.5107Y59.8273
G1 X64.5130Y59.8413
G1 X64.5139Y59.8532
G1 X64.5140Y62.4003
G1 X64.5130Y62.4147
G1 X64.5107Y62.4287
G1 X64.5070Y62.4424
G1 X64.5020Y62.4557
G1 X64.4957Y62.4685
G1 X64.4881Y62.4806
G1 X64.4795Y62.4918
G1 X64.4645Y62.5070
G1 X72.5700Y62.5070
G1 X72.7039Y62.5134
G1 X72.8483Y62.5347
G1 X72.9739Y62.5660
G1 X72.9875Y62.5702
G1 X73.1136Y62.6156
G1 X73.2307Y62.6709
G1 X73.2432Y62.6776
G1 X73.3501Y62.7417
G1 X73.3620Y62.7496
G1 X73.4658Y62.8267
G1 X73.5722Y62.9231
G1 X73.6653Y63.0262
G1 X73.7424Y63.1300
G1 X73.7504Y63.1420
G1 X74.3250Y63.1420
G1 X74.3250Y61.9170
G1 X70.2700Y61.9170
G1 X70.2534Y61.9160
G1 X70.2303Y61.9114
G1 X70.2123Y61.9050
G1 X70.1915Y61.8939
G1 X70.1800Y61.8856
G1 X70.1658Y61.8728
G1 X70.1509Y61.8546
G1 X70.1433Y61.8425
G1 X70.1352Y61.8252
G1 X70.1306Y61.8117
G1 X70.1274Y61.7979
G1 X70.1251Y61.7768
G1 X70.1250Y60.4220
G1 X70.1255Y60.4102
G1 X70.1274Y60.3961
G1 X70.1306Y60.3823
G1 X70.1352Y60.3688
G1 X70.1410Y60.3558
G1 X70.1481Y60.3435
G1 X70.1564Y60.3319
G1 X70.1658Y60.3212
G1 X70.1762Y60.3115
G1 X70.1874Y60.3028
G1 X70.1995Y60.2953
G1 X70.2123Y60.2890
G1 X70.2256Y60.2840
G1 X70.2393Y60.2803
G1 X70.2534Y60.2780
G1 X70.2652Y60.2771
G1 X74.3250Y60.2770
G1 X74.3250Y23.7370
G1 X7.8130Y23.7370
G1 X7.8130Y24.9420
G1 X7.8125Y24.9538
G1 X7.8097Y24.9727
G1 X7.8028Y24.9952
G1 X7.7947Y25.0125
G1 X7.7816Y25.0320
G1 X7.7688Y25.0462
G1 X7.7506Y25.0611
G1 X7.7342Y25.0710
G1 X7.7124Y25.0800
G1 X7.6939Y25.0846
G1 X7.6798Y25.0865
G1 X7.6680Y25.0870
G1 X3.6130Y25.0870
G1 X3.6130Y26.3120
G1 X4.1876Y26.3120
G1 X4.1956Y26.3000
G1 X4.2727Y26.1962
G1 X4.3625Y26.0966
G1 X4.3726Y26.0865
G1 X4.4685Y25.9997
G1 X4.5760Y25.9196
G1 X4.5879Y25.9117
G1 X4.6989Y25.8452
G1 X4.8287Y25.7838
G1 X4.9505Y25.7402
G1 X4.9641Y25.7360
G1 X5.0897Y25.7047
G1 X5.2222Y25.6847
G1 X5.2364Y25.6833
G1 X5.3668Y25.6770
G1 X64.3690Y25.6770
G1 X64.3856Y25.6780
G1 X64.4087Y25.6826
G1 X64.4222Y25.6872
G1 X64.4352Y25.6930
G1 X64.4475Y25.7001
G1 X64.4591Y25.7084
G1 X64.4698Y25.7178
G1 X64.4795Y25.7282
G1 X64.4882Y25.7394
G1 X64.4957Y25.7515
G1 X64.5038Y25.7688
G1 X64.5107Y25.7913
G1 X64.5130Y25.8054
G1 X64.5140Y25.8197
G1 X64.5139Y28.3668
G1 X64.5116Y28.3879
G1 X64.5070Y28.4064
G1 X64.4980Y28.4282
G1 X64.4909Y28.4405
G1 X64.4826Y28.4521
G1 X64.4698Y28.4662
G1 X64.4516Y28.4812
G1 X64.4389Y28.4890
G1 X64.4591Y28.5024
G1 X64.4715Y28.5135
G1 X67.0115Y31.0535
G1 X67.0226Y31.0659
G1 X67.0357Y31.0855
G1 X67.0420Y31.0983
G1 X67.0484Y31.1163
G1 X67.0530Y31.1394
G1 X67.0540Y31.1560
G1 X67.0540Y33.1880
G1 X67.0535Y33.1998
G1 X67.0516Y33.2139
G1 X67.0484Y33.2277
G1 X67.0438Y33.2412
G1 X67.0380Y33.2542
G1 X67.0309Y33.2665
G1 X67.0226Y33.2781
G1 X67.0115Y33.2905
G1 X64.4715Y35.8305
G1 X64.4628Y35.8385
G1 X64.4516Y35.8472
G1 X64.4395Y35.8547
G1 X64.4267Y35.8610
G1 X64.4134Y35.8660
G1 X64.3997Y35.8697
G1 X64.3856Y35.8720
G1 X64.3738Y35.8729
G1 X13.5690Y35.8730
G1 X13.5572Y35.8725
G1 X13.5383Y35.8697
G1 X13.5246Y35.8660
G1 X13.5113Y35.8610
G1 X13.4985Y35.8547
G1 X13.4864Y35.8472
G1 X13.4752Y35.8385
G1 X13.4648Y35.8288
G1 X13.4554Y35.8181
G1 X13.4471Y35.8065
G1 X13.4400Y35.7942
G1 X13.4342Y35.7812
G1 X13.4296Y35.7677
G1 X13.4264Y35.7539
G1 X13.4245Y35.7398
G1 X13.4240Y35.7280
G1 X13.4241Y33.1832
G1 X13.4250Y33.1714
G1 X13.4273Y33.1573
G1 X13.4310Y33.1436
G1 X13.4360Y33.1303
G1 X13.4471Y33.1095
G1 X13.4554Y33.0979
G1 X13.4648Y33.0872
G1 X13.4752Y33.0775
G1 X13.4864Y33.0688
G1 X13.4985Y33.0613
G1 X13.5113Y33.0550
G1 X13.5246Y33.0500
G1 X13.5383Y33.0463
G1 X13.5572Y33.0435
G1 X13.5690Y33.0430
G1 X64.2240Y33.0430
G1 X64.2240Y31.3010
G1 X13.5642Y31.3009
G1 X13.5523Y31.3000
G1 X13.5383Y31.2977
G1 X13.5246Y31.2940
G1 X13.5113Y31.2890
G1 X13.4985Y31.2827
G1 X13.4864Y31.2751
G1 X13.4682Y31.2602
G1 X13.4585Y31.2498
G1 X13.4498Y31.2386
G1 X13.4423Y31.2265
G1 X13.4360Y31.2137
G1 X13.4310Y31.2004
G1 X13.4273Y31.1867
G1 X13.4250Y31.1726
G1 X13.4241Y31.1608
G1 X13.4240Y28.6137
G1 X13.4250Y28.5994
G1 X13.4273Y28.5853
G1 X13.4310Y28.5716
G1 X13.4360Y28.5583
G1 X13.4423Y28.5455
G1 X13.4498Y28.5334
G1 X13.4585Y28.5222
G1 X13.4735Y28.5070
G1 X5.3680Y28.5070
G1 X5.2341Y28.5006
G1 X5.0897Y28.4793
G1 X4.9641Y28.4480
G1 X4.9505Y28.4438
G1 X4.8244Y28.3984
G1 X4.7073Y28.3431
G1 X4.6948Y28.3364
G1 X4.5879Y28.2723
G1 X4.5760Y28.2644
G1 X4.4722Y28.1873
G1 X4.3658Y28.0909
G1 X4.2727Y27.9878
G1 X4.1956Y27.8840
G1 X4.1876Y27.8720
G1 X3.6130Y27.8720
G1 X3.6130Y29.0970
G1 X3.5180Y29.1920
G1 X7.6680Y29.1920
G1 X7.6753Y29.1925
G1 X7.6848Y29.1949
G1 X7.6978Y29.2018
G1 X7.7082Y29.2122
G1 X7.7151Y29.2252
G1 X7.7175Y29.2347
G1 X7.7180Y29.2420
G1 X7.7180Y30.5920
G1 X7.7165Y30.6041
G1 X7.7132Y30.6134
G1 X7.7082Y30.6218
G1 X7.7016Y30.6290
G1 X7.6937Y30.6349
G1 X7.6848Y30.6391
G1 X7.6753Y30.6415
G1 X7.6680Y30.6420
G1 X3.5180Y30.6420
G1 X3.5180Y67.3720
G1 X70.2200Y67.3720
G1 X70.2201Y66.0695
G1 X70.2229Y66.0552
G1 X70.2298Y66.0422
G1 X70.2402Y66.0318
G1 X70.2532Y66.0249
G1 X70.2627Y66.0225
G1 X70.2700Y66.0220
G1 X74.4200Y66.0220
G1 X74.4200Y64.5570
G1 X74.4195Y64.5643
G1 X74.4171Y64.5738
G1 X74.4129Y64.5827
G1 X74.4070Y64.5906
G1 X74.3998Y64.5972
G1 X74.3914Y64.6022
G1 X74.3821Y64.6055
G1 X74.3725Y64.6069
G1 X73.6966Y64.6070
G1 X73.6675Y64.6554
G1 X73.5919Y64.7575
G1 X73.5016Y64.8571
G1 X73.4074Y64.9424
G1 X73.3054Y65.0181
G1 X73.1922Y65.0861
G1 X73.0729Y65.1424
G1 X72.9532Y65.1852
G1 X72.8299Y65.2161
G1 X72.6994Y65.2356
G1 X72.5700Y65.2420
G1 X13.5665Y65.2419
G1 X13.5569Y65.2405
G1 X13.5476Y65.2372
G1 X13.5392Y65.2322
G1 X13.5320Y65.2256
G1 X13.5261Y65.2177
G1 X13.5219Y65.2088
G1 X13.5195Y65.1993
G1 X13.5190Y65.1920
G1 X13.5190Y62.6520
G1 X13.5205Y62.6399
G1 X13.5238Y62.6306
G1 X13.5288Y62.6222
G1 X13.5354Y62.6150
G1 X13.5433Y62.6091
G1 X13.5522Y62.6049
G1 X13.5617Y62.6025
G1 X13.5690Y62.6020
G1 X72.5700Y62.6020
G1 X72.6994Y62.6084
G1 X72.8299Y62.6279
G1 X72.9532Y62.6588
G1 X73.0729Y62.7016
G1 X73.1922Y62.7579
G1 X73.3054Y62.8259
G1 X73.4074Y62.9016
G1 X73.5016Y62.9869
G1 X73.5919Y63.0865
G1 X73.6675Y63.1886
G1 X73.6966Y63.2370
G1 X74.3725Y63.2371
G1 X74.3821Y63.2385
G1 X74.3914Y63.2418
G1 X74.3998Y63.2468
G1 X74.4070Y63.2534
G1 X74.4129Y63.2613
G1 X74.4171Y63.2702
G1 X74.4195Y63.2797
G1 X74.4200Y63.2870
G1 X74.4200Y61.8220
G1 X70.2700Y61.8220
G1 X70.2627Y61.8215
G1 X70.2532Y61.8191
G1 X70.2402Y61.8122
G1 X70.2298Y61.8018
G1 X70.2229Y61.7888
G1 X70.2205Y61.7793
G1 X70.2200Y61.7720
G1 X70.2200Y60.4220
G1 X70.2205Y60.4147
G1 X70.2229Y60.4052
G1 X70.2271Y60.3963
G1 X70.2330Y60.3884
G1 X70.2402Y60.3818
G1 X70.2486Y60.3768
G1 X70.2579Y60.3735
G1 X70.2700Y60.3720
G1 X74.4200Y60.3720
G1 X74.4200Y23.6420
G1 X7.7180Y23.6420
G1 X7.7179Y24.9445
G1 X7.7151Y24.9588
G1 X7.7082Y24.9718
G1 X7.6978Y24.9822
G1 X7.6848Y24.9891
G1 X7.6753Y24.9915
G1 X7.6680Y24.9920
G1 X3.5180Y24.9920
G1 X3.5180Y26.4570
G1 X3.5185Y26.4497
G1 X3.5209Y26.4402
G1 X3.5251Y26.4313
G1 X3.5310Y26.4234
G1 X3.5382Y26.4168
G1 X3.5466Y26.4118
G1 X3.5558Y26.4085
G1 X3.5655Y26.4071
G1 X4.2414Y26.4070
G1 X4.2705Y26.3586
G1 X4.3461Y26.2565
G1 X4.4364Y26.1569
G1 X4.5306Y26.0716
G1 X4.6326Y25.9959
G1 X4.7458Y25.9279
G1 X4.8651Y25.8716
G1 X4.9848Y25.8288
G1 X5.1081Y25.7979
G1 X5.2386Y25.7784
G1 X5.3680Y25.7720
G1 X64.3715Y25.7721
G1 X64.3811Y25.7735
G1 X64.3904Y25.7768
G1 X64.3988Y25.7818
G1 X64.4060Y25.7884
G1 X64.4119Y25.7963
G1 X64.4161Y25.8052
G1 X64.4185Y25.8147
G1 X64.4190Y25.8220
G1 X64.4189Y28.3645
G1 X64.4175Y28.3741
G1 X64.4142Y28.3834
G1 X64.4092Y28.3918
G1 X64.4026Y28.3990
G1 X64.3947Y28.4049
G1 X64.3858Y28.4091
G1 X64.3763Y28.4115
G1 X64.3690Y28.4120
G1 X5.3680Y28.4120
G1 X5.2386Y28.4056
G1 X5.1081Y28.3861
G1 X4.9848Y28.3552
G1 X4.8651Y28.3124
G1 X4.7458Y28.2561
G1 X4.6326Y28.1881
G1 X4.5306Y28.1124
G1 X4.4364Y28.0271
G1 X4.3461Y27.9275
G1 X4.2705Y27.8254
G1 X4.2414Y27.7770
G1 X3.5655Y27.7769
G1 X3.5558Y27.7755
G1 X3.5466Y27.7722
G1 X3.5382Y27.7672
G1 X3.5310Y27.7606
G1 X3.5251Y27.7527
G1 X3.5209Y27.7438
G1 X3.5185Y27.7343
G1 X3.5180Y27.7270
G1 X3.5180Y29.1920
M106 S0
G0 X8.0546Y28.8870
M106 S255
G1 X8.0826Y28.9200
G1 X8.1084Y28.9563
G1 X8.1298Y28.9924
G1 X8.1500Y29.0340
G1 X8.1661Y29.0762
G1 X8.1725Y29.0970
G1 X8.1784Y29.1196
G1 X8.1862Y29.1581
G1 X8.1914Y29.2017
G1 X8.1930Y29.2420
G1 X8.1930Y30.5921
G1 X8.1918Y30.6271
G1 X8.1886Y30.6592
G1 X8.1833Y30.6920
G1 X8.1754Y30.7263
G1 X8.1661Y30.7578
G1 X8.1541Y30.7901
G1 X8.1403Y30.8212
G1 X8.1267Y30.8472
G1 X8.1093Y30.8762
G1 X8.0927Y30.9005
G1 X8.0711Y30.9283
G1 X8.0494Y30.9526
G1 X8.0274Y30.9746
G1 X8.0029Y30.9962
G1 X7.9751Y31.0177
G1 X7.9478Y31.0361
G1 X7.9197Y31.0527
G1 X7.8882Y31.0685
G1 X7.8645Y31.0788
G1 X7.8344Y31.0899
G1 X7.8046Y31.0988
G1 X7.7728Y31.1064
G1 X7.7387Y31.1121
G1 X7.7079Y31.1154
G1 X7.6763Y31.1169
G1 X3.9930Y31.1170
G1 X3.9930Y66.8970
G1 X69.7450Y66.8970
G1 X69.7450Y66.0707
G1 X69.7458Y66.0439
G1 X69.7485Y66.0117
G1 X69.7546Y65.9725
G1 X69.7638Y65.9332
G1 X69.7774Y65.8908
G1 X69.7916Y65.8560
G1 X69.8104Y65.8183
G1 X69.8319Y65.7829
G1 X69.8583Y65.7463
G1 X69.8834Y65.7170
G1 X13.5690Y65.7170
G1 X13.5427Y65.7163
G1 X13.5134Y65.7140
G1 X13.4851Y65.7102
G1 X13.4590Y65.7053
G1 X13.4206Y65.6955
G1 X13.3818Y65.6824
G1 X13.3488Y65.6685
G1 X13.3092Y65.6481
G1 X13.2748Y65.6268
G1 X13.2420Y65.6026
G1 X13.2113Y65.5762
G1 X13.1844Y65.5492
G1 X13.1584Y65.5190
G1 X13.1339Y65.4857
G1 X13.1106Y65.4478
G1 X13.0925Y65.4122
G1 X13.0780Y65.3776
G1 X13.0646Y65.3376
G1 X13.0550Y65.2985
G1 X13.0485Y65.2598
G1 X13.0453Y65.2284
G1 X13.0440Y65.1921
G1 X13.0440Y62.6520
G1 X13.0451Y62.6180
G1 X10.6528Y60.2241
G1 X10.6336Y60.2032
G1 X10.6184Y60.1850
G1 X10.6016Y60.1627
G1 X10.5874Y60.1417
G1 X10.5729Y60.1178
G1 X10.5596Y60.0929
G1 X10.5475Y60.0671
G1 X10.5380Y60.0436
G1 X10.5242Y60.0019
G1 X10.5133Y59.9563
G1 X10.5069Y59.9125
G1 X10.5041Y59.8656
G1 X10.5040Y57.8244
G1 X10.5046Y57.8007
G1 X10.5063Y57.7770
G1 X10.5090Y57.7542
G1 X10.5137Y57.7260
G1 X10.5186Y57.7035
G1 X10.5258Y57.6765
G1 X10.5330Y57.6541
G1 X10.5431Y57.6274
G1 X10.5523Y57.6063
G1 X10.5646Y57.5812
G1 X10.5761Y57.5606
G1 X10.5908Y57.5369
G1 X10.6036Y57.5185
G1 X10.6206Y57.4962
G1 X10.6388Y57.4749
G1 X10.6554Y57.4571
G1 X13.2088Y54.9040
G1 X13.2415Y54.8757
G1 X13.2753Y54.8509
G1 X13.3148Y54.8267
G1 X13.3530Y54.8076
G1 X13.3878Y54.7934
G1 X13.4098Y54.7858
G1 X13.4319Y54.7793
G1 X13.4736Y54.7698
G1 X13.5151Y54.7638
G1 X13.5427Y54.7617
G1 X13.5690Y54.7610
G1 X64.3731Y54.7610
G1 X64.3958Y54.7617
G1 X64.4229Y54.7638
G1 X64.4690Y54.7707
G1 X64.4903Y54.7753
G1 X64.5174Y54.7825
G1 X64.5392Y54.7895
G1 X64.5633Y54.7983
G1 X64.5850Y54.8076
G1 X64.6096Y54.8195
G1 X64.6303Y54.8307
G1 X64.6527Y54.8443
G1 X64.6723Y54.8575
G1 X64.6910Y54.8714
G1 X64.7079Y54.8851
G1 X64.7267Y54.9018
G1 X64.7436Y54.9182
G1 X64.7610Y54.9370
G1 X64.7878Y54.9696
G1 X64.8028Y54.9904
G1 X64.8156Y55.0101
G1 X64.8286Y55.0323
G1 X64.8405Y55.0552
G1 X64.8510Y55.0780
G1 X64.8598Y55.0998
G1 X64.8687Y55.1251
G1 X64.8752Y55.1472
G1 X64.8809Y55.1698
G1 X64.8855Y55.1923
G1 X64.8896Y55.2188
G1 X64.8921Y55.2422
G1 X64.8940Y55.2860
G1 X64.8940Y57.8264
G1 X64.8921Y57.8698
G1 X64.8874Y57.9082
G1 X64.8797Y57.9473
G1 X64.8735Y57.9710
G1 X64.8670Y57.9918
G1 X64.8521Y58.0313
G1 X64.8331Y58.0713
G1 X64.8097Y58.1112
G1 X64.7846Y58.1466
G1 X64.7702Y58.1645
G1 X64.7548Y58.1820
G1 X64.7267Y58.2102
G1 X64.6947Y58.2377
G1 X64.6571Y58.2648
G1 X64.6191Y58.2875
G1 X64.5786Y58.3073
G1 X64.5392Y58.3225
G1 X64.5011Y58.3340
G1 X64.4575Y58.3434
G1 X64.4128Y58.3491
G1 X64.3690Y58.3510
G1 X14.0940Y58.3510
G1 X14.0940Y59.3330
G1 X64.3690Y59.3330
G1 X64.3958Y59.3337
G1 X64.4368Y59.3375
G1 X64.4807Y59.3451
G1 X64.5243Y59.3565
G1 X64.5660Y59.3714
G1 X64.6081Y59.3907
G1 X64.6448Y59.4114
G1 X64.6779Y59.4336
G1 X64.6965Y59.4477
G1 X64.7145Y59.4628
G1 X64.7456Y59.4923
G1 X64.7763Y59.5269
G1 X64.8028Y59.5624
G1 X64.8251Y59.5982
G1 X64.8355Y59.6173
G1 X64.8462Y59.6394
G1 X64.8614Y59.6762
G1 X64.8690Y59.6982
G1 X64.8754Y59.7197
G1 X64.8855Y59.7643
G1 X64.8918Y59.8103
G1 X64.8934Y59.8338
G1 X64.8940Y59.8568
G1 X64.8940Y62.1270
G1 X69.8834Y62.1270
G1 X69.8554Y62.0940
G1 X69.8296Y62.0577
G1 X69.8082Y62.0216
G1 X69.7880Y61.9800
G1 X69.7720Y61.9378
G1 X69.7655Y61.9170
G1 X69.7596Y61.8945
G1 X69.7518Y61.8560
G1 X69.7466Y61.8123
G1 X69.7450Y61.7720
G1 X69.7450Y60.4219
G1 X69.7462Y60.3869
G1 X69.7494Y60.3548
G1 X69.7547Y60.3220
G1 X69.7626Y60.2877
G1 X69.7720Y60.2562
G1 X69.7839Y60.2239
G1 X69.7978Y60.1928
G1 X69.8113Y60.1667
G1 X69.8287Y60.1378
G1 X69.8453Y60.1135
G1 X69.8669Y60.0857
G1 X69.8886Y60.0613
G1 X69.9106Y60.0394
G1 X69.9351Y60.0178
G1 X69.9630Y59.9962
G1 X69.9902Y59.9779
G1 X70.0183Y59.9613
G1 X70.0414Y59.9495
G1 X70.0735Y59.9352
G1 X70.1036Y59.9241
G1 X70.1334Y59.9152
G1 X70.1652Y59.9076
G1 X70.1993Y59.9019
G1 X70.2301Y59.8986
G1 X70.2617Y59.8971
G1 X73.9450Y59.8970
G1 X73.9450Y24.1170
G1 X8.1930Y24.1170
G1 X8.1930Y24.9433
G1 X8.1922Y24.9701
G1 X8.1895Y25.0023
G1 X8.1834Y25.0414
G1 X8.1742Y25.0808
G1 X8.1606Y25.1232
G1 X8.1464Y25.1580
G1 X8.1276Y25.1957
G1 X8.1062Y25.2311
G1 X8.0797Y25.2677
G1 X8.0546Y25.2970
G1 X64.3690Y25.2970
G1 X64.4093Y25.2986
G1 X64.4512Y25.3036
G1 X64.4897Y25.3112
G1 X64.5304Y25.3225
G1 X64.5721Y25.3380
G1 X64.6102Y25.3557
G1 X64.6468Y25.3766
G1 X64.6779Y25.3976
G1 X64.7093Y25.4223
G1 X64.7284Y25.4394
G1 X64.7436Y25.4542
G1 X64.7717Y25.4853
G1 X64.7971Y25.5183
G1 X64.8097Y25.5368
G1 X64.8216Y25.5562
G1 X64.8395Y25.5892
G1 X64.8567Y25.6277
G1 X64.8705Y25.6667
G1 X64.8819Y25.7103
G1 X64.8890Y25.7502
G1 X64.8927Y25.7852
G1 X64.8940Y25.8219
G1 X64.8940Y28.3620
G1 X64.8928Y28.3960
G1 X67.2852Y30.7899
G1 X67.3044Y30.8108
G1 X67.3196Y30.8289
G1 X67.3364Y30.8513
G1 X67.3506Y30.8722
G1 X67.3643Y30.8947
G1 X67.3763Y30.9169
G1 X67.3884Y30.9421
G1 X67.3998Y30.9699
G1 X67.4138Y31.0121
G1 X67.4247Y31.0577
G1 X67.4311Y31.1015
G1 X67.4339Y31.1486
G1 X67.4340Y33.1881
G1 X67.4334Y33.2122
G1 X67.4317Y33.2366
G1 X67.4253Y33.2829
G1 X67.4158Y33.3246
G1 X67.4048Y33.3604
G1 X67.3967Y33.3823
G1 X67.3877Y33.4035
G1 X67.3683Y33.4422
G1 X67.3441Y33.4817
G1 X67.3193Y33.5155
G1 X67.2910Y33.5482
G1 X64.7394Y36.1001
G1 X64.7227Y36.1159
G1 X64.7042Y36.1320
G1 X64.6868Y36.1458
G1 X64.6641Y36.1621
G1 X64.6448Y36.1746
G1 X64.6227Y36.1876
G1 X64.6023Y36.1982
G1 X64.5786Y36.2093
G1 X64.5551Y36.2188
G1 X64.5304Y36.2275
G1 X64.4875Y36.2394
G1 X64.4644Y36.2442
G1 X64.4397Y36.2481
G1 X64.3958Y36.2523
G1 X64.3690Y36.2530
G1 X13.5690Y36.2530
G1 X13.5300Y36.2515
G1 X13.5082Y36.2494
G1 X13.4805Y36.2454
G1 X13.4579Y36.2411
G1 X13.4319Y36.2347
G1 X13.4093Y36.2281
G1 X13.3834Y36.2190
G1 X13.3616Y36.2102
G1 X13.3398Y36.2002
G1 X13.3173Y36.1887
G1 X13.2952Y36.1758
G1 X13.2605Y36.1527
G1 X13.2415Y36.1383
G1 X13.2234Y36.1231
G1 X13.2033Y36.1046
G1 X13.1864Y36.0874
G1 X13.1573Y36.0537
G1 X13.1415Y36.0327
G1 X13.1274Y36.0117
G1 X13.1137Y35.9893
G1 X13.1025Y35.9686
G1 X13.0906Y35.9440
G1 X13.0813Y35.9223
G1 X13.0725Y35.8982
G1 X13.0653Y35.8758
G1 X13.0583Y35.8493
G1 X13.0536Y35.8274
G1 X13.0490Y35.7998
G1 X13.0463Y35.7770
G1 X13.0446Y35.7522
G1 X13.0440Y35.7286
G1 X13.0440Y33.1874
G1 X13.0459Y33.1442
G1 X13.0507Y33.1046
G1 X13.0586Y33.0656
G1 X13.0645Y33.0430
G1 X13.0711Y33.0216
G1 X13.0859Y32.9827
G1 X13.1049Y32.9427
G1 X13.1283Y32.9028
G1 X13.1530Y32.8679
G1 X13.1770Y32.8390
G1 X13.1928Y32.8219
G1 X13.2096Y32.8054
G1 X13.2420Y32.7774
G1 X13.2794Y32.7502
G1 X13.3173Y32.7273
G1 X13.3546Y32.7088
G1 X13.3752Y32.7001
G1 X13.3971Y32.6920
G1 X13.4347Y32.6806
G1 X13.4759Y32.6714
G1 X13.5217Y32.6652
G1 X13.5457Y32.6636
G1 X13.5690Y32.6630
G1 X63.8440Y32.6630
G1 X63.8440Y31.6810
G1 X13.5690Y31.6810
G1 X13.5444Y31.6804
G1 X13.5018Y31.6766
G1 X13.4579Y31.6690
G1 X13.4137Y31.6574
G1 X13.3725Y31.6428
G1 X13.3530Y31.6344
G1 X13.3299Y31.6233
G1 X13.2931Y31.6026
G1 X13.2601Y31.5804
G1 X13.2415Y31.5663
G1 X13.2239Y31.5515
G1 X13.1924Y31.5217
G1 X13.1617Y31.4871
G1 X13.1352Y31.4516
G1 X13.1129Y31.4158
G1 X13.1025Y31.3966
G1 X13.0918Y31.3746
G1 X13.0766Y31.3378
G1 X13.0689Y31.3157
G1 X13.0626Y31.2943
G1 X13.0525Y31.2497
G1 X13.0462Y31.2037
G1 X13.0446Y31.1802
G1 X13.0440Y31.1572
G1 X13.0440Y28.8870
G1 X8.0546Y28.8870
G1 X8.2307Y28.9820
G1 X8.2481Y29.0233
G1 X8.2636Y29.0700
G1 X8.2750Y29.1161
G1 X8.2827Y29.1614
G1 X8.2865Y29.1991
G1 X8.2880Y29.2405
G1 X8.2877Y30.6111
G1 X8.2853Y30.6497
G1 X8.2801Y30.6902
G1 X8.2736Y30.7245
G1 X8.2636Y30.7640
G1 X8.2501Y30.8052
G1 X8.2374Y30.8371
G1 X8.2198Y30.8746
G1 X8.2022Y30.9064
G1 X8.1808Y30.9404
G1 X8.1577Y30.9722
G1 X8.1328Y31.0022
G1 X8.1044Y31.0323
G1 X8.0756Y31.0591
G1 X8.0464Y31.0831
G1 X8.0147Y31.1059
G1 X7.9799Y31.1277
G1 X7.9457Y31.1463
G1 X7.9105Y31.1626
G1 X7.8716Y31.1775
G1 X7.8375Y31.1883
G1 X7.7994Y31.1979
G1 X7.7639Y31.2044
G1 X7.7237Y31.2094
G1 X7.6812Y31.2118
G1 X4.0880Y31.2120
G1 X4.0880Y66.8020
G1 X69.6500Y66.8020
G1 X69.6500Y66.0718
G1 X69.6509Y66.0389
G1 X69.6528Y66.0136
G1 X69.6561Y65.9856
G1 X69.6610Y65.9560
G1 X69.6675Y65.9262
G1 X69.6751Y65.8974
G1 X69.6839Y65.8700
G1 X69.6951Y65.8400
G1 X69.7073Y65.8120
G1 X13.5690Y65.8120
G1 X13.5375Y65.8112
G1 X13.5032Y65.8084
G1 X13.4700Y65.8040
G1 X13.4391Y65.7982
G1 X13.3939Y65.7867
G1 X13.3495Y65.7718
G1 X13.3103Y65.7553
G1 X13.2672Y65.7335
G1 X13.2273Y65.7093
G1 X13.1888Y65.6817
G1 X13.1562Y65.6544
G1 X13.1367Y65.6364
G1 X13.1190Y65.6184
G1 X13.0877Y65.5827
G1 X13.0597Y65.5454
G1 X13.0337Y65.5047
G1 X13.0136Y65.4673
G1 X12.9943Y65.4246
G1 X12.9783Y65.3802
G1 X12.9652Y65.3324
G1 X12.9569Y65.2899
G1 X12.9512Y65.2434
G1 X12.9496Y65.2189
G1 X12.9490Y65.1929
G1 X12.9490Y62.6569
G1 X10.5839Y60.2895
G1 X10.5621Y60.2658
G1 X10.5438Y60.2439
G1 X10.5242Y60.2179
G1 X10.5073Y60.1928
G1 X10.4908Y60.1656
G1 X10.4768Y60.1398
G1 X10.4628Y60.1103
G1 X10.4498Y60.0789
G1 X10.4408Y60.0539
G1 X10.4331Y60.0289
G1 X10.4258Y60.0010
G1 X10.4203Y59.9754
G1 X10.4151Y59.9443
G1 X10.4124Y59.9224
G1 X10.4100Y59.8919
G1 X10.4091Y59.8685
G1 X10.4090Y57.8237
G1 X10.4099Y57.7933
G1 X10.4123Y57.7628
G1 X10.4151Y57.7397
G1 X10.4205Y57.7075
G1 X10.4263Y57.6810
G1 X10.4348Y57.6492
G1 X10.4434Y57.6226
G1 X10.4552Y57.5913
G1 X10.4661Y57.5662
G1 X10.4806Y57.5369
G1 X10.4937Y57.5133
G1 X10.5109Y57.4856
G1 X10.5268Y57.4626
G1 X10.5466Y57.4366
G1 X10.5677Y57.4118
G1 X10.5871Y57.3912
G1 X13.1456Y54.8331
G1 X13.1651Y54.8157
G1 X13.1840Y54.8001
G1 X13.2061Y54.7834
G1 X13.2266Y54.7692
G1 X13.2695Y54.7432
G1 X13.3137Y54.7211
G1 X13.3558Y54.7039
G1 X13.3811Y54.6952
G1 X13.4071Y54.6876
G1 X13.4311Y54.6816
G1 X13.4562Y54.6764
G1 X13.5055Y54.6693
G1 X13.5377Y54.6668
G1 X13.5689Y54.6660
G1 X64.3745Y54.6660
G1 X64.4012Y54.6669
G1 X64.4325Y54.6693
G1 X64.4646Y54.6735
G1 X64.4875Y54.6775
G1 X64.5140Y54.6833
G1 X64.5444Y54.6914
G1 X64.5710Y54.6999
G1 X64.6007Y54.7110
G1 X64.6266Y54.7222
G1 X64.6539Y54.7354
G1 X64.6779Y54.7485
G1 X64.7043Y54.7646
G1 X64.7289Y54.7812
G1 X64.7531Y54.7994
G1 X64.7713Y54.8143
G1 X64.7932Y54.8340
G1 X64.8140Y54.8544
G1 X64.8353Y54.8775
G1 X64.8534Y54.8991
G1 X64.8702Y54.9212
G1 X64.8858Y54.9436
G1 X64.8983Y54.9633
G1 X64.9133Y54.9893
G1 X64.9269Y55.0157
G1 X64.9385Y55.0411
G1 X64.9490Y55.0670
G1 X64.9591Y55.0959
G1 X64.9671Y55.1229
G1 X64.9747Y55.1538
G1 X64.9800Y55.1812
G1 X64.9841Y55.2089
G1 X64.9871Y55.2383
G1 X64.9890Y55.2859
G1 X64.9890Y57.8268
G1 X64.9883Y57.8538
G1 X64.9864Y57.8820
G1 X64.9837Y57.9066
G1 X64.9791Y57.9363
G1 X64.9746Y57.9585
G1 X64.9677Y57.9868
G1 X64.9542Y58.0305
G1 X64.9450Y58.0553
G1 X64.9349Y58.0792
G1 X64.9234Y58.1034
G1 X64.9106Y58.1276
G1 X64.8965Y58.1517
G1 X64.8826Y58.1732
G1 X64.8520Y58.2147
G1 X64.8361Y58.2336
G1 X64.8188Y58.2526
G1 X64.8008Y58.2708
G1 X64.7816Y58.2886
G1 X64.7448Y58.3190
G1 X64.7229Y58.3350
G1 X64.7036Y58.3479
G1 X64.6807Y58.3619
G1 X64.6580Y58.3744
G1 X64.6115Y58.3966
G1 X64.5880Y58.4060
G1 X64.5602Y58.4157
G1 X64.5140Y58.4287
G1 X64.4677Y58.4380
G1 X64.4406Y58.4418
G1 X64.4167Y58.4441
G1 X64.3691Y58.4460
G1 X14.1890Y58.4460
G1 X14.1890Y59.2380
G1 X64.3690Y59.2380
G1 X64.4009Y59.2389
G1 X64.4493Y59.2433
G1 X64.4738Y59.2470
G1 X64.5003Y59.2521
G1 X64.5272Y59.2586
G1 X64.5516Y59.2656
G1 X64.5983Y59.2820
G1 X64.6221Y59.2921
G1 X64.6464Y59.3036
G1 X64.6693Y59.3156
G1 X64.6919Y59.3288
G1 X64.7317Y59.3553
G1 X64.7706Y59.3858
G1 X64.7913Y59.4042
G1 X64.8097Y59.4220
G1 X64.8444Y59.4601
G1 X64.8604Y59.4801
G1 X64.8778Y59.5038
G1 X64.9035Y59.5440
G1 X64.9259Y59.5856
G1 X64.9372Y59.6102
G1 X64.9461Y59.6317
G1 X64.9554Y59.6568
G1 X64.9633Y59.6815
G1 X64.9758Y59.7312
G1 X64.9811Y59.7598
G1 X64.9855Y59.7924
G1 X64.9881Y59.8260
G1 X64.9890Y59.8557
G1 X64.9890Y62.0320
G1 X69.7073Y62.0320
G1 X69.6941Y62.0016
G1 X69.6829Y61.9710
G1 X69.6741Y61.9429
G1 X69.6661Y61.9122
G1 X69.6602Y61.8837
G1 X69.6552Y61.8514
G1 X69.6522Y61.8234
G1 X69.6503Y61.7904
G1 X69.6500Y60.4205
G1 X69.6515Y60.3804
G1 X69.6549Y60.3449
G1 X69.6604Y60.3094
G1 X69.6675Y60.2762
G1 X69.6778Y60.2386
G1 X69.6903Y60.2022
G1 X69.7041Y60.1688
G1 X69.7206Y60.1347
G1 X69.7407Y60.0993
G1 X69.7579Y60.0726
G1 X69.7800Y60.0422
G1 X69.8031Y60.0142
G1 X69.8291Y59.9862
G1 X69.8574Y59.9594
G1 X69.8850Y59.9361
G1 X69.9159Y59.9132
G1 X69.9443Y59.8945
G1 X69.9754Y59.8766
G1 X70.0102Y59.8591
G1 X70.0412Y59.8458
G1 X70.0788Y59.8323
G1 X70.1115Y59.8227
G1 X70.1467Y59.8145
G1 X70.1863Y59.8078
G1 X70.2223Y59.8039
G1 X70.2583Y59.8021
G1 X73.8500Y59.8020
G1 X73.8500Y24.2120
G1 X8.2880Y24.2120
G1 X8.2880Y24.9422
G1 X8.2871Y24.9750
G1 X8.2852Y25.0003
G1 X8.2819Y25.0283
G1 X8.2770Y25.0580
G1 X8.2705Y25.0878
G1 X8.2629Y25.1165
G1 X8.2541Y25.1440
G1 X8.2429Y25.1740
G1 X8.2307Y25.2020
G1 X64.3690Y25.2020
G1 X64.4169Y25.2039
G1 X64.4654Y25.2096
G1 X64.5117Y25.2187
G1 X64.5591Y25.2319
G1 X64.6040Y25.2483
G1 X64.6266Y25.2582
G1 X64.6508Y25.2698
G1 X64.6937Y25.2939
G1 X64.7298Y25.3179
G1 X64.7687Y25.3481
G1 X64.8048Y25.3811
G1 X64.8228Y25.3997
G1 X64.8408Y25.4199
G1 X64.8702Y25.4572
G1 X64.8953Y25.4943
G1 X64.9196Y25.5371
G1 X64.9399Y25.5803
G1 X64.9572Y25.6261
G1 X64.9648Y25.6508
G1 X64.9715Y25.6762
G1 X64.9804Y25.7195
G1 X64.9867Y25.7689
G1 X64.9884Y25.7949
G1 X64.9890Y25.8205
G1 X64.9890Y28.3578
G1 X67.3541Y30.7244
G1 X67.3759Y30.7481
G1 X67.3941Y30.7700
G1 X67.4138Y30.7961
G1 X67.4307Y30.8212
G1 X67.4472Y30.8483
G1 X67.4612Y30.8742
G1 X67.4752Y30.9036
G1 X67.4881Y30.9348
G1 X67.4970Y30.9595
G1 X67.5048Y30.9848
G1 X67.5122Y31.0130
G1 X67.5177Y31.0386
G1 X67.5229Y31.0697
G1 X67.5256Y31.0916
G1 X67.5280Y31.1221
G1 X67.5289Y31.1461
G1 X67.5290Y33.1882
G1 X67.5283Y33.2167
G1 X67.5262Y33.2461
G1 X67.5233Y33.2712
G1 X67.5190Y33.2985
G1 X67.5083Y33.3465
G1 X67.4945Y33.3916
G1 X67.4850Y33.4173
G1 X67.4748Y33.4414
G1 X67.4529Y33.4855
G1 X67.4260Y33.5302
G1 X67.4116Y33.5510
G1 X67.3949Y33.5730
G1 X67.3620Y33.6113
G1 X64.8062Y36.1676
G1 X64.7865Y36.1863
G1 X64.7647Y36.2053
G1 X64.7439Y36.2217
G1 X64.7184Y36.2401
G1 X64.6967Y36.2543
G1 X64.6695Y36.2702
G1 X64.6458Y36.2827
G1 X64.6213Y36.2942
G1 X64.5961Y36.3048
G1 X64.5668Y36.3155
G1 X64.5402Y36.3238
G1 X64.5126Y36.3311
G1 X64.4844Y36.3371
G1 X64.4545Y36.3420
G1 X64.4271Y36.3452
G1 X64.4020Y36.3471
G1 X64.3691Y36.3480
G1 X13.5690Y36.3480
G1 X13.5235Y36.3463
G1 X13.4965Y36.3437
G1 X13.4645Y36.3391
G1 X13.4374Y36.3338
G1 X13.4074Y36.3265
G1 X13.3800Y36.3184
G1 X13.3503Y36.3081
G1 X13.3241Y36.2975
G1 X13.2990Y36.2860
G1 X13.2723Y36.2723
G1 X13.2463Y36.2573
G1 X13.2266Y36.2448
G1 X13.2042Y36.2292
G1 X13.1821Y36.2124
G1 X13.1605Y36.1943
G1 X13.1374Y36.1730
G1 X13.1168Y36.1520
G1 X13.0966Y36.1294
G1 X13.0795Y36.1084
G1 X13.0630Y36.0862
G1 X13.0472Y36.0628
G1 X13.0315Y36.0369
G1 X13.0180Y36.0121
G1 X13.0041Y35.9833
G1 X12.9930Y35.9573
G1 X12.9826Y35.9291
G1 X12.9741Y35.9025
G1 X12.9660Y35.8718
G1 X12.9603Y35.8454
G1 X12.9550Y35.8132
G1 X12.9518Y35.7861
G1 X12.9497Y35.7567
G1 X12.9490Y35.7289
G1 X12.9490Y33.1863
G1 X12.9497Y33.1593
G1 X12.9516Y33.1316
G1 X12.9546Y33.1051
G1 X12.9590Y33.0775
G1 X12.9697Y33.0295
G1 X12.9835Y32.9844
G1 X13.0009Y32.9399
G1 X13.0133Y32.9132
G1 X13.0251Y32.8905
G1 X13.0515Y32.8466
G1 X13.0663Y32.8253
G1 X13.0824Y32.8039
G1 X13.0972Y32.7859
G1 X13.1150Y32.7659
G1 X13.1484Y32.7326
G1 X13.1849Y32.7014
G1 X13.2082Y32.6839
G1 X13.2286Y32.6699
G1 X13.2718Y32.6439
G1 X13.3167Y32.6218
G1 X13.3402Y32.6118
G1 X13.3657Y32.6024
G1 X13.4108Y32.5886
G1 X13.4368Y32.5823
G1 X13.4593Y32.5778
G1 X13.4884Y32.5733
G1 X13.5131Y32.5706
G1 X13.5414Y32.5686
G1 X13.5689Y32.5680
G1 X63.7490Y32.5680
G1 X63.7490Y31.7760
G1 X13.5690Y31.7760
G1 X13.5397Y31.7753
G1 X13.5150Y31.7736
G1 X13.4896Y31.7708
G1 X13.4645Y31.7671
G1 X13.4391Y31.7622
G1 X13.3914Y31.7500
G1 X13.3676Y31.7423
G1 X13.3402Y31.7322
G1 X13.3158Y31.7219
G1 X13.2921Y31.7107
G1 X13.2692Y31.6986
G1 X13.2463Y31.6853
G1 X13.2082Y31.6601
G1 X13.1886Y31.6455
G1 X13.1676Y31.6284
G1 X13.1467Y31.6098
G1 X13.1283Y31.5920
G1 X13.0936Y31.5539
G1 X13.0776Y31.5339
G1 X13.0602Y31.5101
G1 X13.0345Y31.4699
G1 X13.0121Y31.4284
G1 X13.0007Y31.4038
G1 X12.9918Y31.3823
G1 X12.9826Y31.3571
G1 X12.9747Y31.3325
G1 X12.9622Y31.2828
G1 X12.9569Y31.2542
G1 X12.9525Y31.2215
G1 X12.9499Y31.1882
G1 X12.9490Y31.1583
G1 X12.9490Y28.9820
G1 X8.2307Y28.9820
G1 X8.3636Y29.0770
G1 X8.3734Y29.1254
G1 X8.3773Y29.1521
G1 X8.3802Y29.1796
G1 X8.3823Y29.2106
G1 X8.3830Y29.2411
G1 X8.3830Y30.5920
G1 X8.3822Y30.6242
G1 X8.3800Y30.6573
G1 X8.3743Y30.7027
G1 X8.3672Y30.7413
G1 X8.3561Y30.7861
G1 X8.3442Y30.8242
G1 X8.3295Y30.8633
G1 X8.3104Y30.9057
G1 X8.2920Y30.9410
G1 X8.2686Y30.9798
G1 X8.2459Y31.0128
G1 X8.2180Y31.0488
G1 X8.1889Y31.0816
G1 X8.1597Y31.1110
G1 X8.1292Y31.1383
G1 X8.0977Y31.1633
G1 X8.0607Y31.1894
G1 X8.0230Y31.2126
G1 X7.9856Y31.2325
G1 X7.9454Y31.2510
G1 X7.9017Y31.2676
G1 X7.8631Y31.2798
G1 X7.8198Y31.2906
G1 X7.7788Y31.2983
G1 X7.7331Y31.3040
G1 X7.6868Y31.3067
G1 X4.1830Y31.3070
G1 X4.1830Y66.7070
G1 X69.5550Y66.7070
G1 X69.5552Y66.0558
G1 X69.5571Y66.0178
G1 X69.5608Y65.9816
G1 X69.5668Y65.9431
G1 X69.5743Y65.9072
G1 X13.5690Y65.9070
G1 X13.5324Y65.9060
G1 X13.4931Y65.9029
G1 X13.4549Y65.8978
G1 X13.4190Y65.8910
G1 X13.3670Y65.8778
G1 X13.3168Y65.8610
G1 X13.2713Y65.8420
G1 X13.2445Y65.8290
G1 X13.2232Y65.8177
G1 X13.1768Y65.7897
G1 X13.1335Y65.7589
G1 X13.0950Y65.7272
G1 X13.0734Y65.7073
G1 X13.0559Y65.6899
G1 X13.0200Y65.6500
G1 X12.9876Y65.6080
G1 X12.9600Y65.5665
G1 X12.9452Y65.5413
G1 X12.9335Y65.5195
G1 X12.9107Y65.4710
G1 X12.8916Y65.4206
G1 X12.8774Y65.3731
G1 X12.8704Y65.3442
G1 X12.8654Y65.3188
G1 X12.8602Y65.2854
G1 X12.8570Y65.2566
G1 X12.8548Y65.2252
G1 X12.8540Y65.1942
G1 X12.8540Y62.6962
G1 X10.5150Y60.3550
G1 X10.4901Y60.3278
G1 X10.4693Y60.3029
G1 X10.4470Y60.2732
G1 X10.4271Y60.2439
G1 X10.4084Y60.2130
G1 X10.3922Y60.1829
G1 X10.3761Y60.1492
G1 X10.3615Y60.1140
G1 X10.3510Y60.0847
G1 X10.3420Y60.0559
G1 X10.3336Y60.0238
G1 X10.3272Y59.9945
G1 X10.3226Y59.9679
G1 X10.3181Y59.9339
G1 X10.3156Y59.9056
G1 X10.3142Y59.8723
G1 X10.3140Y57.8216
G1 X10.3151Y57.7874
G1 X10.3179Y57.7519
G1 X10.3228Y57.7149
G1 X10.3283Y57.6840
G1 X10.3370Y57.6466
G1 X10.3456Y57.6161
G1 X10.3543Y57.5895
G1 X10.3675Y57.5548
G1 X10.3801Y57.5260
G1 X10.3965Y57.4927
G1 X10.4119Y57.4650
G1 X10.4316Y57.4333
G1 X10.4500Y57.4066
G1 X10.4727Y57.3769
G1 X10.4968Y57.3486
G1 X10.5192Y57.3247
G1 X13.0634Y54.7804
G1 X13.0825Y54.7620
G1 X13.1035Y54.7434
G1 X13.1255Y54.7252
G1 X13.1505Y54.7064
G1 X13.1748Y54.6895
G1 X13.1963Y54.6759
G1 X13.2237Y54.6600
G1 X13.2492Y54.6466
G1 X13.2751Y54.6343
G1 X13.3004Y54.6234
G1 X13.3238Y54.6145
G1 X13.3524Y54.6046
G1 X13.3824Y54.5958
G1 X13.4106Y54.5888
G1 X13.4389Y54.5830
G1 X13.4703Y54.5779
G1 X13.4960Y54.5748
G1 X13.5345Y54.5719
G1 X13.5688Y54.5710
G1 X64.3783Y54.5711
G1 X64.4086Y54.5722
G1 X64.4450Y54.5751
G1 X64.4814Y54.5800
G1 X64.5115Y54.5854
G1 X64.5472Y54.5937
G1 X64.5738Y54.6010
G1 X64.6027Y54.6104
G1 X64.6371Y54.6232
G1 X64.6666Y54.6360
G1 X64.6977Y54.6511
G1 X64.7260Y54.6666
G1 X64.7557Y54.6847
G1 X64.7831Y54.7032
G1 X64.8115Y54.7245
G1 X64.8334Y54.7424
G1 X64.8588Y54.7653
G1 X64.8823Y54.7883
G1 X64.9066Y54.8147
G1 X64.9276Y54.8398
G1 X64.9469Y54.8652
G1 X64.9666Y54.8936
G1 X64.9846Y54.9225
G1 X64.9983Y54.9467
G1 X65.0127Y54.9749
G1 X65.0258Y55.0037
G1 X65.0381Y55.0340
G1 X65.0498Y55.0677
G1 X65.0591Y55.0993
G1 X65.0676Y55.1338
G1 X65.0736Y55.1651
G1 X65.0784Y55.1972
G1 X65.0819Y55.2315
G1 X65.0835Y55.2597
G1 X65.0840Y55.2858
G1 X65.0840Y57.8280
G1 X65.0830Y57.8626
G1 X65.0801Y57.8997
G1 X65.0753Y57.9368
G1 X65.0697Y57.9679
G1 X65.0640Y57.9937
G1 X65.0559Y58.0244
G1 X65.0473Y58.0520
G1 X65.0375Y58.0795
G1 X65.0258Y58.1085
G1 X65.0132Y58.1360
G1 X65.0015Y58.1593
G1 X64.9884Y58.1830
G1 X64.9739Y58.2071
G1 X64.9579Y58.2314
G1 X64.9395Y58.2569
G1 X64.9232Y58.2777
G1 X64.9045Y58.2996
G1 X64.8824Y58.3236
G1 X64.8611Y58.3446
G1 X64.8404Y58.3635
G1 X64.8194Y58.3812
G1 X64.7989Y58.3972
G1 X64.7744Y58.4149
G1 X64.7491Y58.4315
G1 X64.7240Y58.4466
G1 X64.6998Y58.4598
G1 X64.6700Y58.4744
G1 X64.6465Y58.4849
G1 X64.6186Y58.4959
G1 X64.5894Y58.5061
G1 X64.5641Y58.5138
G1 X64.5349Y58.5214
G1 X64.5061Y58.5277
G1 X64.4818Y58.5320
G1 X64.4515Y58.5362
G1 X64.4235Y58.5389
G1 X64.3953Y58.5405
G1 X64.3692Y58.5410
G1 X14.2840Y58.5410
G1 X14.2840Y59.1430
G1 X64.3690Y59.1430
G1 X64.4061Y59.1440
G1 X64.4340Y59.1460
G1 X64.4618Y59.1491
G1 X64.4899Y59.1534
G1 X64.5193Y59.1590
G1 X64.5489Y59.1661
G1 X64.5740Y59.1731
G1 X64.6015Y59.1819
G1 X64.6310Y59.1928
G1 X64.6552Y59.2028
G1 X64.6831Y59.2158
G1 X64.7087Y59.2289
G1 X64.7311Y59.2416
G1 X64.7557Y59.2567
G1 X64.7777Y59.2714
G1 X64.8043Y59.2909
G1 X64.8267Y59.3087
G1 X64.8455Y59.3251
G1 X64.8698Y59.3477
G1 X64.8888Y59.3672
G1 X64.9085Y59.3889
G1 X64.9279Y59.4121
G1 X64.9462Y59.4362
G1 X64.9611Y59.4573
G1 X64.9758Y59.4800
G1 X64.9902Y59.5041
G1 X65.0040Y59.5294
G1 X65.0178Y59.5577
G1 X65.0281Y59.5810
G1 X65.0390Y59.6085
G1 X65.0493Y59.6381
G1 X65.0568Y59.6629
G1 X65.0643Y59.6918
G1 X65.0725Y59.7308
G1 X65.0790Y59.7740
G1 X65.0824Y59.8108
G1 X65.0840Y59.8527
G1 X65.0840Y61.9370
G1 X69.5744Y61.9370
G1 X69.5663Y61.8982
G1 X69.5599Y61.8550
G1 X69.5562Y61.8118
G1 X69.5550Y61.7749
G1 X69.5550Y60.4176
G1 X69.5558Y60.3897
G1 X69.5578Y60.3599
G1 X69.5608Y60.3316
G1 X69.5651Y60.3025
G1 X69.5730Y60.2630
G1 X69.5832Y60.2235
G1 X69.5949Y60.1868
G1 X69.6106Y60.1457
G1 X69.6276Y60.1083
G1 X69.6454Y60.0741
G1 X69.6678Y60.0366
G1 X69.6889Y60.0055
G1 X69.7150Y59.9713
G1 X69.7435Y59.9383
G1 X69.7712Y59.9098
G1 X69.7999Y59.8834
G1 X69.8316Y59.8573
G1 X69.8649Y59.8329
G1 X69.8971Y59.8120
G1 X69.9353Y59.7902
G1 X69.9727Y59.7718
G1 X70.0084Y59.7566
G1 X70.0501Y59.7417
G1 X70.0884Y59.7305
G1 X70.1281Y59.7213
G1 X70.1730Y59.7137
G1 X70.2146Y59.7092
G1 X70.2547Y59.7072
G1 X73.7550Y59.7070
G1 X73.7550Y24.3070
G1 X8.3830Y24.3070
G1 X8.3828Y24.9582
G1 X8.3809Y24.9961
G1 X8.3772Y25.0323
G1 X8.3712Y25.0709
G1 X8.3637Y25.1068
G1 X64.3690Y25.1070
G1 X64.3955Y25.1075
G1 X64.4241Y25.1092
G1 X64.4514Y25.1118
G1 X64.4791Y25.1156
G1 X64.5045Y25.1200
G1 X64.5309Y25.1257
G1 X64.5581Y25.1325
G1 X64.5860Y25.1408
G1 X64.6375Y25.1594
G1 X64.6626Y25.1702
G1 X64.6882Y25.1823
G1 X64.7325Y25.2064
G1 X64.7578Y25.2220
G1 X64.7821Y25.2385
G1 X64.8052Y25.2556
G1 X64.8258Y25.2720
G1 X64.8669Y25.3089
G1 X64.8844Y25.3265
G1 X64.9048Y25.3487
G1 X64.9232Y25.3703
G1 X64.9380Y25.3891
G1 X64.9556Y25.4133
G1 X64.9693Y25.4337
G1 X64.9854Y25.4599
G1 X64.9981Y25.4823
G1 X65.0112Y25.5079
G1 X65.0242Y25.5358
G1 X65.0342Y25.5600
G1 X65.0439Y25.5861
G1 X65.0519Y25.6105
G1 X65.0592Y25.6357
G1 X65.0659Y25.6626
G1 X65.0715Y25.6889
G1 X65.0773Y25.7248
G1 X65.0808Y25.7552
G1 X65.0832Y25.7884
G1 X65.0840Y25.8194
G1 X65.0840Y28.3185
G1 X67.4228Y30.6588
G1 X67.4473Y30.6855
G1 X67.4684Y30.7108
G1 X67.4908Y30.7405
G1 X67.5096Y30.7681
G1 X67.5287Y30.7995
G1 X67.5447Y30.8289
G1 X67.5609Y30.8625
G1 X67.5748Y30.8955
G1 X67.5860Y30.9263
G1 X67.5948Y30.9540
G1 X67.6037Y30.9874
G1 X67.6097Y31.0141
G1 X67.6150Y31.0436
G1 X67.6198Y31.0788
G1 X67.6223Y31.1083
G1 X67.6239Y31.1422
G1 X67.6240Y33.1887
G1 X67.6232Y33.2213
G1 X67.6208Y33.2553
G1 X67.6174Y33.2841
G1 X67.6125Y33.3152
G1 X67.6074Y33.3409
G1 X67.6002Y33.3708
G1 X67.5923Y33.3985
G1 X67.5841Y33.4232
G1 X67.5733Y33.4523
G1 X67.5616Y33.4801
G1 X67.5489Y33.5068
G1 X67.5362Y33.5312
G1 X67.5195Y33.5599
G1 X67.5057Y33.5818
G1 X67.4887Y33.6064
G1 X67.4701Y33.6310
G1 X67.4519Y33.6532
G1 X67.4330Y33.6744
G1 X67.4147Y33.6935
G1 X64.8731Y36.2350
G1 X64.8503Y36.2567
G1 X64.8252Y36.2785
G1 X64.8010Y36.2976
G1 X64.7721Y36.3185
G1 X64.7465Y36.3351
G1 X64.7159Y36.3532
G1 X64.6883Y36.3677
G1 X64.6600Y36.3810
G1 X64.6307Y36.3933
G1 X64.5973Y36.4055
G1 X64.5669Y36.4150
G1 X64.5348Y36.4234
G1 X64.5021Y36.4305
G1 X64.4687Y36.4359
G1 X64.4366Y36.4397
G1 X64.4079Y36.4419
G1 X64.3692Y36.4430
G1 X13.5690Y36.4430
G1 X13.5188Y36.4412
G1 X13.4861Y36.4381
G1 X13.4496Y36.4329
G1 X13.4174Y36.4267
G1 X13.3836Y36.4185
G1 X13.3519Y36.4092
G1 X13.3194Y36.3979
G1 X13.2892Y36.3859
G1 X13.2587Y36.3721
G1 X13.2298Y36.3574
G1 X13.2056Y36.3436
G1 X13.1766Y36.3257
G1 X13.1482Y36.3059
G1 X13.1228Y36.2866
G1 X13.0977Y36.2656
G1 X13.0711Y36.2411
G1 X13.0476Y36.2171
G1 X13.0244Y36.1912
G1 X13.0045Y36.1668
G1 X12.9854Y36.1410
G1 X12.9671Y36.1138
G1 X12.9491Y36.0841
G1 X12.9335Y36.0555
G1 X12.9176Y36.0227
G1 X12.9048Y35.9924
G1 X12.8928Y35.9602
G1 X12.8830Y35.9293
G1 X12.8737Y35.8942
G1 X12.8670Y35.8634
G1 X12.8609Y35.8267
G1 X12.8572Y35.7953
G1 X12.8548Y35.7616
G1 X12.8540Y35.7299
G1 X12.8540Y33.1852
G1 X12.8550Y33.1513
G1 X12.8579Y33.1142
G1 X12.8627Y33.0772
G1 X12.8683Y33.0460
G1 X12.8740Y33.0204
G1 X12.8821Y32.9897
G1 X12.8907Y32.9620
G1 X12.9004Y32.9347
G1 X12.9105Y32.9095
G1 X12.9208Y32.8866
G1 X12.9340Y32.8595
G1 X12.9490Y32.8320
G1 X12.9635Y32.8079
G1 X12.9785Y32.7849
G1 X12.9978Y32.7580
G1 X13.0138Y32.7376
G1 X13.0331Y32.7148
G1 X13.0539Y32.6922
G1 X13.0726Y32.6735
G1 X13.0937Y32.6540
G1 X13.1132Y32.6372
G1 X13.1358Y32.6193
G1 X13.1605Y32.6013
G1 X13.1826Y32.5865
G1 X13.2094Y32.5701
G1 X13.2343Y32.5563
G1 X13.2576Y32.5445
G1 X13.2855Y32.5317
G1 X13.3130Y32.5205
G1 X13.3393Y32.5110
G1 X13.3651Y32.5028
G1 X13.3896Y32.4960
G1 X13.4173Y32.4893
G1 X13.4434Y32.4842
G1 X13.4758Y32.4792
G1 X13.5044Y32.4760
G1 X13.5370Y32.4737
G1 X13.5688Y32.4730
G1 X63.6540Y32.4730
G1 X63.6540Y31.8710
G1 X13.5690Y31.8710
G1 X13.5348Y31.8701
G1 X13.5066Y31.8682
G1 X13.4773Y31.8650
G1 X13.4485Y31.8607
G1 X13.4198Y31.8552
G1 X13.3892Y31.8479
G1 X13.3643Y31.8410
G1 X13.3369Y31.8322
G1 X13.3081Y31.8216
G1 X13.2835Y31.8114
G1 X13.2554Y31.7985
G1 X13.2297Y31.7853
G1 X13.2080Y31.7730
G1 X13.1826Y31.7575
G1 X13.1606Y31.7428
G1 X13.1357Y31.7246
G1 X13.1123Y31.7061
G1 X13.0927Y31.6891
G1 X13.0685Y31.6665
G1 X13.0493Y31.6469
G1 X13.0304Y31.6261
G1 X13.0103Y31.6021
G1 X12.9920Y31.5781
G1 X12.9775Y31.5576
G1 X12.9625Y31.5346
G1 X12.9478Y31.5100
G1 X12.9341Y31.4847
G1 X12.9202Y31.4562
G1 X12.9099Y31.4329
G1 X12.8991Y31.4056
G1 X12.8889Y31.3764
G1 X12.8812Y31.3511
G1 X12.8737Y31.3223
G1 X12.8655Y31.2832
G1 X12.8590Y31.2400
G1 X12.8556Y31.2032
G1 X12.8540Y31.1613
G1 X12.8540Y29.0770
G1 X8.3636Y29.0770
G1 X8.4749Y29.1720
G1 X8.4761Y29.1868
G1 X8.4780Y29.2414
G1 X8.4780Y30.5940
G1 X8.4760Y30.6476
G1 X8.4711Y30.6973
G1 X8.4633Y30.7455
G1 X8.4524Y30.7935
G1 X8.4406Y30.8350
G1 X8.4254Y30.8790
G1 X8.4076Y30.9221
G1 X8.3874Y30.9641
G1 X8.3661Y31.0025
G1 X8.3396Y31.0447
G1 X8.3124Y31.0826
G1 X8.2847Y31.1171
G1 X8.2517Y31.1535
G1 X8.2195Y31.1851
G1 X8.1842Y31.2161
G1 X8.1451Y31.2465
G1 X8.1085Y31.2717
G1 X8.0689Y31.2958
G1 X8.0272Y31.3179
G1 X7.9817Y31.3387
G1 X7.9330Y31.3573
G1 X7.8882Y31.3714
G1 X7.8399Y31.3835
G1 X7.7932Y31.3922
G1 X7.7419Y31.3986
G1 X7.6904Y31.4017
G1 X4.2780Y31.4020
G1 X4.2780Y66.6120
G1 X69.4600Y66.6120
G1 X69.4600Y66.0691
G1 X69.4608Y66.0358
G1 X69.4631Y66.0023
G1 X13.5687Y66.0020
G1 X13.5327Y66.0012
G1 X13.4958Y65.9986
G1 X13.4603Y65.9946
G1 X13.4235Y65.9888
G1 X13.3889Y65.9817
G1 X13.3544Y65.9730
G1 X13.3216Y65.9632
G1 X13.2864Y65.9510
G1 X13.2383Y65.9314
G1 X13.1909Y65.9083
G1 X13.1437Y65.8813
G1 X13.1003Y65.8525
G1 X13.0583Y65.8206
G1 X13.0174Y65.7851
G1 X12.9804Y65.7484
G1 X12.9449Y65.7082
G1 X12.9108Y65.6639
G1 X12.8822Y65.6213
G1 X12.8560Y65.5762
G1 X12.8312Y65.5261
G1 X12.8117Y65.4791
G1 X12.7947Y65.4295
G1 X12.7802Y65.3756
G1 X12.7700Y65.3244
G1 X12.7654Y65.2930
G1 X12.7619Y65.2603
G1 X12.7598Y65.2276
G1 X12.7590Y65.1946
G1 X12.7590Y62.7356
G1 X10.4450Y60.4193
G1 X10.4176Y60.3892
G1 X10.3928Y60.3592
G1 X10.3677Y60.3256
G1 X10.3440Y60.2901
G1 X10.3222Y60.2535
G1 X10.3043Y60.2196
G1 X10.2863Y60.1812
G1 X10.2716Y60.1449
G1 X10.2604Y60.1135
G1 X10.2503Y60.0808
G1 X10.2410Y60.0452
G1 X10.2338Y60.0120
G1 X10.2287Y59.9821
G1 X10.2237Y59.9442
G1 X10.2209Y59.9119
G1 X10.2192Y59.8758
G1 X10.2190Y57.8248
G1 X10.2199Y57.7870
G1 X10.2226Y57.7502
G1 X10.2269Y57.7141
G1 X10.2335Y57.6739
G1 X10.2412Y57.6380
G1 X10.2516Y57.5986
G1 X10.2622Y57.5653
G1 X10.2761Y57.5275
G1 X10.2907Y57.4929
G1 X10.3079Y57.4573
G1 X10.3253Y57.4250
G1 X10.3440Y57.3938
G1 X10.3643Y57.3632
G1 X10.3883Y57.3305
G1 X10.4109Y57.3026
G1 X10.4370Y57.2732
G1 X13.0073Y54.7024
G1 X13.0397Y54.6729
G1 X13.0718Y54.6466
G1 X13.1068Y54.6209
G1 X13.1404Y54.5988
G1 X13.1771Y54.5772
G1 X13.2140Y54.5580
G1 X13.2535Y54.5400
G1 X13.2946Y54.5240
G1 X13.2472Y54.5053
G1 X13.1972Y54.4816
G1 X13.1735Y54.4688
G1 X13.1480Y54.4539
G1 X13.1062Y54.4267
G1 X13.0612Y54.3930
G1 X13.0200Y54.3574
G1 X12.9816Y54.3196
G1 X12.9469Y54.2806
G1 X12.9127Y54.2365
G1 X12.8832Y54.1929
G1 X12.8563Y54.1467
G1 X12.8314Y54.0967
G1 X12.8117Y54.0491
G1 X12.7947Y53.9995
G1 X12.7801Y53.9456
G1 X12.7699Y53.8938
G1 X12.7653Y53.8626
G1 X12.7619Y53.8301
G1 X12.7598Y53.7976
G1 X12.7590Y53.7643
G1 X12.7590Y51.2161
G1 X12.7599Y51.1843
G1 X12.7621Y51.1514
G1 X12.7656Y51.1196
G1 X12.7704Y51.0868
G1 X12.7768Y51.0534
G1 X12.7846Y51.0205
G1 X12.7922Y50.9927
G1 X12.8015Y50.9633
G1 X12.8123Y50.9333
G1 X12.8239Y50.9045
G1 X12.8391Y50.8710
G1 X12.8524Y50.8444
G1 X12.8678Y50.8167
G1 X12.8866Y50.7858
G1 X12.9028Y50.7614
G1 X12.9214Y50.7356
G1 X12.9399Y50.7119
G1 X12.9599Y50.6881
G1 X12.9815Y50.6645
G1 X13.0053Y50.6404
G1 X13.0302Y50.6173
G1 X13.0528Y50.5979
G1 X13.0781Y50.5778
G1 X13.1054Y50.5578
G1 X13.1310Y50.5407
G1 X13.1596Y50.5232
G1 X13.1843Y50.5093
G1 X13.2111Y50.4954
G1 X13.2391Y50.4823
G1 X13.2691Y50.4696
G1 X13.3021Y50.4573
G1 X13.3295Y50.4483
G1 X13.3578Y50.4401
G1 X13.3869Y50.4328
G1 X13.4156Y50.4267
G1 X13.4440Y50.4218
G1 X13.4755Y50.4175
G1 X13.5064Y50.4145
G1 X13.5387Y50.4126
G1 X13.5687Y50.4120
G1 X63.5590Y50.4120
G1 X63.5590Y50.0000
G1 X13.5690Y50.0000
G1 X13.5327Y49.9992
G1 X13.4958Y49.9966
G1 X13.4600Y49.9925
G1 X13.4215Y49.9864
G1 X13.3855Y49.9789
G1 X13.3475Y49.9691
G1 X13.3116Y49.9580
G1 X13.2743Y49.9444
G1 X13.2440Y49.9319
G1 X13.2093Y49.9157
G1 X13.1761Y49.8983
G1 X13.1415Y49.8779
G1 X13.1102Y49.8575
G1 X13.0810Y49.8364
G1 X13.0504Y49.8122
G1 X13.0217Y49.7870
G1 X12.9982Y49.7647
G1 X12.9732Y49.7386
G1 X12.9497Y49.7120
G1 X12.9266Y49.6832
G1 X12.9035Y49.6517
G1 X12.8830Y49.6205
G1 X12.8649Y49.5903
G1 X12.8472Y49.5575
G1 X12.8300Y49.5215
G1 X12.8153Y49.4867
G1 X12.8017Y49.4494
G1 X12.7909Y49.4149
G1 X12.7810Y49.3772
G1 X12.7734Y49.3416
G1 X12.7667Y49.3008
G1 X12.7626Y49.2657
G1 X12.7599Y49.2278
G1 X12.7590Y49.1911
G1 X12.7590Y46.6450
G1 X12.7602Y46.6052
G1 X12.7638Y46.5627
G1 X12.7699Y46.5183
G1 X12.7772Y46.4794
G1 X12.7851Y46.4465
G1 X12.7930Y46.4179
G1 X12.8030Y46.3868
G1 X12.8148Y46.3548
G1 X12.8265Y46.3263
G1 X12.8407Y46.2956
G1 X12.8534Y46.2706
G1 X12.8690Y46.2427
G1 X12.8866Y46.2138
G1 X12.9023Y46.1900
G1 X12.9226Y46.1620
G1 X12.9409Y46.1386
G1 X12.9620Y46.1137
G1 X12.9853Y46.0885
G1 X13.0065Y46.0672
G1 X13.0302Y46.0453
G1 X13.0528Y46.0259
G1 X13.0781Y46.0058
G1 X13.1059Y45.9855
G1 X13.1308Y45.9688
G1 X13.1598Y45.9510
G1 X13.1848Y45.9370
G1 X13.2135Y45.9223
G1 X13.2447Y45.9078
G1 X13.2729Y45.8961
G1 X13.3046Y45.8845
G1 X13.3315Y45.8757
G1 X13.3623Y45.8669
G1 X13.3951Y45.8590
G1 X13.4231Y45.8533
G1 X13.4570Y45.8479
G1 X13.4865Y45.8443
G1 X13.5296Y45.8410
G1 X13.5687Y45.8400
G1 X64.3690Y45.8400
G1 X64.4143Y45.8413
G1 X64.4511Y45.8442
G1 X64.4829Y45.8482
G1 X64.5205Y45.8544
G1 X64.5576Y45.8623
G1 X64.5933Y45.8717
G1 X64.6281Y45.8826
G1 X64.6653Y45.8962
G1 X64.6991Y45.9104
G1 X64.7315Y45.9257
G1 X64.7637Y45.9427
G1 X64.7976Y45.9627
G1 X64.8279Y45.9826
G1 X64.8593Y46.0054
G1 X64.8871Y46.0274
G1 X64.9152Y46.0519
G1 X64.9413Y46.0768
G1 X67.4818Y48.6172
G1 X67.5079Y48.6447
G1 X67.5296Y48.6695
G1 X67.5507Y48.6959
G1 X67.5704Y48.7225
G1 X67.5902Y48.7518
G1 X67.6089Y48.7824
G1 X67.6251Y48.8116
G1 X67.6388Y48.8387
G1 X67.6542Y48.8726
G1 X67.6669Y48.9043
G1 X67.6792Y48.9394
G1 X67.6883Y48.9692
G1 X67.6969Y49.0025
G1 X67.7040Y49.0350
G1 X67.7092Y49.0648
G1 X67.7139Y49.0994
G1 X67.7170Y49.1343
G1 X67.7190Y49.1897
G1 X67.7190Y51.2220
G1 X67.7184Y51.2534
G1 X67.7147Y51.3044
G1 X67.7086Y51.3511
G1 X67.7001Y51.3958
G1 X67.6875Y51.4455
G1 X67.6737Y51.4888
G1 X67.6555Y51.5363
G1 X67.6348Y51.5814
G1 X67.6127Y51.6230
G1 X67.5850Y51.6682
G1 X67.5536Y51.7124
G1 X67.5218Y51.7516
G1 X67.4855Y51.7910
G1 X64.9361Y54.3403
G1 X64.9029Y54.3711
G1 X64.8717Y54.3971
G1 X64.8366Y54.4233
G1 X64.7998Y54.4478
G1 X64.7617Y54.4704
G1 X64.7245Y54.4897
G1 X64.6845Y54.5080
G1 X64.6434Y54.5240
G1 X64.6908Y54.5427
G1 X64.7408Y54.5664
G1 X64.7644Y54.5792
G1 X64.7900Y54.5941
G1 X64.8320Y54.6215
G1 X64.8770Y54.6552
G1 X64.9189Y54.6914
G1 X64.9568Y54.7288
G1 X64.9920Y54.7685
G1 X65.0257Y54.8119
G1 X65.0551Y54.8556
G1 X65.0818Y54.9014
G1 X65.1069Y54.9520
G1 X65.1269Y55.0005
G1 X65.1449Y55.0538
G1 X65.1586Y55.1056
G1 X65.1685Y55.1568
G1 X65.1733Y55.1902
G1 X65.1761Y55.2183
G1 X65.1782Y55.2507
G1 X65.1790Y55.2837
G1 X65.1786Y57.8504
G1 X65.1768Y57.8853
G1 X65.1737Y57.9182
G1 X65.1686Y57.9550
G1 X65.1625Y57.9885
G1 X65.1558Y58.0180
G1 X65.1459Y58.0552
G1 X65.1359Y58.0865
G1 X65.1234Y58.1207
G1 X65.1114Y58.1497
G1 X65.0966Y58.1817
G1 X65.0813Y58.2115
G1 X65.0661Y58.2383
G1 X65.0483Y58.2671
G1 X65.0284Y58.2962
G1 X65.0054Y58.3270
G1 X64.9851Y58.3518
G1 X64.9603Y58.3795
G1 X64.9375Y58.4029
G1 X64.9093Y58.4294
G1 X64.8865Y58.4491
G1 X64.8597Y58.4704
G1 X64.8297Y58.4922
G1 X64.8011Y58.5111
G1 X64.7729Y58.5280
G1 X64.7412Y58.5454
G1 X64.7097Y58.5607
G1 X64.6818Y58.5731
G1 X64.6503Y58.5855
G1 X64.6163Y58.5973
G1 X64.5836Y58.6070
G1 X64.5497Y58.6155
G1 X64.5166Y58.6224
G1 X64.4781Y58.6285
G1 X64.4429Y58.6326
G1 X64.4057Y58.6351
G1 X64.3693Y58.6360
G1 X14.3790Y58.6360
G1 X14.3790Y59.0480
G1 X64.3690Y59.0480
G1 X64.4115Y59.0492
G1 X64.4427Y59.0514
G1 X64.4734Y59.0548
G1 X64.5054Y59.0596
G1 X64.5374Y59.0658
G1 X64.5711Y59.0737
G1 X64.5983Y59.0812
G1 X64.6277Y59.0905
G1 X64.6585Y59.1016
G1 X64.6895Y59.1141
G1 X64.7200Y59.1281
G1 X64.7455Y59.1409
G1 X64.7723Y59.1556
G1 X64.7995Y59.1719
G1 X64.8253Y59.1888
G1 X64.8552Y59.2103
G1 X64.8770Y59.2272
G1 X64.9005Y59.2468
G1 X64.9238Y59.2680
G1 X64.9459Y59.2895
G1 X64.9659Y59.3106
G1 X64.9877Y59.3353
G1 X65.0084Y59.3608
G1 X65.0283Y59.3875
G1 X65.0462Y59.4136
G1 X65.0612Y59.4376
G1 X65.0795Y59.4691
G1 X65.0939Y59.4967
G1 X65.1075Y59.5254
G1 X65.1195Y59.5535
G1 X65.1297Y59.5801
G1 X65.1406Y59.6119
G1 X65.1501Y59.6437
G1 X65.1624Y59.6953
G1 X65.1713Y59.7472
G1 X65.1766Y59.7965
G1 X65.1789Y59.8472
G1 X65.1790Y61.8420
G1 X69.4631Y61.8420
G1 X69.4608Y61.8076
G1 X69.4600Y61.7731
G1 X69.4600Y60.4161
G1 X69.4612Y60.3791
G1 X69.4644Y60.3379
G1 X69.4699Y60.2965
G1 X69.4762Y60.2613
G1 X69.4868Y60.2159
G1 X69.4986Y60.1751
G1 X69.5137Y60.1322
G1 X69.5310Y60.0906
G1 X69.5504Y60.0503
G1 X69.5711Y60.0127
G1 X69.5950Y59.9743
G1 X69.6232Y59.9346
G1 X69.6511Y59.8996
G1 X69.6811Y59.8659
G1 X69.7126Y59.8344
G1 X69.7453Y59.8050
G1 X69.7772Y59.7792
G1 X69.8150Y59.7519
G1 X69.8491Y59.7301
G1 X69.8911Y59.7062
G1 X69.9330Y59.6855
G1 X69.9737Y59.6682
G1 X70.0200Y59.6516
G1 X70.0633Y59.6389
G1 X70.1089Y59.6282
G1 X70.1578Y59.6199
G1 X70.2019Y59.6149
G1 X70.2488Y59.6123
G1 X73.6600Y59.6120
G1 X73.6600Y24.4020
G1 X8.4780Y24.4020
G1 X8.4780Y24.9449
G1 X8.4772Y24.9782
G1 X8.4749Y25.0116
G1 X64.3690Y25.0120
G1 X64.3990Y25.0126
G1 X64.4313Y25.0145
G1 X64.4612Y25.0173
G1 X64.4927Y25.0216
G1 X64.5211Y25.0265
G1 X64.5513Y25.0328
G1 X64.5821Y25.0406
G1 X64.6117Y25.0493
G1 X64.6374Y25.0579
G1 X64.6715Y25.0707
G1 X64.6997Y25.0826
G1 X64.7274Y25.0957
G1 X64.7542Y25.1095
G1 X64.7781Y25.1230
G1 X64.8064Y25.1403
G1 X64.8308Y25.1566
G1 X64.8580Y25.1764
G1 X64.8796Y25.1932
G1 X64.9022Y25.2123
G1 X64.9261Y25.2341
G1 X64.9496Y25.2573
G1 X64.9722Y25.2816
G1 X64.9907Y25.3029
G1 X65.0088Y25.3253
G1 X65.0281Y25.3513
G1 X65.0449Y25.3758
G1 X65.0601Y25.3996
G1 X65.0765Y25.4277
G1 X65.0905Y25.4540
G1 X65.1049Y25.4836
G1 X65.1160Y25.5090
G1 X65.1271Y25.5368
G1 X65.1372Y25.5653
G1 X65.1464Y25.5946
G1 X65.1535Y25.6206
G1 X65.1618Y25.6561
G1 X65.1688Y25.6942
G1 X65.1744Y25.7360
G1 X65.1778Y25.7781
G1 X65.1790Y25.8171
G1 X65.1790Y28.2791
G1 X67.4926Y30.5943
G1 X67.5198Y30.6240
G1 X67.5439Y30.6531
G1 X67.5683Y30.6855
G1 X67.5902Y30.7178
G1 X67.6110Y30.7521
G1 X67.6293Y30.7856
G1 X67.6474Y30.8232
G1 X67.6628Y30.8597
G1 X67.6758Y30.8952
G1 X67.6858Y30.9268
G1 X67.6959Y30.9643
G1 X67.7028Y30.9949
G1 X67.7088Y31.0284
G1 X67.7139Y31.0660
G1 X67.7170Y31.1006
G1 X67.7188Y31.1386
G1 X67.7190Y33.1889
G1 X67.7181Y33.2261
G1 X67.7153Y33.2647
G1 X67.7115Y33.2973
G1 X67.7058Y33.3335
G1 X67.6989Y33.3669
G1 X67.6912Y33.3980
G1 X67.6816Y33.4310
G1 X67.6700Y33.4652
G1 X67.6591Y33.4935
G1 X67.6467Y33.5224
G1 X67.6309Y33.5552
G1 X67.6164Y33.5824
G1 X67.5983Y33.6133
G1 X67.5799Y33.6417
G1 X67.5624Y33.6665
G1 X67.5394Y33.6966
G1 X67.5187Y33.7212
G1 X67.4948Y33.7474
G1 X64.9307Y36.3116
G1 X64.8983Y36.3411
G1 X64.8661Y36.3674
G1 X64.8312Y36.3931
G1 X64.7976Y36.4152
G1 X64.7609Y36.4368
G1 X64.7240Y36.4560
G1 X64.6845Y36.4740
G1 X64.6434Y36.4900
G1 X64.6908Y36.5087
G1 X64.7408Y36.5324
G1 X64.7644Y36.5452
G1 X64.7900Y36.5601
G1 X64.8320Y36.5875
G1 X64.8770Y36.6212
G1 X64.9189Y36.6574
G1 X64.9568Y36.6948
G1 X64.9920Y36.7345
G1 X65.0257Y36.7779
G1 X65.0551Y36.8216
G1 X65.0818Y36.8674
G1 X65.1069Y36.9180
G1 X65.1269Y36.9665
G1 X65.1449Y37.0198
G1 X65.1586Y37.0716
G1 X65.1685Y37.1228
G1 X65.1733Y37.1562
G1 X65.1761Y37.1843
G1 X65.1782Y37.2167
G1 X65.1790Y37.2497
G1 X65.1790Y39.7920
G1 X65.1784Y39.8225
G1 X65.1761Y39.8596
G1 X65.1726Y39.8932
G1 X65.1675Y39.9278
G1 X65.1608Y39.9624
G1 X65.1521Y39.9987
G1 X65.1427Y40.0317
G1 X65.1299Y40.0695
G1 X65.1185Y40.0989
G1 X65.1047Y40.1307
G1 X65.0872Y40.1665
G1 X65.0706Y40.1966
G1 X65.0513Y40.2284
G1 X65.0332Y40.2555
G1 X65.0104Y40.2865
G1 X64.9883Y40.3140
G1 X64.9659Y40.3394
G1 X64.9439Y40.3625
G1 X64.9190Y40.3866
G1 X64.8915Y40.4109
G1 X64.8634Y40.4335
G1 X64.8364Y40.4534
G1 X64.8070Y40.4733
G1 X64.7741Y40.4933
G1 X64.7448Y40.5095
G1 X64.7105Y40.5264
G1 X64.6820Y40.5390
G1 X64.6503Y40.5515
G1 X64.6149Y40.5637
G1 X64.5819Y40.5735
G1 X64.5477Y40.5820
G1 X64.5144Y40.5888
G1 X64.4781Y40.5945
G1 X64.4253Y40.6000
G1 X64.3693Y40.6020
G1 X14.3790Y40.6020
G1 X14.3790Y41.0140
G1 X64.3690Y41.0140
G1 X64.4053Y41.0148
G1 X64.4420Y41.0174
G1 X64.4780Y41.0215
G1 X64.5163Y41.0276
G1 X64.5516Y41.0349
G1 X64.5891Y41.0445
G1 X64.6244Y41.0554
G1 X64.6585Y41.0676
G1 X64.6908Y41.0807
G1 X64.7247Y41.0964
G1 X64.7575Y41.1133
G1 X64.7906Y41.1325
G1 X64.8210Y41.1519
G1 X64.8472Y41.1703
G1 X64.8770Y41.1932
G1 X64.9051Y41.2169
G1 X64.9335Y41.2432
G1 X64.9598Y41.2700
G1 X64.9856Y41.2988
G1 X65.0082Y41.3267
G1 X65.0300Y41.3559
G1 X65.0502Y41.3858
G1 X65.0703Y41.4188
G1 X65.0871Y41.4494
G1 X65.1048Y41.4856
G1 X65.1190Y41.5182
G1 X65.1332Y41.5557
G1 X65.1433Y41.5862
G1 X65.1529Y41.6204
G1 X65.1620Y41.6593
G1 X65.1685Y41.6948
G1 X65.1738Y41.7325
G1 X65.1770Y41.7677
G1 X65.1788Y41.8057
G1 X65.1790Y44.3672
G1 X65.1780Y44.4028
G1 X65.1753Y44.4405
G1 X65.1711Y44.4760
G1 X65.1646Y44.5156
G1 X65.1585Y44.5447
G1 X65.1512Y44.5740
G1 X65.1431Y44.6023
G1 X65.1346Y44.6284
G1 X65.1233Y44.6589
G1 X65.1129Y44.6843
G1 X65.0989Y44.7150
G1 X65.0869Y44.7390
G1 X65.0724Y44.7656
G1 X65.0569Y44.7915
G1 X65.0407Y44.8165
G1 X65.0256Y44.8382
G1 X65.0086Y44.8608
G1 X64.9900Y44.8840
G1 X64.9726Y44.9040
G1 X64.9492Y44.9291
G1 X64.9300Y44.9482
G1 X64.9057Y44.9705
G1 X64.8854Y44.9880
G1 X64.8622Y45.0064
G1 X64.8378Y45.0245
G1 X64.8133Y45.0412
G1 X64.7907Y45.0555
G1 X64.7615Y45.0725
G1 X64.7365Y45.0858
G1 X64.7074Y45.0999
G1 X64.6826Y45.1108
G1 X64.6555Y45.1216
G1 X64.6264Y45.1319
G1 X64.5984Y45.1408
G1 X64.5411Y45.1554
G1 X64.5008Y45.1631
G1 X64.4558Y45.1693
G1 X64.4109Y45.1729
G1 X64.3693Y45.1740
G1 X13.5690Y45.1740
G1 X13.5412Y45.1735
G1 X13.5126Y45.1720
G1 X13.4783Y45.1688
G1 X13.4435Y45.1641
G1 X13.4137Y45.1589
G1 X13.3810Y45.1518
G1 X13.3480Y45.1432
G1 X13.3183Y45.1341
G1 X13.2833Y45.1219
G1 X13.2515Y45.1091
G1 X13.2172Y45.0935
G1 X13.1901Y45.0799
G1 X13.1609Y45.0636
G1 X13.1298Y45.0445
G1 X13.1011Y45.0251
G1 X13.0745Y45.0054
G1 X13.0484Y44.9845
G1 X13.0236Y44.9628
G1 X12.9964Y44.9369
G1 X10.4527Y42.3932
G1 X10.4269Y42.3657
G1 X10.4001Y42.3344
G1 X10.3747Y42.3014
G1 X10.3541Y42.2718
G1 X10.3319Y42.2364
G1 X10.3159Y42.2080
G1 X10.2995Y42.1759
G1 X10.2819Y42.1368
G1 X10.2687Y42.1032
G1 X10.2553Y42.0637
G1 X10.2454Y42.0288
G1 X10.2359Y41.9881
G1 X10.2292Y41.9516
G1 X10.2237Y41.9102
G1 X10.2203Y41.8685
G1 X10.2191Y41.8322
G1 X10.2190Y39.7920
G1 X10.2198Y39.7554
G1 X10.2236Y39.7061
G1 X10.2302Y39.6583
G1 X10.2394Y39.6117
G1 X10.2516Y39.5646
G1 X10.2649Y39.5236
G1 X10.2837Y39.4750
G1 X10.3042Y39.4305
G1 X10.3267Y39.3885
G1 X10.3537Y39.3448
G1 X10.3847Y39.3012
G1 X10.4163Y39.2623
G1 X10.4525Y39.2230
G1 X13.0019Y36.6737
G1 X13.0351Y36.6430
G1 X13.0663Y36.6169
G1 X13.1014Y36.5907
G1 X13.1381Y36.5662
G1 X13.1763Y36.5436
G1 X13.2134Y36.5243
G1 X13.2535Y36.5060
G1 X13.2946Y36.4900
G1 X13.2472Y36.4713
G1 X13.1972Y36.4476
G1 X13.1735Y36.4348
G1 X13.1480Y36.4199
G1 X13.1062Y36.3927
G1 X13.0612Y36.3590
G1 X13.0200Y36.3234
G1 X12.9816Y36.2856
G1 X12.9467Y36.2465
G1 X12.9127Y36.2025
G1 X12.8832Y36.1589
G1 X12.8562Y36.1125
G1 X12.8314Y36.0625
G1 X12.8111Y36.0137
G1 X12.7932Y35.9608
G1 X12.7798Y35.9101
G1 X12.7698Y35.8596
G1 X12.7653Y35.8286
G1 X12.7619Y35.7961
G1 X12.7598Y35.7636
G1 X12.7590Y35.7303
G1 X12.7591Y33.1751
G1 X12.7602Y33.1451
G1 X12.7627Y33.1111
G1 X12.7665Y33.0790
G1 X12.7719Y33.0441
G1 X12.7780Y33.0140
G1 X12.7866Y32.9788
G1 X12.7952Y32.9486
G1 X12.8047Y32.9202
G1 X12.8164Y32.8887
G1 X12.8291Y32.8585
G1 X12.8434Y32.8281
G1 X12.8585Y32.7992
G1 X12.8770Y32.7671
G1 X12.8930Y32.7418
G1 X12.9109Y32.7159
G1 X12.9326Y32.6870
G1 X12.9525Y32.6627
G1 X12.9754Y32.6370
G1 X12.9982Y32.6134
G1 X13.0190Y32.5935
G1 X13.0439Y32.5714
G1 X13.0675Y32.5520
G1 X13.0971Y32.5298
G1 X13.1240Y32.5113
G1 X13.1484Y32.4959
G1 X13.1804Y32.4774
G1 X13.2080Y32.4630
G1 X13.2381Y32.4488
G1 X13.2694Y32.4355
G1 X13.3013Y32.4236
G1 X13.3295Y32.4143
G1 X13.3597Y32.4056
G1 X13.4136Y32.3931
G1 X13.4645Y32.3848
G1 X13.5147Y32.3799
G1 X13.5687Y32.3780
G1 X63.5590Y32.3780
G1 X63.5590Y31.9660
G1 X13.5690Y31.9660
G1 X13.5300Y31.9650
G1 X13.4986Y31.9629
G1 X13.4669Y31.9595
G1 X13.4352Y31.9548
G1 X13.4037Y31.9489
G1 X13.3768Y31.9428
G1 X13.3410Y31.9332
G1 X13.3116Y31.9239
G1 X13.2808Y31.9129
G1 X13.2530Y31.9018
G1 X13.2270Y31.8901
G1 X13.1968Y31.8754
G1 X13.1669Y31.8591
G1 X13.1397Y31.8428
G1 X13.1134Y31.8257
G1 X13.0905Y31.8094
G1 X13.0616Y31.7873
G1 X13.0378Y31.7674
G1 X13.0144Y31.7463
G1 X12.9921Y31.7245
G1 X12.9722Y31.7035
G1 X12.9502Y31.6786
G1 X12.9297Y31.6533
G1 X12.9099Y31.6267
G1 X12.8919Y31.6005
G1 X12.8769Y31.5766
G1 X12.8585Y31.5449
G1 X12.8442Y31.5175
G1 X12.8306Y31.4888
G1 X12.8184Y31.4604
G1 X12.8082Y31.4338
G1 X12.7973Y31.4021
G1 X12.7881Y31.3708
G1 X12.7759Y31.3201
G1 X12.7669Y31.2680
G1 X12.7614Y31.2178
G1 X12.7591Y31.1667
G1 X12.7590Y29.1720
G1 X8.4749Y29.1720
G1 X8.5730Y29.2670
G1 X8.5730Y30.5986
G1 X8.5720Y30.6332
G1 X8.5696Y30.6697
G1 X8.5658Y30.7050
G1 X8.5609Y30.7393
G1 X8.5518Y30.7865
G1 X8.5387Y30.8386
G1 X8.5247Y30.8835
G1 X8.5067Y30.9318
G1 X8.4882Y30.9743
G1 X8.4638Y31.0229
G1 X8.4382Y31.0670
G1 X8.4114Y31.1081
G1 X8.3824Y31.1474
G1 X8.3506Y31.1861
G1 X8.3165Y31.2232
G1 X8.2808Y31.2579
G1 X8.2400Y31.2932
G1 X8.1994Y31.3244
G1 X8.1592Y31.3520
G1 X8.1153Y31.3787
G1 X8.0692Y31.4031
G1 X8.0184Y31.4264
G1 X7.9644Y31.4470
G1 X7.9145Y31.4627
G1 X7.8605Y31.4762
G1 X7.8096Y31.4858
G1 X7.7525Y31.4930
G1 X7.6960Y31.4966
G1 X4.3730Y31.4970
G1 X4.3730Y66.5170
G1 X69.3650Y66.5170
G1 X69.3650Y66.1005
G1 X13.5686Y66.0970
G1 X13.5283Y66.0961
G1 X13.4872Y66.0932
G1 X13.4478Y66.0888
G1 X13.4066Y66.0823
G1 X13.3678Y66.0743
G1 X13.3292Y66.0646
G1 X13.2924Y66.0536
G1 X13.2533Y66.0401
G1 X13.1996Y66.0181
G1 X13.1469Y65.9925
G1 X13.1201Y65.9778
G1 X13.0942Y65.9624
G1 X13.0463Y65.9307
G1 X12.9991Y65.8949
G1 X12.9541Y65.8559
G1 X12.9128Y65.8151
G1 X12.8749Y65.7726
G1 X12.8549Y65.7478
G1 X12.8378Y65.7251
G1 X12.8064Y65.6792
G1 X12.7751Y65.6263
G1 X12.7483Y65.5731
G1 X12.7266Y65.5227
G1 X12.7066Y65.4661
G1 X12.6981Y65.4378
G1 X12.6899Y65.4067
G1 X12.6787Y65.3543
G1 X12.6723Y65.3137
G1 X12.6679Y65.2750
G1 X12.6650Y65.2346
G1 X12.6640Y65.1961
G1 X12.6640Y62.7749
G1 X10.3754Y60.4839
G1 X10.3446Y60.4500
G1 X10.3178Y60.4176
G1 X10.2901Y60.3804
G1 X10.2638Y60.3411
G1 X10.2396Y60.3004
G1 X10.2197Y60.2629
G1 X10.1996Y60.2200
G1 X10.1835Y60.1806
G1 X10.1707Y60.1448
G1 X10.1592Y60.1077
G1 X10.1489Y60.0684
G1 X10.1409Y60.0319
G1 X10.1349Y59.9973
G1 X10.1294Y59.9561
G1 X10.1262Y59.9203
G1 X10.1243Y59.8816
G1 X10.1240Y57.8237
G1 X10.1251Y57.7824
G1 X10.1280Y57.7420
G1 X10.1326Y57.7023
G1 X10.1397Y57.6584
G1 X10.1479Y57.6199
G1 X10.1589Y57.5774
G1 X10.1707Y57.5393
G1 X10.1842Y57.5016
G1 X10.1995Y57.4642
G1 X10.2181Y57.4243
G1 X10.2370Y57.3882
G1 X10.2583Y57.3518
G1 X10.2812Y57.3164
G1 X10.3062Y57.2816
G1 X10.3314Y57.2496
G1 X10.3564Y57.2206
G1 X10.3889Y57.1862
G1 X12.9317Y54.6434
G1 X12.9648Y54.6123
G1 X13.0021Y54.5806
G1 X13.0420Y54.5503
G1 X13.0809Y54.5240
G1 X13.0416Y54.4973
G1 X13.0003Y54.4659
G1 X12.9651Y54.4359
G1 X12.9259Y54.3987
G1 X12.8913Y54.3617
G1 X12.8608Y54.3253
G1 X12.8310Y54.2856
G1 X12.8034Y54.2445
G1 X12.7776Y54.2009
G1 X12.7551Y54.1576
G1 X12.7343Y54.1117
G1 X12.7154Y54.0625
G1 X12.7006Y54.0165
G1 X12.6877Y53.9676
G1 X12.6784Y53.9227
G1 X12.6710Y53.8741
G1 X12.6660Y53.8212
G1 X12.6640Y53.7634
G1 X12.6640Y51.2220
G1 X12.6652Y51.1759
G1 X12.6677Y51.1410
G1 X12.6713Y51.1076
G1 X12.6765Y51.0727
G1 X12.6828Y51.0388
G1 X12.6896Y51.0085
G1 X12.6994Y50.9715
G1 X12.7086Y50.9416
G1 X12.7209Y50.9063
G1 X12.7339Y50.8734
G1 X12.7463Y50.8450
G1 X12.7626Y50.8114
G1 X12.7777Y50.7829
G1 X12.7965Y50.7507
G1 X12.8136Y50.7237
G1 X12.8326Y50.6960
G1 X12.8537Y50.6677
G1 X12.8743Y50.6421
G1 X12.8953Y50.6179
G1 X12.9202Y50.5911
G1 X12.9466Y50.5651
G1 X12.9733Y50.5408
G1 X12.9989Y50.5192
G1 X13.0241Y50.4995
G1 X13.0541Y50.4778
G1 X13.0812Y50.4598
G1 X13.1122Y50.4409
G1 X13.1392Y50.4256
G1 X13.1694Y50.4101
G1 X13.2008Y50.3954
G1 X13.2336Y50.3815
G1 X13.2695Y50.3681
G1 X13.2989Y50.3583
G1 X13.3312Y50.3489
G1 X13.3651Y50.3403
G1 X13.3976Y50.3334
G1 X13.4294Y50.3279
G1 X13.4644Y50.3231
G1 X13.4990Y50.3198
G1 X13.5349Y50.3177
G1 X13.5686Y50.3170
G1 X63.4640Y50.3170
G1 X63.4640Y50.0950
G1 X13.5690Y50.0950
G1 X13.5283Y50.0941
G1 X13.4872Y50.0912
G1 X13.4471Y50.0867
G1 X13.4042Y50.0798
G1 X13.3639Y50.0714
G1 X13.3217Y50.0605
G1 X13.2814Y50.0480
G1 X13.2401Y50.0331
G1 X13.2058Y50.0189
G1 X13.1673Y50.0009
G1 X13.1299Y49.9813
G1 X13.0916Y49.9587
G1 X13.0585Y49.9372
G1 X13.0240Y49.9124
G1 X12.9897Y49.8852
G1 X12.9579Y49.8573
G1 X12.9312Y49.8319
G1 X12.9031Y49.8028
G1 X12.8755Y49.7714
G1 X12.8511Y49.7409
G1 X12.8248Y49.7049
G1 X12.8023Y49.6708
G1 X12.7799Y49.6330
G1 X12.7623Y49.6001
G1 X12.7433Y49.5602
G1 X12.7267Y49.5209
G1 X12.7118Y49.4800
G1 X12.6996Y49.4411
G1 X12.6885Y49.3990
G1 X12.6800Y49.3591
G1 X12.6726Y49.3141
G1 X12.6680Y49.2747
G1 X12.6650Y49.2323
G1 X12.6640Y49.1914
G1 X12.6640Y46.6434
G1 X12.6657Y46.5948
G1 X12.6702Y46.5445
G1 X12.6781Y46.4912
G1 X12.6878Y46.4442
G1 X12.6964Y46.4103
G1 X12.7066Y46.3758
G1 X12.7193Y46.3389
G1 X12.7310Y46.3084
G1 X12.7450Y46.2759
G1 X12.7622Y46.2401
G1 X12.7777Y46.2109
G1 X12.7952Y46.1808
G1 X12.8129Y46.1528
G1 X12.8324Y46.1244
G1 X12.8535Y46.0960
G1 X12.8752Y46.0690
G1 X12.8953Y46.0459
G1 X12.9227Y46.0166
G1 X12.9472Y45.9926
G1 X12.9725Y45.9695
G1 X12.9987Y45.9474
G1 X13.0247Y45.9271
G1 X13.0549Y45.9053
G1 X13.0859Y45.8848
G1 X13.1173Y45.8658
G1 X13.1468Y45.8496
G1 X13.1755Y45.8351
G1 X13.2092Y45.8197
G1 X13.2397Y45.8071
G1 X13.2747Y45.7943
G1 X13.3087Y45.7833
G1 X13.3388Y45.7749
G1 X13.3744Y45.7662
G1 X13.4060Y45.7599
G1 X13.4436Y45.7538
G1 X13.4767Y45.7498
G1 X13.5246Y45.7461
G1 X13.5687Y45.7450
G1 X64.3690Y45.7450
G1 X64.4276Y45.7470
G1 X64.4694Y45.7506
G1 X64.5091Y45.7560
G1 X64.5487Y45.7631
G1 X64.5839Y45.7710
G1 X64.6236Y45.7816
G1 X64.6629Y45.7941
G1 X64.7026Y45.8088
G1 X64.7408Y45.8250
G1 X64.7792Y45.8434
G1 X64.8113Y45.8605
G1 X64.8483Y45.8824
G1 X64.8823Y45.9047
G1 X64.9167Y45.9296
G1 X64.9479Y45.9545
G1 X64.9791Y45.9817
G1 X65.0084Y46.0095
G1 X67.5489Y48.5501
G1 X67.5807Y48.5835
G1 X67.6044Y48.6110
G1 X67.6269Y48.6390
G1 X67.6508Y48.6717
G1 X67.6701Y48.7005
G1 X67.6909Y48.7344
G1 X67.7087Y48.7664
G1 X67.7241Y48.7969
G1 X67.7404Y48.8327
G1 X67.7546Y48.8678
G1 X67.7676Y48.9041
G1 X67.7788Y48.9403
G1 X67.7885Y48.9770
G1 X67.7959Y49.0102
G1 X67.8025Y49.0467
G1 X67.8078Y49.0851
G1 X67.8113Y49.1215
G1 X67.8134Y49.1564
G1 X67.8140Y49.1896
G1 X67.8140Y51.2220
G1 X67.8133Y51.2576
G1 X67.8093Y51.3134
G1 X67.8027Y51.3637
G1 X67.7938Y51.4121
G1 X67.7815Y51.4620
G1 X67.7665Y51.5112
G1 X67.7479Y51.5615
G1 X67.7250Y51.6131
G1 X67.7031Y51.6559
G1 X67.6881Y51.6822
G1 X67.6691Y51.7131
G1 X67.6519Y51.7387
G1 X67.6324Y51.7656
G1 X67.6138Y51.7896
G1 X67.5940Y51.8134
G1 X67.5722Y51.8377
G1 X67.5508Y51.8600
G1 X65.0063Y54.4046
G1 X64.9731Y54.4357
G1 X64.9359Y54.4674
G1 X64.8959Y54.4977
G1 X64.8571Y54.5240
G1 X64.8964Y54.5506
G1 X64.9379Y54.5822
G1 X64.9731Y54.6123
G1 X65.0123Y54.6496
G1 X65.0470Y54.6866
G1 X65.0775Y54.7230
G1 X65.1076Y54.7632
G1 X65.1355Y54.8050
G1 X65.1609Y54.8480
G1 X65.1832Y54.8910
G1 X65.2039Y54.9370
G1 X65.2232Y54.9874
G1 X65.2383Y55.0346
G1 X65.2507Y55.0824
G1 X65.2599Y55.1274
G1 X65.2675Y55.1786
G1 X65.2725Y55.2348
G1 X65.2740Y55.2852
G1 X65.2740Y57.8264
G1 X65.2733Y57.8597
G1 X65.2713Y57.8952
G1 X65.2678Y57.9312
G1 X65.2625Y57.9695
G1 X65.2559Y58.0057
G1 X65.2486Y58.0386
G1 X65.2388Y58.0756
G1 X65.2279Y58.1111
G1 X65.2152Y58.1466
G1 X65.2017Y58.1802
G1 X65.1847Y58.2178
G1 X65.1695Y58.2481
G1 X65.1523Y58.2791
G1 X65.1315Y58.3133
G1 X65.1119Y58.3427
G1 X65.0891Y58.3740
G1 X65.0663Y58.4028
G1 X65.0439Y58.4288
G1 X65.0180Y58.4567
G1 X64.9919Y58.4824
G1 X64.9642Y58.5077
G1 X64.9359Y58.5314
G1 X64.9035Y58.5562
G1 X64.8756Y58.5759
G1 X64.8442Y58.5961
G1 X64.8105Y58.6159
G1 X64.7800Y58.6322
G1 X64.7455Y58.6489
G1 X64.7114Y58.6637
G1 X64.6793Y58.6760
G1 X64.6438Y58.6882
G1 X64.6075Y58.6989
G1 X64.5703Y58.7083
G1 X64.5333Y58.7159
G1 X64.4911Y58.7226
G1 X64.4515Y58.7272
G1 X64.4098Y58.7300
G1 X64.3693Y58.7310
G1 X14.4740Y58.7310
G1 X14.4740Y58.9530
G1 X64.3690Y58.9530
G1 X64.4167Y58.9543
G1 X64.4508Y58.9568
G1 X64.4850Y58.9605
G1 X64.5199Y58.9657
G1 X64.5539Y58.9721
G1 X64.5842Y58.9791
G1 X64.6226Y58.9893
G1 X64.6557Y58.9997
G1 X64.6872Y59.0109
G1 X64.7185Y59.0233
G1 X64.7472Y59.0359
G1 X64.7805Y59.0520
G1 X64.8097Y59.0676
G1 X64.8417Y59.0864
G1 X64.8681Y59.1031
G1 X64.8958Y59.1222
G1 X64.9246Y59.1437
G1 X64.9529Y59.1666
G1 X64.9803Y59.1908
G1 X65.0036Y59.2129
G1 X65.0266Y59.2364
G1 X65.0504Y59.2626
G1 X65.0726Y59.2890
G1 X65.0919Y59.3137
G1 X65.1137Y59.3439
G1 X65.1316Y59.3708
G1 X65.1510Y59.4027
G1 X65.1682Y59.4335
G1 X65.1824Y59.4615
G1 X65.1978Y59.4947
G1 X65.2102Y59.5245
G1 X65.2235Y59.5601
G1 X65.2337Y59.5911
G1 X65.2426Y59.6220
G1 X65.2506Y59.6537
G1 X65.2572Y59.6848
G1 X65.2623Y59.7137
G1 X65.2668Y59.7448
G1 X65.2703Y59.7766
G1 X65.2727Y59.8104
G1 X65.2738Y59.8407
G1 X65.2740Y61.7470
G1 X69.3650Y61.7470
G1 X69.3651Y60.4089
G1 X69.3671Y60.3605
G1 X69.3712Y60.3165
G1 X69.3780Y60.2693
G1 X69.3875Y60.2218
G1 X69.3995Y60.1746
G1 X69.4131Y60.1312
G1 X69.4305Y60.0841
G1 X69.4495Y60.0404
G1 X69.4732Y59.9930
G1 X69.4975Y59.9507
G1 X69.5228Y59.9115
G1 X69.5522Y59.8709
G1 X69.5820Y59.8342
G1 X69.6172Y59.7953
G1 X69.6501Y59.7628
G1 X69.6862Y59.7306
G1 X69.7224Y59.7015
G1 X69.7630Y59.6724
G1 X69.8007Y59.6483
G1 X69.8465Y59.6223
G1 X69.8933Y59.5992
G1 X69.9391Y59.5797
G1 X69.9904Y59.5614
G1 X70.0388Y59.5471
G1 X70.0899Y59.5352
G1 X70.1438Y59.5259
G1 X70.1928Y59.5204
G1 X70.2446Y59.5174
G1 X73.5650Y59.5170
G1 X73.5650Y24.4970
G1 X8.5730Y24.4970
G1 X8.5730Y24.9135
G1 X64.3690Y24.9170
G1 X64.4013Y24.9176
G1 X64.4349Y24.9195
G1 X64.4662Y24.9223
G1 X64.4970Y24.9262
G1 X64.5314Y24.9317
G1 X64.5635Y24.9382
G1 X64.6000Y24.9471
G1 X64.6340Y24.9567
G1 X64.6652Y24.9669
G1 X64.7002Y24.9798
G1 X64.7302Y24.9923
G1 X64.7607Y25.0063
G1 X64.7897Y25.0208
G1 X64.8196Y25.0373
G1 X64.8496Y25.0553
G1 X64.8774Y25.0734
G1 X64.9028Y25.0913
G1 X64.9322Y25.1137
G1 X64.9566Y25.1338
G1 X64.9822Y25.1565
G1 X65.0053Y25.1785
G1 X65.0287Y25.2026
G1 X65.0522Y25.2286
G1 X65.0744Y25.2551
G1 X65.0986Y25.2867
G1 X65.1163Y25.3116
G1 X65.1351Y25.3404
G1 X65.1523Y25.3688
G1 X65.1686Y25.3982
G1 X65.1824Y25.4255
G1 X65.1978Y25.4587
G1 X65.2102Y25.4885
G1 X65.2231Y25.5232
G1 X65.2328Y25.5522
G1 X65.2421Y25.5842
G1 X65.2503Y25.6167
G1 X65.2599Y25.6635
G1 X65.2678Y25.7167
G1 X65.2720Y25.7630
G1 X65.2740Y25.8150
G1 X65.2740Y28.2398
G1 X67.5617Y30.5291
G1 X67.5913Y30.5616
G1 X67.6176Y30.5932
G1 X67.6451Y30.6296
G1 X67.6692Y30.6651
G1 X67.6928Y30.7037
G1 X67.7130Y30.7407
G1 X67.7332Y30.7824
G1 X67.7499Y30.8215
G1 X67.7645Y30.8610
G1 X67.7764Y30.8980
G1 X67.7879Y30.9406
G1 X67.7956Y30.9749
G1 X67.8025Y31.0127
G1 X67.8083Y31.0547
G1 X67.8118Y31.0937
G1 X67.8137Y31.1350
G1 X67.8140Y33.1890
G1 X67.8130Y33.2308
G1 X67.8098Y33.2741
G1 X67.8056Y33.3102
G1 X67.7993Y33.3501
G1 X67.7927Y33.3828
G1 X67.7833Y33.4214
G1 X67.7735Y33.4554
G1 X67.7629Y33.4874
G1 X67.7498Y33.5226
G1 X67.7351Y33.5574
G1 X67.7191Y33.5912
G1 X67.7028Y33.6225
G1 X67.6824Y33.6578
G1 X67.6644Y33.6863
G1 X67.6442Y33.7157
G1 X67.6198Y33.7480
G1 X67.5967Y33.7762
G1 X67.5736Y33.8022
G1 X67.5491Y33.8278
G1 X65.0063Y36.3706
G1 X64.9731Y36.4017
G1 X64.9359Y36.4334
G1 X64.8959Y36.4637
G1 X64.8571Y36.4900
G1 X64.8964Y36.5166
G1 X64.9379Y36.5482
G1 X64.9731Y36.5783
G1 X65.0123Y36.6156
G1 X65.0470Y36.6526
G1 X65.0775Y36.6890
G1 X65.1076Y36.7292
G1 X65.1355Y36.7710
G1 X65.1609Y36.8140
G1 X65.1832Y36.8570
G1 X65.2039Y36.9030
G1 X65.2232Y36.9534
G1 X65.2383Y37.0006
G1 X65.2507Y37.0484
G1 X65.2599Y37.0934
G1 X65.2676Y37.1449
G1 X65.2725Y37.2011
G1 X65.2740Y37.2516
G1 X65.2740Y39.7930
G1 X65.2731Y39.8319
G1 X65.2705Y39.8705
G1 X65.2666Y39.9068
G1 X65.2608Y39.9454
G1 X65.2537Y39.9825
G1 X65.2444Y40.0214
G1 X65.2340Y40.0578
G1 X65.2234Y40.0900
G1 X65.2098Y40.1266
G1 X65.1947Y40.1624
G1 X65.1784Y40.1968
G1 X65.1605Y40.2307
G1 X65.1397Y40.2662
G1 X65.1196Y40.2974
G1 X65.0997Y40.3258
G1 X65.0743Y40.3590
G1 X65.0507Y40.3871
G1 X65.0253Y40.4150
G1 X64.9987Y40.4419
G1 X64.9696Y40.4688
G1 X64.9410Y40.4933
G1 X64.9139Y40.5145
G1 X64.8825Y40.5372
G1 X64.8506Y40.5581
G1 X64.8171Y40.5782
G1 X64.7830Y40.5967
G1 X64.7461Y40.6146
G1 X64.7121Y40.6294
G1 X64.6800Y40.6418
G1 X64.6404Y40.6553
G1 X64.6035Y40.6660
G1 X64.5639Y40.6757
G1 X64.5292Y40.6826
G1 X64.4921Y40.6885
G1 X64.4628Y40.6921
G1 X64.4321Y40.6947
G1 X64.4003Y40.6964
G1 X64.3693Y40.6970
G1 X14.4740Y40.6970
G1 X14.4740Y40.9190
G1 X64.3690Y40.9190
G1 X64.4097Y40.9199
G1 X64.4508Y40.9228
G1 X64.4909Y40.9273
G1 X64.5335Y40.9341
G1 X64.5731Y40.9424
G1 X64.6146Y40.9530
G1 X64.6543Y40.9652
G1 X64.6917Y40.9786
G1 X64.7284Y40.9935
G1 X64.7663Y41.0109
G1 X64.8031Y41.0300
G1 X64.8397Y41.0511
G1 X64.8738Y41.0729
G1 X64.9033Y41.0937
G1 X64.9360Y41.1187
G1 X64.9661Y41.1441
G1 X64.9989Y41.1743
G1 X65.0285Y41.2044
G1 X65.0566Y41.2357
G1 X65.0800Y41.2642
G1 X65.1057Y41.2985
G1 X65.1294Y41.3334
G1 X65.1523Y41.3708
G1 X65.1711Y41.4050
G1 X65.1907Y41.4450
G1 X65.2064Y41.4809
G1 X65.2194Y41.5146
G1 X65.2337Y41.5571
G1 X65.2445Y41.5952
G1 X65.2547Y41.6384
G1 X65.2619Y41.6772
G1 X65.2680Y41.7206
G1 X65.2716Y41.7585
G1 X65.2737Y41.8002
G1 X65.2740Y44.3696
G1 X65.2727Y44.4122
G1 X65.2689Y44.4595
G1 X65.2627Y44.5062
G1 X65.2552Y44.5473
G1 X65.2483Y44.5775
G1 X65.2389Y44.6133
G1 X65.2297Y44.6435
G1 X65.2185Y44.6759
G1 X65.2076Y44.7041
G1 X65.1947Y44.7344
G1 X65.1802Y44.7651
G1 X65.1658Y44.7930
G1 X65.1509Y44.8195
G1 X65.1343Y44.8470
G1 X65.1168Y44.8736
G1 X65.0988Y44.8990
G1 X65.0786Y44.9256
G1 X65.0583Y44.9503
G1 X65.0345Y44.9772
G1 X65.0127Y45.0001
G1 X64.9891Y45.0231
G1 X64.9647Y45.0452
G1 X64.9398Y45.0662
G1 X64.9166Y45.0845
G1 X64.8914Y45.1029
G1 X64.8640Y45.1216
G1 X64.8386Y45.1375
G1 X64.8061Y45.1564
G1 X64.7791Y45.1707
G1 X64.7464Y45.1865
G1 X64.7186Y45.1987
G1 X64.6888Y45.2105
G1 X64.6565Y45.2220
G1 X64.6254Y45.2319
G1 X64.5962Y45.2399
G1 X64.5622Y45.2481
G1 X64.5165Y45.2568
G1 X64.4661Y45.2637
G1 X64.4160Y45.2677
G1 X64.3693Y45.2690
