;FLAVOR:Marlin
;TIME:7419
;Filament used: 19.6103m
;Layer height: 0.5
;MINX:54.02
;MINY:34.281
;MINZ:0.25
;MAXX:190.98
;MAXY:185.82
;MAXZ:16.07
;Generated with Cura_SteamEngine 4.4.1
M140 S60
M105
M190 S60
M104 S237
M105
M109 S237
M82 ;absolute extrusion mode
M201 X500.00 Y500.00 Z100.00 E5000.00 ;Setup machine max acceleration
M203 X500.00 Y500.00 Z10.00 E50.00 ;Setup machine max feedrate
M204 P500.00 R1000.00 T500.00 ;Setup Print/Retract/Travel acceleration
M205 X8.00 Y8.00 Z0.40 E5.00 ;Setup Jerk
M220 S100 ;Reset Feedrate
M221 S100 ;Reset Flowrate

G28 ;Home

G92 E0 ;Reset Extruder
G1 Z2.0 F3000 ;Move Z Axis up
G1 X1.1 Y50 Z0.28 F5000.0 ;Move to start position
G1 X1.1 Y200.0 Z0.28 F1500.0 E15 ;Draw the first line
G1 X1.4 Y200.0 Z0.28 F5000.0 ;Move to side a little
G1 X1.4 Y100 Z0.28 F1500.0 E30 ;Draw the second line
G92 E0 ;Reset Extruder
G1 Z2.0 F3000 ;Move Z Axis up

G92 E0
G1 F3000 E-8
;LAYER_COUNT:32
;LAYER:0
M107
G1 F300 Z0.57
;MESH:resistorboxv4_customDrawer20190207-67-1eqxc2z.stl(3)
G0 F6000 X56.795 Y41.58 Z0.57
;TYPE:WALL-INNER
G1 F300 Z0.25
G1 F3000 E0
G1 F1200 X57.194 Y41.58 E0.03384
G1 X118.205 Y41.58 E5.20839
G1 X118.205 Y104.044 E10.50617
G1 X56.796 Y104.044 E15.71447
G1 X56.795 Y41.979 E20.97841
G1 X56.795 Y41.58 E21.00029
G1 F3000 E13.00029
G0 F6000 X56.465 Y41.25
G0 X54.929 Y40.78
;TYPE:WALL-OUTER
G1 F3000 E21.00029
G1 F1200 X120.07 Y40.78 E26.52512
G1 X120.071 Y41.48 E26.58449
G1 X119.005 Y41.48 E26.6749
G1 X119.005 Y104.682 E32.03527
G1 X118.989 Y104.763 E32.04228
G1 X118.963 Y104.803 E32.04632
G1 X118.925 Y104.828 E32.05018
G1 X118.84 Y104.844 E32.05751
G1 X56.16 Y104.844 E37.37362
G1 X56.075 Y104.828 E37.38095
G1 X56.037 Y104.803 E37.38481
G1 X56.012 Y104.765 E37.38867
G1 X55.996 Y104.68 E37.396
G1 X55.995 Y41.48 E42.75621
G1 X54.93 Y41.48 E42.84653
G1 X54.929 Y41.1 E42.87876
G0 F1080 X54.929 Y40.78
G0 F6000 X56.465 Y41.25
G0 X57.585 Y41.89
G0 X57.585 Y42.37
;TYPE:SKIN
G1 F1200 X117.415 Y42.37 E47.95314
G1 X117.415 Y103.254 E53.11692
G1 X57.586 Y103.254 E58.19122
G1 X57.585 Y42.69 E63.32785
G0 F1080 X57.585 Y42.37
G1 F3000 E55.32785
G0 F6000 X57.585 Y41.89
G0 X117.823 Y41.962
G0 X117.895 Y43.555
G0 X117.094 Y43.555
G1 F3000 E63.32785
G1 F1200 X116.229 Y42.69 E63.4316
G0 F6000 X116.229 Y41.89
G0 X115.097 Y41.89
G0 X115.097 Y42.69
G1 F1200 X117.094 Y44.687 E63.67113
G0 F6000 X117.895 Y44.687
G0 X117.895 Y45.818
G0 X117.094 Y45.818
G1 F1200 X113.966 Y42.69 E64.04632
G0 F6000 X113.966 Y41.89
G0 X112.835 Y41.89
G0 X112.835 Y42.69
G1 F1200 X117.094 Y46.949 E64.55716
G0 F6000 X117.895 Y46.949
G0 X117.895 Y48.081
G0 X117.094 Y48.081
G1 F1200 X111.703 Y42.69 E65.20378
G0 F6000 X111.703 Y41.89
G0 X110.572 Y41.89
G0 X110.572 Y42.69
G1 F1200 X117.094 Y49.212 E65.98606
G0 F6000 X117.895 Y49.212
G0 X117.895 Y50.343
G0 X117.094 Y50.343
G1 F1200 X109.441 Y42.69 E66.90399
G0 F6000 X109.441 Y41.89
G0 X108.309 Y41.89
G0 X108.309 Y42.69
G1 F1200 X117.094 Y51.475 E67.9577
G0 F6000 X117.895 Y51.475
G0 X117.895 Y52.606
G0 X117.094 Y52.606
G1 F1200 X107.178 Y42.69 E69.14706
G0 F6000 X107.178 Y41.89
G0 X106.046 Y41.89
G0 X106.046 Y42.69
G1 F1200 X117.094 Y53.737 E70.47215
G0 F6000 X117.895 Y53.737
G0 X117.895 Y54.869
G0 X117.094 Y54.869
G1 F1200 X104.915 Y42.69 E71.93295
G0 F6000 X104.915 Y41.89
G0 X103.784 Y41.89
G0 X103.784 Y42.69
G1 F1200 X117.094 Y56 E73.5294
G0 F6000 X117.895 Y56
G0 X117.895 Y57.132
G0 X117.094 Y57.132
G1 F1200 X102.652 Y42.69 E75.26164
G0 F6000 X102.652 Y41.89
G0 X101.521 Y41.89
G0 X101.521 Y42.69
G1 F1200 X117.094 Y58.263 E77.12953
G0 F6000 X117.895 Y58.263
G0 X117.895 Y59.394
G0 X117.094 Y59.394
G1 F1200 X100.39 Y42.69 E79.13308
G0 F6000 X100.39 Y41.89
G0 X99.258 Y41.89
G0 X99.258 Y42.69
G1 F1200 X117.094 Y60.526 E81.2724
G0 F6000 X117.895 Y60.526
G0 X117.895 Y61.657
G0 X117.094 Y61.657
G1 F1200 X98.127 Y42.69 E83.54738
G0 F6000 X98.127 Y41.89
G0 X96.995 Y41.89
G0 X96.995 Y42.69
G1 F1200 X117.094 Y62.788 E85.95808
G0 F6000 X117.895 Y62.788
G0 X117.895 Y63.92
G0 X117.094 Y63.92
G1 F1200 X95.864 Y42.69 E88.5045
G0 F6000 X95.864 Y41.89
G0 X94.733 Y41.89
G0 X94.733 Y42.69
G1 F1200 X117.094 Y65.051 E91.18657
G0 F6000 X117.895 Y65.051
G0 X117.895 Y66.183
G0 X117.094 Y66.183
G1 F1200 X93.601 Y42.69 E94.00442
G0 F6000 X93.601 Y41.89
G0 X92.47 Y41.89
G0 X92.47 Y42.69
G1 F1200 X117.094 Y67.314 E96.95792
G0 F6000 X117.895 Y67.314
G0 X117.895 Y68.445
G0 X117.094 Y68.445
G1 F1200 X91.339 Y42.69 E100.04708
G0 F6000 X91.339 Y41.89
G0 X90.207 Y41.89
G0 X90.207 Y42.69
G1 F1200 X117.094 Y69.577 E103.27202
G0 F6000 X117.895 Y69.577
G0 X117.895 Y70.708
G0 X117.094 Y70.708
G1 F1200 X89.076 Y42.69 E106.63262
G0 F6000 X89.076 Y41.89
G0 X87.944 Y41.89
G0 X87.944 Y42.69
G1 F1200 X117.094 Y71.839 E110.12893
G0 F6000 X117.895 Y71.839
G0 X117.895 Y72.971
G0 X117.094 Y72.971
G1 F1200 X86.813 Y42.69 E113.76096
G0 F6000 X86.813 Y41.89
G0 X85.682 Y41.89
G0 X85.682 Y42.69
G1 F1200 X117.094 Y74.102 E117.52865
G0 F6000 X117.895 Y74.102
G0 X117.895 Y75.234
G0 X117.094 Y75.234
G1 F1200 X84.55 Y42.69 E121.43211
G0 F6000 X84.55 Y41.89
G0 X83.419 Y41.89
G0 X83.419 Y42.69
G1 F1200 X117.094 Y76.365 E125.47123
G0 F6000 X117.895 Y76.365
G0 X117.895 Y77.496
G0 X117.094 Y77.496
G1 F1200 X82.288 Y42.69 E129.64601
G0 F6000 X82.288 Y41.89
G0 X81.156 Y41.89
G0 X81.156 Y42.69
G1 F1200 X117.094 Y78.628 E133.95656
G0 F6000 X117.895 Y78.628
G0 X117.895 Y79.759
G0 X117.094 Y79.759
G1 F1200 X80.025 Y42.69 E138.40277
G0 F6000 X80.025 Y41.89
G0 X78.894 Y41.89
G0 X78.894 Y42.69
G1 F1200 X117.094 Y80.89 E142.98464
G0 F6000 X117.895 Y80.89
G0 X117.895 Y82.022
G0 X117.094 Y82.022
G1 F1200 X77.762 Y42.69 E147.70229
G0 F6000 X77.762 Y41.89
G0 X76.631 Y41.89
G0 X76.631 Y42.69
G1 F1200 X117.094 Y83.153 E152.55559
G0 F6000 X117.895 Y83.153
G0 X117.895 Y84.285
G0 X117.094 Y84.285
G1 F1200 X75.499 Y42.69 E157.54467
G0 F6000 X75.499 Y41.89
G0 X74.368 Y41.89
G0 X74.368 Y42.69
G1 F1200 X117.094 Y85.416 E162.6694
G0 F6000 X117.895 Y85.416
G0 X117.895 Y86.547
G0 X117.094 Y86.547
G1 F1200 X73.237 Y42.69 E167.92979
G0 F6000 X73.237 Y41.89
G0 X72.105 Y41.89
G0 X72.105 Y42.69
G1 F1200 X117.094 Y87.679 E173.32596
G0 F6000 X117.895 Y87.679
G0 X117.895 Y88.81
G0 X117.094 Y88.81
G1 F1200 X70.974 Y42.69 E178.85779
G0 F6000 X70.974 Y41.89
G0 X69.843 Y41.89
G0 X69.843 Y42.69
G1 F1200 X117.094 Y89.941 E184.52527
G0 F6000 X117.895 Y89.941
G0 X117.895 Y91.073
G0 X117.094 Y91.073
G1 F1200 X68.711 Y42.69 E190.32853
G0 F6000 X68.711 Y41.89
G0 X67.58 Y41.89
G0 X67.58 Y42.69
G1 F1200 X117.094 Y92.204 E196.26745
G0 F6000 X117.895 Y92.204
G0 X117.895 Y93.335
G0 X117.094 Y93.335
G1 F1200 X66.448 Y42.69 E202.34208
G0 F6000 X66.448 Y41.89
G0 X65.317 Y41.89
G0 X65.317 Y42.69
G1 F1200 X117.094 Y94.467 E208.55243
G0 F6000 X117.895 Y94.467
G0 X117.895 Y95.598
G0 X117.094 Y95.598
G1 F1200 X64.186 Y42.69 E214.89844
G0 F6000 X64.186 Y41.89
G0 X63.054 Y41.89
G0 X63.054 Y42.69
G1 F1200 X117.094 Y96.73 E221.38022
G0 F6000 X117.895 Y96.73
G0 X117.895 Y97.861
G0 X117.094 Y97.861
G1 F1200 X61.923 Y42.69 E227.99766
G0 F6000 X61.923 Y41.89
G0 X60.792 Y41.89
G0 X60.792 Y42.69
G1 F1200 X117.094 Y98.992 E234.75076
G0 F6000 X117.895 Y98.992
G0 X117.895 Y100.124
G0 X117.094 Y100.124
G1 F1200 X59.66 Y42.69 E241.63963
G0 F6000 X59.66 Y41.89
G0 X58.529 Y41.89
G0 X58.529 Y42.69
G1 F1200 X117.094 Y101.255 E248.66416
G0 F6000 X117.895 Y101.255
G0 X117.895 Y102.386
G0 X117.094 Y102.386
G1 F1200 X57.904 Y43.196 E255.76366
G0 F6000 X57.105 Y43.196
G0 X57.105 Y44.327
G0 X57.904 Y44.327
G1 F1200 X116.509 Y102.933 E262.79305
G0 F6000 X116.509 Y103.734
G0 X115.378 Y103.734
G0 X115.378 Y102.933
G1 F1200 X57.904 Y45.459 E269.68672
G0 F6000 X57.105 Y45.459
G0 X57.105 Y46.59
G0 X57.904 Y46.59
G1 F1200 X114.247 Y102.933 E276.44473
G0 F6000 X114.247 Y103.734
G0 X113.115 Y103.734
G0 X113.115 Y102.933
G1 F1200 X57.904 Y47.721 E283.06703
G0 F6000 X57.105 Y47.721
G0 X57.105 Y48.853
G0 X57.904 Y48.853
G1 F1200 X111.984 Y102.933 E289.55361
G0 F6000 X111.984 Y103.734
G0 X110.853 Y103.734
G0 X110.853 Y102.933
G1 F1200 X57.904 Y49.984 E295.90454
G0 F6000 X57.105 Y49.984
G0 X57.105 Y51.116
G0 X57.904 Y51.116
G1 F1200 X109.721 Y102.933 E302.11969
G0 F6000 X109.721 Y103.734
G0 X108.59 Y103.734
G0 X108.59 Y102.933
G1 F1200 X57.904 Y52.247 E308.19918
G0 F6000 X57.105 Y52.247
G0 X57.105 Y53.378
G0 X57.904 Y53.378
G1 F1200 X107.459 Y102.933 E314.14301
G0 F6000 X107.459 Y103.734
G0 X106.327 Y103.734
G0 X106.327 Y102.933
G1 F1200 X57.904 Y54.51 E319.95107
G0 F6000 X57.105 Y54.51
G0 X57.105 Y55.641
G0 X57.904 Y55.641
G1 F1200 X105.196 Y102.933 E325.62347
G0 F6000 X105.196 Y103.734
G0 X104.064 Y103.734
G0 X104.064 Y102.933
G1 F1200 X57.904 Y56.772 E331.16015
G0 F6000 X57.105 Y56.772
G0 X57.105 Y57.904
G0 X57.904 Y57.904
G1 F1200 X102.933 Y102.933 E336.56112
G0 F6000 X102.933 Y103.734
G0 X101.802 Y103.734
G0 X101.802 Y102.933
G1 F1200 X57.904 Y59.035 E341.82643
G0 F6000 X57.105 Y59.035
G0 X57.105 Y60.167
G0 X57.904 Y60.167
G1 F1200 X100.67 Y102.933 E346.95596
G0 F6000 X100.67 Y103.734
G0 X99.539 Y103.734
G0 X99.539 Y102.933
G1 F1200 X57.904 Y61.298 E351.94984
G0 F6000 X57.105 Y61.298
G0 X57.105 Y62.429
G0 X57.904 Y62.429
G1 F1200 X98.408 Y102.933 E356.80806
G0 F6000 X98.408 Y103.734
G0 X97.276 Y103.734
G0 X97.276 Y102.933
G1 F1200 X57.904 Y63.561 E361.5305
G0 F6000 X57.105 Y63.561
G0 X57.105 Y64.693
G0 X57.904 Y64.693
G1 F1200 X96.145 Y102.933 E366.11722
G0 F6000 X96.145 Y103.734
G0 X95.013 Y103.734
G0 X95.013 Y102.933
G1 F1200 X57.904 Y65.824 E370.56823
G0 F6000 X57.105 Y65.824
G0 X57.105 Y66.955
G0 X57.904 Y66.955
G1 F1200 X93.882 Y102.933 E374.88358
G0 F6000 X93.882 Y103.734
G0 X92.751 Y103.734
G0 X92.751 Y102.933
G1 F1200 X57.904 Y68.087 E379.06322
G0 F6000 X57.105 Y68.087
G0 X57.105 Y69.218
G0 X57.904 Y69.218
G1 F1200 X91.619 Y102.933 E383.10714
G0 F6000 X91.619 Y103.734
G0 X90.488 Y103.734
G0 X90.488 Y102.933
G1 F1200 X57.904 Y70.35 E387.01534
G0 F6000 X57.105 Y70.35
G0 X57.105 Y71.481
G0 X57.904 Y71.481
G1 F1200 X89.357 Y102.933 E390.78788
G0 F6000 X89.357 Y103.734
G0 X88.225 Y103.734
G0 X88.225 Y102.933
G1 F1200 X57.904 Y72.612 E394.42471
G0 F6000 X57.105 Y72.612
G0 X57.105 Y73.744
G0 X57.904 Y73.744
G1 F1200 X87.094 Y102.933 E397.92582
G0 F6000 X87.094 Y103.734
G0 X85.962 Y103.734
G0 X85.962 Y102.933
G1 F1200 X57.904 Y74.875 E401.29122
G0 F6000 X57.105 Y74.875
G0 X57.105 Y76.006
G0 X57.904 Y76.006
G1 F1200 X84.831 Y102.933 E404.52095
G0 F6000 X84.831 Y103.734
G0 X83.7 Y103.734
G0 X83.7 Y102.933
G1 F1200 X57.904 Y77.138 E407.61497
G0 F6000 X57.105 Y77.138
G0 X57.105 Y78.269
G0 X57.904 Y78.269
G1 F1200 X82.568 Y102.933 E410.57328
G0 F6000 X82.568 Y103.734
G0 X81.437 Y103.734
G0 X81.437 Y102.933
G1 F1200 X57.904 Y79.401 E413.39586
G0 F6000 X57.105 Y79.401
G0 X57.105 Y80.532
G0 X57.904 Y80.532
G1 F1200 X80.306 Y102.933 E416.08279
G0 F6000 X80.306 Y103.734
G0 X79.174 Y103.734
G0 X79.174 Y102.933
G1 F1200 X57.904 Y81.663 E418.634
G0 F6000 X57.105 Y81.663
G0 X57.105 Y82.795
G0 X57.904 Y82.795
G1 F1200 X78.043 Y102.933 E421.0495
G0 F6000 X78.043 Y103.734
G0 X76.912 Y103.734
G0 X76.912 Y102.933
G1 F1200 X57.905 Y83.927 E423.32922
G0 F6000 X57.105 Y83.927
G0 X57.105 Y85.058
G0 X57.905 Y85.058
G1 F1200 X75.78 Y102.933 E425.47322
G0 F6000 X75.78 Y103.734
G0 X74.649 Y103.734
G0 X74.649 Y102.933
G1 F1200 X57.905 Y86.189 E427.48157
G0 F6000 X57.105 Y86.189
G0 X57.105 Y87.321
G0 X57.905 Y87.321
G1 F1200 X73.517 Y102.933 E429.35414
G0 F6000 X73.517 Y103.734
G0 X72.386 Y103.734
G0 X72.386 Y102.933
G1 F1200 X57.905 Y88.452 E431.09105
G0 F6000 X57.105 Y88.452
G0 X57.105 Y89.584
G0 X57.905 Y89.584
G1 F1200 X71.255 Y102.933 E432.69224
G0 F6000 X71.255 Y103.734
G0 X70.123 Y103.734
G0 X70.123 Y102.933
G1 F1200 X57.905 Y90.715 E434.15772
G0 F6000 X57.105 Y90.715
G0 X57.105 Y91.846
G0 X57.905 Y91.846
G1 F1200 X68.992 Y102.933 E435.48754
G0 F6000 X68.992 Y103.734
G0 X67.861 Y103.734
G0 X67.861 Y102.933
G1 F1200 X57.905 Y92.978 E436.68165
G0 F6000 X57.105 Y92.978
G0 X57.105 Y94.109
G0 X57.905 Y94.109
G1 F1200 X66.729 Y102.933 E437.74003
G0 F6000 X66.729 Y103.734
G0 X65.598 Y103.734
G0 X65.598 Y102.933
G1 F1200 X57.905 Y95.24 E438.66276
G0 F6000 X57.105 Y95.24
G0 X57.105 Y96.372
G0 X57.905 Y96.372
G1 F1200 X64.466 Y102.933 E439.44972
G0 F6000 X64.466 Y103.734
G0 X63.335 Y103.734
G0 X63.335 Y102.933
G1 F1200 X57.905 Y97.503 E440.10101
G0 F6000 X57.105 Y97.503
G0 X57.105 Y98.635
G0 X57.905 Y98.635
G1 F1200 X62.204 Y102.933 E440.61659
G0 F6000 X62.204 Y103.734
G0 X61.072 Y103.734
G0 X61.072 Y102.933
G1 F1200 X57.905 Y99.766 E440.99646
G0 F6000 X57.105 Y99.766
G0 X57.105 Y100.897
G0 X57.905 Y100.897
G1 F1200 X59.941 Y102.933 E441.24066
G0 F6000 X59.941 Y103.734
G0 X58.81 Y103.734
G0 X58.81 Y102.933
G1 F1200 X57.905 Y102.029 E441.34915
G0 F6000 X57.196 Y102.03
G1 F3000 E433.34915
G1 F300 Z0.57
;MESH:resistorboxv4_customDrawer20190207-67-1eqxc2z.stl(2)
G0 F6000 X57.196 Y102.03 Z0.57
G0 X126.796 Y104.044
;TYPE:WALL-INNER
G1 F300 Z0.25
G1 F3000 E441.34915
G1 F1200 X126.795 Y41.979 E446.61309
G1 X126.795 Y41.58 E446.64693
G1 X127.194 Y41.58 E446.66882
G1 X188.205 Y41.58 E451.84336
G1 X188.205 Y104.044 E457.14114
G1 X127.116 Y104.044 E462.32231
G0 F1080 X126.796 Y104.044
G0 F6000 X126.466 Y104.374
G0 X125.996 Y104.68
;TYPE:WALL-OUTER
G1 F1200 X125.995 Y41.48 E467.68251
G1 X124.93 Y41.48 E467.77284
G1 X124.929 Y40.78 E467.83221
G1 X190.07 Y40.78 E473.35703
G1 X190.071 Y41.48 E473.4164
G1 X189.005 Y41.48 E473.50681
G1 X189.005 Y104.682 E478.86718
G1 X188.989 Y104.763 E478.87419
G1 X188.963 Y104.803 E478.87823
G1 X188.925 Y104.828 E478.88209
G1 X188.84 Y104.844 E478.88943
G1 X126.218 Y104.844 E484.20061
G0 F1080 X126.16 Y104.844
G0 X126.075 Y104.828
G0 X126.037 Y104.803
G0 X126.012 Y104.765
G0 X125.996 Y104.68
G0 F6000 X126.872 Y103.964
G0 X127.586 Y103.734
G0 X127.586 Y103.254
;TYPE:SKIN
G1 F1200 X127.585 Y42.37 E489.36438
G1 X187.415 Y42.37 E494.43877
G1 X187.415 Y103.254 E499.60254
G1 X127.906 Y103.254 E504.6497
G0 F1080 X127.586 Y103.254
G0 F6000 X127.586 Y103.734
G0 X128.955 Y103.734
G0 X128.955 Y102.934
G1 F1200 X127.904 Y101.882 E504.77582
G0 F6000 X127.105 Y101.882
G0 X127.105 Y100.751
G0 X127.904 Y100.751
G1 F1200 X130.087 Y102.934 E505.03766
G0 F6000 X130.087 Y103.734
G0 X131.218 Y103.734
G0 X131.218 Y102.934
G1 F1200 X127.904 Y99.62 E505.43515
G0 F6000 X127.105 Y99.62
G0 X127.105 Y98.488
G0 X127.904 Y98.488
G1 F1200 X132.349 Y102.934 E505.96837
G0 F6000 X132.349 Y103.734
G0 X133.481 Y103.734
G0 X133.481 Y102.934
G1 F1200 X127.904 Y97.357 E506.63729
G0 F6000 X127.105 Y97.357
G0 X127.105 Y96.225
G0 X127.904 Y96.225
G1 F1200 X134.612 Y102.934 E507.44194
G0 F6000 X134.612 Y103.734
G0 X135.743 Y103.734
G0 X135.743 Y102.934
G1 F1200 X127.904 Y95.094 E508.38224
G0 F6000 X127.105 Y95.094
G0 X127.105 Y93.963
G0 X127.904 Y93.963
G1 F1200 X136.875 Y102.934 E509.45826
G0 F6000 X136.875 Y103.734
G0 X138.006 Y103.734
G0 X138.006 Y102.934
G1 F1200 X127.904 Y92.831 E510.67
G0 F6000 X127.105 Y92.831
G0 X127.105 Y91.7
G0 X127.904 Y91.7
G1 F1200 X139.138 Y102.934 E512.01745
G0 F6000 X139.138 Y103.734
G0 X140.269 Y103.734
G0 X140.269 Y102.934
G1 F1200 X127.904 Y90.569 E513.50056
G0 F6000 X127.105 Y90.569
G0 X127.105 Y89.437
G0 X127.904 Y89.437
G1 F1200 X141.4 Y102.934 E515.11939
G0 F6000 X141.4 Y103.734
G0 X142.532 Y103.734
G0 X142.532 Y102.934
G1 F1200 X127.904 Y88.306 E516.87393
G0 F6000 X127.105 Y88.306
G0 X127.105 Y87.174
G0 X127.904 Y87.174
G1 F1200 X143.663 Y102.934 E518.76419
G0 F6000 X143.663 Y103.734
G0 X144.794 Y103.734
G0 X144.794 Y102.934
