;FLAVOR:Marlin
;TIME:6344
;Filament used: 17.47m
;Layer height: 0.5
;MINX:44.02
;MINY:24.281
;MINZ:0.25
;MAXX:180.98
;MAXY:175.82
;MAXZ:16.07
;Generated with Cura_SteamEngine 4.4.1
M140 S60
M105
M190 S60
M104 S237
M105
M109 S237
M82 ;absolute extrusion mode
M201 X500.00 Y500.00 Z100.00 E5000.00 ;Setup machine max acceleration
M203 X500.00 Y500.00 Z10.00 E50.00 ;Setup machine max feedrate
M204 P500.00 R1000.00 T500.00 ;Setup Print/Retract/Travel acceleration
M205 X8.00 Y8.00 Z0.40 E5.00 ;Setup Jerk
M220 S100 ;Reset Feedrate
M221 S100 ;Reset Flowrate

G28 ;Home

G92 E0 ;Reset Extruder
G1 Z2.0 F3000 ;Move Z Axis up
G1 X1.1 Y50 Z0.28 F5000.0 ;Move to start position
G1 X1.1 Y200.0 Z0.28 F1500.0 E15 ;Draw the first line
G1 X1.4 Y200.0 Z0.28 F5000.0 ;Move to side a little
G1 X1.4 Y100 Z0.28 F1500.0 E30 ;Draw the second line
G92 E0 ;Reset Extruder
G1 Z2.0 F3000 ;Move Z Axis up

G92 E0
G1 F3000 E-8
;LAYER_COUNT:32
;LAYER:0
M107
G1 F300 Z0.57
;MESH:EmptyDrawer.stl(3)
G0 F6000 X46.795 Y31.58 Z0.57
;TYPE:WALL-INNER
G1 F300 Z0.25
G1 F3000 E0
G1 F1200 X47.194 Y31.58 E0.03384
G1 X108.205 Y31.58 E5.20839
G1 X108.205 Y94.044 E10.50617
G1 X46.796 Y94.044 E15.71447
G1 X46.795 Y31.979 E20.97841
G1 X46.795 Y31.58 E21.00029
G1 F3000 E13.00029
G0 F6000 X44.999 Y30.85
G0 X44.929 Y30.78
;TYPE:WALL-OUTER
G1 F3000 E21.00029
G1 F1200 X110.07 Y30.78 E26.52512
G1 X110.071 Y31.48 E26.58449
G1 X109.005 Y31.48 E26.6749
G1 X109.005 Y94.682 E32.03527
G1 X108.989 Y94.763 E32.04228
G1 X108.963 Y94.803 E32.04632
G1 X108.925 Y94.828 E32.05018
G1 X108.84 Y94.844 E32.05751
G1 X46.16 Y94.844 E37.37362
G1 X46.075 Y94.828 E37.38095
G1 X46.037 Y94.803 E37.38481
G1 X46.012 Y94.765 E37.38867
G1 X45.996 Y94.68 E37.396
G1 X45.995 Y31.48 E42.75621
G1 X44.93 Y31.48 E42.84653
G1 X44.929 Y31.1 E42.87876
G0 F1080 X44.929 Y30.78
G0 F6000 X44.999 Y30.85
G0 X46.28 Y31.391
G0 X47.585 Y32.37
;TYPE:SKIN
G1 F1200 X107.415 Y32.37 E47.95314
G1 X107.415 Y93.254 E53.11692
G1 X47.586 Y93.254 E58.19122
G1 X47.585 Y32.69 E63.32785
G0 F1080 X47.585 Y32.37
G1 F3000 E55.32785
G0 F6000 X107.094 Y33.555
G1 F3000 E63.32785
G1 F1200 X106.229 Y32.69 E63.4316
G0 F6000 X105.097 Y32.69
G1 F1200 X107.094 Y34.686 E63.67107
G0 F6000 X107.094 Y35.817
G1 F1200 X103.966 Y32.69 E64.0462
G0 F6000 X102.835 Y32.69
G1 F1200 X107.094 Y36.949 E64.55704
G0 F6000 X107.094 Y38.08
G1 F1200 X101.703 Y32.69 E65.2036
G0 F6000 X100.572 Y32.69
G1 F1200 X107.094 Y39.211 E65.98582
G0 F6000 X107.094 Y40.343
G1 F1200 X99.441 Y32.69 E66.90375
G0 F6000 X98.309 Y32.69
G1 F1200 X107.094 Y41.474 E67.9574
G0 F6000 X107.094 Y42.606
G1 F1200 X97.178 Y32.69 E69.14676
G0 F6000 X96.047 Y32.69
G1 F1200 X107.094 Y43.737 E70.47179
G0 F6000 X107.094 Y44.868
G1 F1200 X94.915 Y32.69 E71.93253
G0 F6000 X93.784 Y32.69
G1 F1200 X107.094 Y46 E73.52898
G0 F6000 X107.094 Y47.131
G1 F1200 X92.652 Y32.69 E75.26116
G0 F6000 X91.521 Y32.69
G1 F1200 X107.094 Y48.262 E77.12899
G0 F6000 X107.094 Y49.394
G1 F1200 X90.39 Y32.69 E79.13254
G0 F6000 X89.258 Y32.69
G1 F1200 X107.094 Y50.525 E81.2718
G0 F6000 X107.094 Y51.656
G1 F1200 X88.127 Y32.69 E83.54672
G0 F6000 X86.996 Y32.69
G1 F1200 X107.094 Y52.788 E85.95736
G0 F6000 X107.094 Y53.919
G1 F1200 X85.864 Y32.69 E88.50372
G0 F6000 X84.733 Y32.69
G1 F1200 X107.094 Y55.051 E91.18579
G0 F6000 X107.094 Y56.182
G1 F1200 X83.601 Y32.69 E94.00358
G0 F6000 X82.47 Y32.69
G1 F1200 X107.094 Y57.313 E96.95702
G0 F6000 X107.094 Y58.445
G1 F1200 X81.339 Y32.69 E100.04618
G0 F6000 X80.207 Y32.69
G1 F1200 X107.094 Y59.576 E103.27106
G0 F6000 X107.094 Y60.707
G1 F1200 X79.076 Y32.69 E106.6316
G0 F6000 X77.945 Y32.69
G1 F1200 X107.094 Y61.839 E110.12785
G0 F6000 X107.094 Y62.97
G1 F1200 X76.813 Y32.69 E113.75982
G0 F6000 X75.682 Y32.69
G1 F1200 X107.094 Y64.102 E117.52751
G0 F6000 X107.094 Y65.233
G1 F1200 X74.55 Y32.69 E121.43091
G0 F6000 X73.419 Y32.69
G1 F1200 X107.094 Y66.364 E125.46997
G0 F6000 X107.094 Y67.496
G1 F1200 X72.288 Y32.69 E129.64475
G0 F6000 X71.156 Y32.69
G1 F1200 X107.094 Y68.627 E133.95524
G0 F6000 X107.094 Y69.758
G1 F1200 X70.025 Y32.69 E138.4014
G0 F6000 X68.894 Y32.69
G1 F1200 X107.094 Y70.89 E142.98326
G0 F6000 X107.094 Y72.021
G1 F1200 X67.762 Y32.69 E147.70085
G0 F6000 X66.631 Y32.69
G1 F1200 X107.094 Y73.153 E152.55415
G0 F6000 X107.094 Y74.284
G1 F1200 X65.5 Y32.69 E157.54311
G0 F6000 X64.368 Y32.69
G1 F1200 X107.094 Y75.415 E162.66778
G0 F6000 X107.094 Y76.547
G1 F1200 X63.237 Y32.69 E167.92817
G0 F6000 X62.105 Y32.69
G1 F1200 X107.094 Y77.678 E173.32428
G0 F6000 X107.094 Y78.809
G1 F1200 X60.974 Y32.69 E178.85605
G0 F6000 X59.843 Y32.69
G1 F1200 X107.094 Y79.941 E184.52353
G0 F6000 X107.094 Y81.072
G1 F1200 X58.711 Y32.69 E190.32673
G0 F6000 X57.58 Y32.69
G1 F1200 X107.094 Y82.203 E196.26559
G0 F6000 X107.094 Y83.335
G1 F1200 X56.449 Y32.69 E202.34016
G0 F6000 X55.317 Y32.69
G1 F1200 X107.094 Y84.466 E208.55045
G0 F6000 X107.094 Y85.598
G1 F1200 X54.186 Y32.69 E214.89646
G0 F6000 X53.054 Y32.69
G1 F1200 X107.094 Y86.729 E221.37818
G0 F6000 X107.094 Y87.86
G1 F1200 X51.923 Y32.69 E227.99556
G0 F6000 X50.792 Y32.69
G1 F1200 X107.094 Y88.992 E234.74866
G0 F6000 X107.094 Y90.123
G1 F1200 X49.66 Y32.69 E241.63747
G0 F6000 X48.529 Y32.69
G1 F1200 X107.094 Y91.254 E248.66194
G0 F6000 X107.094 Y92.386
G1 F1200 X47.904 Y33.196 E255.76144
G0 F6000 X47.904 Y34.327
G1 F1200 X106.509 Y92.932 E262.79077
G0 F6000 X105.378 Y92.932
G1 F1200 X47.904 Y35.459 E269.68438
G0 F6000 X47.904 Y36.59
G1 F1200 X104.246 Y92.932 E276.44228
G0 F6000 X103.115 Y92.932
G1 F1200 X47.904 Y37.722 E283.06445
G0 F6000 X47.904 Y38.853
G1 F1200 X101.983 Y92.932 E289.55092
G0 F6000 X100.852 Y92.932
G1 F1200 X47.904 Y39.984 E295.90172
G0 F6000 X47.904 Y41.116
G1 F1200 X99.721 Y92.932 E302.11681
G0 F6000 X98.589 Y92.932
G1 F1200 X47.904 Y42.247 E308.19618
G0 F6000 X47.904 Y43.378
G1 F1200 X97.458 Y92.932 E314.13989
G0 F6000 X96.327 Y92.932
G1 F1200 X47.904 Y44.51 E319.94789
G0 F6000 X47.904 Y45.641
G1 F1200 X95.195 Y92.932 E325.62017
G0 F6000 X94.064 Y92.932
G1 F1200 X47.904 Y46.772 E331.15679
G0 F6000 X47.904 Y47.904
G1 F1200 X92.932 Y92.932 E336.55764
G0 F6000 X91.801 Y92.932
G1 F1200 X47.904 Y49.035 E341.82283
G0 F6000 X47.904 Y50.167
G1 F1200 X90.67 Y92.932 E346.9523
G0 F6000 X89.538 Y92.932
G1 F1200 X47.904 Y51.298 E351.94606
G0 F6000 X47.904 Y52.429
G1 F1200 X88.407 Y92.932 E356.80416
G0 F6000 X87.276 Y92.932
G1 F1200 X47.904 Y53.561 E361.52654
G0 F6000 X47.904 Y54.692
G1 F1200 X86.144 Y92.932 E366.11321
G0 F6000 X85.013 Y92.932
G1 F1200 X47.904 Y55.823 E370.56421
G0 F6000 X47.904 Y56.955
G1 F1200 X83.881 Y92.932 E374.87945
G0 F6000 X82.75 Y92.932
G1 F1200 X47.904 Y58.086 E379.05902
G0 F6000 X47.904 Y59.218
G1 F1200 X81.619 Y92.932 E383.10288
G0 F6000 X80.487 Y92.932
G1 F1200 X47.904 Y60.349 E387.01102
G0 F6000 X47.904 Y61.48
G1 F1200 X79.356 Y92.932 E390.78351
G0 F6000 X78.225 Y92.932
G1 F1200 X47.904 Y62.612 E394.42027
G0 F6000 X47.905 Y63.744
G1 F1200 X77.093 Y92.932 E397.9212
G0 F6000 X75.962 Y92.932
G1 F1200 X47.905 Y64.875 E401.28648
G0 F6000 X47.905 Y66.007
G1 F1200 X74.83 Y92.932 E404.51597
G0 F6000 X73.699 Y92.932
G1 F1200 X47.905 Y67.138 E407.60981
G0 F6000 X47.905 Y68.269
G1 F1200 X72.568 Y92.932 E410.568
G0 F6000 X71.436 Y92.932
G1 F1200 X47.905 Y69.401 E413.3904
G0 F6000 X47.905 Y70.532
G1 F1200 X70.305 Y92.932 E416.07715
G0 F6000 X69.174 Y92.932
G1 F1200 X47.905 Y71.663 E418.62825
G0 F6000 X47.905 Y72.795
G1 F1200 X68.042 Y92.932 E421.04356
G0 F6000 X66.911 Y92.932
G1 F1200 X47.905 Y73.926 E423.32322
G0 F6000 X47.905 Y75.057
G1 F1200 X65.78 Y92.932 E425.46722
G0 F6000 X64.648 Y92.932
G1 F1200 X47.905 Y76.189 E427.47545
G0 F6000 X47.905 Y77.32
G1 F1200 X63.517 Y92.932 E429.34802
G0 F6000 X62.385 Y92.932
G1 F1200 X47.905 Y78.452 E431.08481
G0 F6000 X47.905 Y79.583
G1 F1200 X61.254 Y92.932 E432.68595
G0 F6000 X60.123 Y92.932
G1 F1200 X47.905 Y80.714 E434.15142
G0 F6000 X47.905 Y81.846
G1 F1200 X58.991 Y92.932 E435.48112
G0 F6000 X57.86 Y92.932
G1 F1200 X47.905 Y82.977 E436.67517
G0 F6000 X47.905 Y84.108
G1 F1200 X56.729 Y92.932 E437.73356
G0 F6000 X55.597 Y92.932
G1 F1200 X47.905 Y85.24 E438.65617
G0 F6000 X47.905 Y86.371
G1 F1200 X54.466 Y92.932 E439.44312
G0 F6000 X53.334 Y92.932
G1 F1200 X47.905 Y87.503 E440.0943
G0 F6000 X47.905 Y88.634
G1 F1200 X52.203 Y92.932 E440.60982
G0 F6000 X51.072 Y92.932
G1 F1200 X47.905 Y89.765 E440.98968
G0 F6000 X47.905 Y90.897
G1 F1200 X49.94 Y92.932 E441.23377
G0 F6000 X48.809 Y92.932
G1 F1200 X47.905 Y92.028 E441.3422
G1 F3000 E433.3422
G1 F300 Z0.57
;MESH:EmptyDrawer.stl(2)
G0 F6000 X47.905 Y92.028 Z0.57
G0 X116.796 Y94.044
;TYPE:WALL-INNER
G1 F300 Z0.25
G1 F3000 E441.3422
G1 F1200 X116.795 Y31.979 E446.60614
G1 X116.795 Y31.58 E446.63998
G1 X117.194 Y31.58 E446.66186
G1 X178.205 Y31.58 E451.83641
G1 X178.205 Y94.044 E457.13419
G1 X117.116 Y94.044 E462.31535
G0 F1080 X116.796 Y94.044
G0 F6000 X116.466 Y94.374
G0 X115.996 Y94.68
;TYPE:WALL-OUTER
G1 F1200 X115.995 Y31.48 E467.67555
G1 X114.93 Y31.48 E467.76588
G1 X114.929 Y30.78 E467.82525
G1 X180.07 Y30.78 E473.35007
G1 X180.071 Y31.48 E473.40944
G1 X179.005 Y31.48 E473.49985
G1 X179.005 Y94.682 E478.86023
G1 X178.989 Y94.763 E478.86723
G1 X178.963 Y94.803 E478.87128
G1 X178.925 Y94.828 E478.87513
G1 X178.84 Y94.844 E478.88247
G1 X116.218 Y94.844 E484.19365
G0 F1080 X116.16 Y94.844
G0 X116.075 Y94.828
G0 X116.037 Y94.803
G0 X116.012 Y94.765
G0 X115.996 Y94.68
G0 F6000 X116.872 Y93.964
G0 X117.586 Y93.254
;TYPE:SKIN
G1 F1200 X117.585 Y32.37 E489.35743
G1 X177.415 Y32.37 E494.43181
G1 X177.415 Y93.254 E499.59559
G1 X117.906 Y93.254 E504.64274
G0 F1080 X117.586 Y93.254
G0 F6000 X118.955 Y92.934
G1 F1200 X117.904 Y91.882 E504.76886
G0 F6000 X117.904 Y90.751
G1 F1200 X120.087 Y92.934 E505.0307
G0 F6000 X121.218 Y92.934
G1 F1200 X117.904 Y89.62 E505.4282
G0 F6000 X117.904 Y88.488
G1 F1200 X122.349 Y92.934 E505.96141
G0 F6000 X123.481 Y92.934
G1 F1200 X117.904 Y87.357 E506.63034
G0 F6000 X117.904 Y86.226
G1 F1200 X124.612 Y92.934 E507.43492
G0 F6000 X125.744 Y92.934
G1 F1200 X117.904 Y85.094 E508.37529
G0 F6000 X117.904 Y83.963
G1 F1200 X126.875 Y92.934 E509.4513
G0 F6000 X128.006 Y92.934
G1 F1200 X117.904 Y82.831 E510.66304
G0 F6000 X117.904 Y81.7
G1 F1200 X129.138 Y92.934 E512.01049
G0 F6000 X130.269 Y92.934
G1 F1200 X117.904 Y80.569 E513.4936
G0 F6000 X117.904 Y79.437
G1 F1200 X131.4 Y92.934 E515.11243
G0 F6000 X132.532 Y92.934
G1 F1200 X117.904 Y78.306 E516.86697
G0 F6000 X117.904 Y77.175
G1 F1200 X133.663 Y92.934 E518.75717
G0 F6000 X134.795 Y92.934
G1 F1200 X117.904 Y76.043 E520.78315
G0 F6000 X117.904 Y74.912
G1 F1200 X135.926 Y92.934 E522.94479
G0 F6000 X137.057 Y92.934
G1 F1200 X117.904 Y73.78 E525.24214
G0 F6000 X117.904 Y72.649
G1 F1200 X138.189 Y92.934 E527.6752
G0 F6000 X139.32 Y92.934
G1 F1200 X117.904 Y71.518 E530.24393
G0 F6000 X117.904 Y70.386
G1 F1200 X140.451 Y92.934 E532.94837
G0 F6000 X141.583 Y92.934
G1 F1200 X117.904 Y69.255 E535.78853
G0 F6000 X117.904 Y68.124
G1 F1200 X142.714 Y92.934 E538.76434
G0 F6000 X143.846 Y92.934
G1 F1200 X117.904 Y66.992 E541.87594
G0 F6000 X117.904 Y65.861
G1 F1200 X144.977 Y92.934 E545.12318
G0 F6000 X146.108 Y92.934
G1 F1200 X117.904 Y64.729 E548.50615
G0 F6000 X117.904 Y63.598
G1 F1200 X147.24 Y92.934 E552.02483
G0 F6000 X148.371 Y92.934
G1 F1200 X117.904 Y62.467 E555.67917
G0 F6000 X117.904 Y61.335
G1 F1200 X149.502 Y92.934 E559.46923
G0 F6000 X150.634 Y92.934
G1 F1200 X117.904 Y60.204 E563.395
G0 F6000 X117.904 Y59.073
G1 F1200 X151.765 Y92.934 E567.45643
G0 F6000 X152.896 Y92.934
G1 F1200 X117.904 Y57.941 E571.65358
G0 F6000 X117.904 Y56.81
G1 F1200 X154.028 Y92.934 E575.98644
G0 F6000 X155.159 Y92.934
G1 F1200 X117.904 Y55.679 E580.45496
G0 F6000 X117.904 Y54.547
G1 F1200 X156.291 Y92.934 E585.05926
G0 F6000 X157.422 Y92.934
G1 F1200 X117.904 Y53.416 E589.79921
G0 F6000 X117.904 Y52.284
G1 F1200 X158.553 Y92.934 E594.67488
G0 F6000 X159.685 Y92.934
G1 F1200 X117.904 Y51.153 E599.68627
G0 F6000 X117.904 Y50.022
G1 F1200 X160.816 Y92.934 E604.83332
G0 F6000 X161.947 Y92.934
G1 F1200 X117.904 Y48.89 E610.11608
G0 F6000 X117.904 Y47.759
G1 F1200 X163.079 Y92.934 E615.53456
G0 F6000 X164.21 Y92.934
G1 F1200 X117.904 Y46.628 E621.08869
G0 F6000 X117.904 Y45.496
G1 F1200 X165.342 Y92.934 E626.7786
G0 F6000 X166.473 Y92.934
G1 F1200 X117.904 Y44.365 E632.60417
G0 F6000 X117.904 Y43.233
G1 F1200 X167.604 Y92.934 E638.56546
G0 F6000 X168.736 Y92.934
G1 F1200 X117.904 Y42.102 E644.66246
G0 F6000 X117.904 Y40.971
G1 F1200 X169.867 Y92.934 E650.89512
G0 F6000 X170.998 Y92.934
G1 F1200 X117.904 Y39.839 E657.2635
G0 F6000 X117.904 Y38.708
G1 F1200 X172.13 Y92.934 E663.76759
G0 F6000 X173.261 Y92.934
G1 F1200 X117.904 Y37.577 E670.40734
G0 F6000 X117.904 Y36.445
G1 F1200 X174.393 Y92.934 E677.18287
G0 F6000 X175.524 Y92.934
G1 F1200 X117.904 Y35.314 E684.09405
G0 F6000 X117.904 Y34.182
G1 F1200 X176.655 Y92.934 E691.14095
G0 F6000 X177.094 Y92.241
G1 F1200 X117.904 Y33.051 E698.24045
G0 F6000 X118.674 Y32.69
G1 F1200 X177.094 Y91.11 E705.24759
G0 F6000 X177.094 Y89.978
G1 F1200 X119.805 Y32.69 E712.11901
G0 F6000 X120.937 Y32.69
G1 F1200 X177.094 Y88.847 E718.85472
G0 F6000 X177.094 Y87.715
G1 F1200 X122.068 Y32.69 E725.4547
G0 F6000 X123.199 Y32.69
G1 F1200 X177.094 Y86.584 E731.91904
G0 F6000 X177.094 Y85.453
G1 F1200 X124.331 Y32.69 E738.24765
G0 F6000 X125.462 Y32.69
G1 F1200 X177.094 Y84.321 E744.44055
G0 F6000 X177.094 Y83.19
G1 F1200 X126.594 Y32.69 E750.49773
G0 F6000 X127.725 Y32.69
G1 F1200 X177.094 Y82.059 E756.41925
G0 F6000 X177.094 Y80.927
G1 F1200 X128.856 Y32.69 E762.20506
G0 F6000 X129.988 Y32.69
G1 F1200 X177.094 Y79.796 E767.85515
G0 F6000 X177.094 Y78.664
G1 F1200 X131.119 Y32.69 E773.36953
G0 F6000 X132.25 Y32.69
G1 F1200 X177.094 Y77.533 E778.74824
G0 F6000 X177.094 Y76.402
G1 F1200 X133.382 Y32.69 E783.99124
G0 F6000 X134.513 Y32.69
G1 F1200 X177.094 Y75.27 E789.09853
G0 F6000 X177.094 Y74.139
G1 F1200 X135.645 Y32.69 E794.07009
G0 F6000 X136.776 Y32.69
G1 F1200 X177.094 Y73.008 E798.906
G0 F6000 X177.094 Y71.876
G1 F1200 X137.907 Y32.69 E803.60619
G0 F6000 X139.039 Y32.69
G1 F1200 X177.094 Y70.745 E808.17067
G0 F6000 X177.094 Y69.613
G1 F1200 X140.17 Y32.69 E812.59943
G0 F6000 X141.301 Y32.69
G1 F1200 X177.094 Y68.482 E816.89253
G0 F6000 X177.094 Y67.351
G1 F1200 X142.433 Y32.69 E821.04992
G0 F6000 X143.564 Y32.69
G1 F1200 X177.094 Y66.219 E825.07159
G0 F6000 X177.094 Y65.088
G1 F1200 X144.695 Y32.69 E828.9576
G0 F6000 X145.827 Y32.69
G1 F1200 X177.094 Y63.957 E832.70789
G0 F6000 X177.094 Y62.825
G1 F1200 X146.958 Y32.69 E836.32247
G0 F6000 X148.09 Y32.69
G1 F1200 X177.094 Y61.694 E839.80133
G0 F6000 X177.094 Y60.562
G1 F1200 X149.221 Y32.69 E843.14447
G0 F6000 X150.352 Y32.69
G1 F1200 X177.094 Y59.431 E846.35196
G0 F6000 X177.094 Y58.3
G1 F1200 X151.484 Y32.69 E849.42373
G0 F6000 X152.615 Y32.69
G1 F1200 X177.094 Y57.168 E852.35979
G0 F6000 X177.094 Y56.037
G1 F1200 X153.746 Y32.69 E855.16018
G0 F6000 X154.878 Y32.69
G1 F1200 X177.094 Y54.906 E857.82486
G0 F6000 X177.094 Y53.774
G1 F1200 X156.009 Y32.69 E860.35383
G0 F6000 X157.141 Y32.69
G1 F1200 X177.094 Y52.643 E862.74707
G0 F6000 X177.094 Y51.512
G1 F1200 X158.272 Y32.69 E865.00466
G0 F6000 X159.403 Y32.69
G1 F1200 X177.094 Y50.38 E867.12653
G0 F6000 X177.094 Y49.249
G1 F1200 X160.535 Y32.69 E869.11269
G0 F6000 X161.666 Y32.69
G1 F1200 X177.094 Y48.117 E870.96313
G0 F6000 X177.094 Y46.986
G1 F1200 X162.797 Y32.69 E872.67791
G0 F6000 X163.929 Y32.69
G1 F1200 X177.094 Y45.855 E874.25698
G0 F6000 X177.094 Y44.723
G1 F1200 X165.06 Y32.69 E875.70032
G0 F6000 X166.192 Y32.69
