;FLAVOR:Marlin
;TIME:8633
;Filament used: 29.0103m
;Layer height: 0.5
;MINX:81.005
;MINY:72.707
;MINZ:0.25
;MAXX:153.995
;MAXY:147.293
;MAXZ:67.75
;Generated with Cura_SteamEngine 4.4.1
M140 S60
M105
M190 S60
M104 S237
M105
M109 S237
M82 ;absolute extrusion mode
M201 X500.00 Y500.00 Z100.00 E5000.00 ;Setup machine max acceleration
M203 X500.00 Y500.00 Z10.00 E50.00 ;Setup machine max feedrate
M204 P500.00 R1000.00 T500.00 ;Setup Print/Retract/Travel acceleration
M205 X8.00 Y8.00 Z0.40 E5.00 ;Setup Jerk
M220 S100 ;Reset Feedrate
M221 S100 ;Reset Flowrate

G28 ;Home

G92 E0 ;Reset Extruder
G1 Z2.0 F3000 ;Move Z Axis up
G1 X1.1 Y50 Z0.28 F5000.0 ;Move to start position
G1 X1.1 Y200.0 Z0.28 F1500.0 E15 ;Draw the first line
G1 X1.4 Y200.0 Z0.28 F5000.0 ;Move to side a little
G1 X1.4 Y100 Z0.28 F1500.0 E30 ;Draw the second line
G92 E0 ;Reset Extruder
G1 Z2.0 F3000 ;Move Z Axis up

G92 E0
G1 F3000 E-8
;LAYER_COUNT:136
;LAYER:0
M107
G1 F300 Z0.57
;MESH:BoxSingle.stl
G0 F6000 X81.913 Y73.616 Z0.57
;TYPE:WALL-INNER
G1 F300 Z0.25
G1 F3000 E0
G1 F1200 X82.009 Y73.552 E0.00979
G1 X82.237 Y73.507 E0.0295
G1 X152.765 Y73.507 E6.01121
G1 X152.991 Y73.551 E6.03074
G1 X153.084 Y73.614 E6.04027
G1 X153.148 Y73.709 E6.04998
G1 X153.194 Y73.94 E6.06996
G1 X153.195 Y74.696 E6.13408
G1 X153.195 Y146.054 E12.18619
G1 X153.149 Y146.293 E12.20683
G1 X153.088 Y146.383 E12.21605
G1 X152.995 Y146.446 E12.22558
G1 X152.758 Y146.493 E12.24607
G1 X82.237 Y146.493 E18.22719
G1 X82.009 Y146.448 E18.2469
G1 X81.913 Y146.384 E18.25669
G1 X81.852 Y146.293 E18.26598
G1 X81.806 Y146.06 E18.28612
G1 X81.805 Y145.076 E18.36958
G1 X81.805 Y73.947 E24.40227
G1 X81.812 Y73.914 E24.40513
G0 F1080 X81.851 Y73.709
G0 X81.913 Y73.616
G0 F6000 X81.335 Y73.041
;TYPE:WALL-OUTER
G1 F1200 X81.697 Y72.798 E24.44211
G1 X82.158 Y72.707 E24.48196
G1 X152.844 Y72.707 E30.47708
G1 X153.301 Y72.797 E30.51658
G1 X153.662 Y73.038 E30.55339
G1 X153.902 Y73.397 E30.59002
G1 X153.994 Y73.858 E30.62989
G1 X153.995 Y74.695 E30.70088
G1 X153.995 Y146.129 E36.75943
G1 X153.903 Y146.603 E36.80039
G1 X153.666 Y146.959 E36.83666
G1 X153.305 Y147.2 E36.87347
G1 X152.843 Y147.292 E36.91343
G1 X152.747 Y147.293 E36.92157
G1 X82.158 Y147.293 E42.90846
G1 X81.697 Y147.202 E42.94831
G1 X81.337 Y146.962 E42.98501
G1 X81.098 Y146.603 E43.02158
G1 X81.006 Y146.142 E43.06145
G1 X81.005 Y145.077 E43.15178
G1 X81.005 Y73.871 E49.191
G1 X81.097 Y73.399 E49.23179
G1 X81.158 Y73.308 E49.24108
G0 F1080 X81.335 Y73.041
G0 F6000 X81.958 Y73.661
G0 X82.595 Y74.297
;TYPE:SKIN
G1 F1200 X152.404 Y74.297 E55.16181
G1 X152.405 Y74.698 E55.19582
G1 X152.405 Y145.703 E61.21799
G1 X82.596 Y145.703 E67.13873
G1 X82.595 Y145.076 E67.19191
G1 X82.595 Y74.617 E73.16777
G0 F1080 X82.595 Y74.297
G1 F3000 E65.16777
G0 F6000 X152.084 Y75.151
G1 F3000 E73.16777
G1 F1200 X151.549 Y74.616 E73.23194
G0 F6000 X150.418 Y74.616
G1 F1200 X152.084 Y76.282 E73.43177
G0 F6000 X152.084 Y77.414
G1 F1200 X149.287 Y74.616 E73.76731
G0 F6000 X148.155 Y74.616
G1 F1200 X152.084 Y78.545 E74.23857
G0 F6000 X152.084 Y79.676
G1 F1200 X147.024 Y74.616 E74.84549
G0 F6000 X145.893 Y74.616
G1 F1200 X152.084 Y80.808 E75.58812
G0 F6000 X152.084 Y81.939
G1 F1200 X144.761 Y74.616 E76.46647
G0 F6000 X143.63 Y74.616
G1 F1200 X152.084 Y83.07 E77.48048
G0 F6000 X152.084 Y84.202
G1 F1200 X142.498 Y74.616 E78.63027
G0 F6000 X141.367 Y74.616
G1 F1200 X152.084 Y85.333 E79.91571
G0 F6000 X152.084 Y86.465
G1 F1200 X140.236 Y74.616 E81.33687
G0 F6000 X139.104 Y74.616
G1 F1200 X152.084 Y87.596 E82.89374
G0 F6000 X152.084 Y88.727
G1 F1200 X137.973 Y74.616 E84.58628
G0 F6000 X136.842 Y74.616
G1 F1200 X152.084 Y89.859 E86.41453
G0 F6000 X152.084 Y90.99
G1 F1200 X135.71 Y74.616 E88.37849
G0 F6000 X134.579 Y74.616
G1 F1200 X152.084 Y92.121 E90.47811
G0 F6000 X152.084 Y93.253
G1 F1200 X133.448 Y74.616 E92.71345
G0 F6000 X132.316 Y74.616
G1 F1200 X152.084 Y94.384 E95.08451
G0 F6000 X152.084 Y95.515
G1 F1200 X131.185 Y74.616 E97.59122
G0 F6000 X130.053 Y74.616
G1 F1200 X152.084 Y96.647 E100.23371
G0 F6000 X152.084 Y97.778
G1 F1200 X128.922 Y74.616 E103.01186
G0 F6000 X127.791 Y74.616
G1 F1200 X152.084 Y98.91 E105.92573
G0 F6000 X152.084 Y100.041
G1 F1200 X126.659 Y74.616 E108.97531
G0 F6000 X125.528 Y74.616
G1 F1200 X152.084 Y101.172 E112.16054
G0 F6000 X152.084 Y102.304
G1 F1200 X124.397 Y74.616 E115.4815
G0 F6000 X123.265 Y74.616
G1 F1200 X152.084 Y103.435 E118.93817
G0 F6000 X152.084 Y104.566
G1 F1200 X122.134 Y74.616 E122.5305
G0 F6000 X121.002 Y74.616
G1 F1200 X152.084 Y105.698 E126.2586
G0 F6000 X152.084 Y106.829
G1 F1200 X119.871 Y74.616 E130.12236
G0 F6000 X118.74 Y74.616
G1 F1200 X152.084 Y107.961 E134.12184
G0 F6000 X152.084 Y109.092
G1 F1200 X117.608 Y74.616 E138.25704
G0 F6000 X116.477 Y74.616
G1 F1200 X152.084 Y110.223 E142.52789
G0 F6000 X152.084 Y111.355
G1 F1200 X115.346 Y74.616 E146.93446
G0 F6000 X114.214 Y74.616
G1 F1200 X152.084 Y112.486 E151.47675
G0 F6000 X152.084 Y113.617
G1 F1200 X113.083 Y74.616 E156.15469
G0 F6000 X111.951 Y74.616
G1 F1200 X152.084 Y114.749 E160.96841
G0 F6000 X152.084 Y115.88
G1 F1200 X110.82 Y74.616 E165.91779
G0 F6000 X109.689 Y74.616
G1 F1200 X152.084 Y117.012 E171.00288
G0 F6000 X152.084 Y118.143
G1 F1200 X108.557 Y74.616 E176.22369
G0 F6000 X107.426 Y74.616
G1 F1200 X152.084 Y119.274 E181.58016
G0 F6000 X152.084 Y120.406
G1 F1200 X106.295 Y74.616 E187.07234
G0 F6000 X105.163 Y74.616
G1 F1200 X152.084 Y121.537 E192.70024
G0 F6000 X152.084 Y122.668
G1 F1200 X104.032 Y74.616 E198.4638
G0 F6000 X102.901 Y74.616
G1 F1200 X152.084 Y123.8 E204.36308
G0 F6000 X152.084 Y124.931
G1 F1200 X101.769 Y74.616 E210.39807
G0 F6000 X100.638 Y74.616
G1 F1200 X152.084 Y126.062 E216.56872
G0 F6000 X152.084 Y127.194
G1 F1200 X99.506 Y74.616 E222.87514
G0 F6000 X98.375 Y74.616
G1 F1200 X152.084 Y128.325 E229.31722
G0 F6000 X152.084 Y129.457
G1 F1200 X97.244 Y74.616 E235.89502
G0 F6000 X96.112 Y74.616
G1 F1200 X152.084 Y130.588 E242.60854
G0 F6000 X152.084 Y131.719
G1 F1200 X94.981 Y74.616 E249.45771
G0 F6000 X93.85 Y74.616
G1 F1200 X152.084 Y132.851 E256.4426
G0 F6000 X152.084 Y133.982
G1 F1200 X92.718 Y74.616 E263.56321
G0 F6000 X91.587 Y74.616
G1 F1200 X152.084 Y135.113 E270.81947
G0 F6000 X152.084 Y136.245
G1 F1200 X90.455 Y74.616 E278.21151
G0 F6000 X89.324 Y74.616
G1 F1200 X152.084 Y137.376 E285.73921
G0 F6000 X152.084 Y138.508
G1 F1200 X88.193 Y74.616 E293.40262
G0 F6000 X87.061 Y74.616
G1 F1200 X152.084 Y139.639 E301.20175
G0 F6000 X152.084 Y140.77
G1 F1200 X85.93 Y74.616 E309.13654
G0 F6000 X84.799 Y74.616
G1 F1200 X152.084 Y141.902 E317.20704
G0 F6000 X152.084 Y143.033
G1 F1200 X83.667 Y74.616 E325.41326
G0 F6000 X82.913 Y74.994
G1 F1200 X152.084 Y144.164 E333.70986
G0 F6000 X152.084 Y145.296
G1 F1200 X82.913 Y76.125 E342.00652
G0 F6000 X82.913 Y77.257
G1 F1200 X151.039 Y145.382 E350.17778
G0 F6000 X149.908 Y145.382
G1 F1200 X82.913 Y78.388 E358.21338
G0 F6000 X82.913 Y79.519
G1 F1200 X148.776 Y145.382 E366.11326
G0 F6000 X147.645 Y145.382
G1 F1200 X82.913 Y80.651 E373.87743
G0 F6000 X82.913 Y81.782
G1 F1200 X146.513 Y145.382 E381.50588
G0 F6000 X145.382 Y145.382
G1 F1200 X82.913 Y82.913 E388.99867
G0 F6000 X82.913 Y84.045
G1 F1200 X144.251 Y145.382 E396.35575
G0 F6000 X143.119 Y145.382
G1 F1200 X82.913 Y85.176 E403.57711
G0 F6000 X82.913 Y86.308
G1 F1200 X141.988 Y145.382 E410.66275
G0 F6000 X140.857 Y145.382
G1 F1200 X82.913 Y87.439 E417.61274
G0 F6000 X82.913 Y88.57
G1 F1200 X139.725 Y145.382 E424.42701
G0 F6000 X138.594 Y145.382
G1 F1200 X82.913 Y89.702 E431.10556
G0 F6000 X82.913 Y90.833
G1 F1200 X137.462 Y145.382 E437.64839
G0 F6000 X136.331 Y145.382
G1 F1200 X82.913 Y91.964 E444.05557
G0 F6000 X82.913 Y93.096
G1 F1200 X135.2 Y145.382 E450.32703
G0 F6000 X134.068 Y145.382
G1 F1200 X82.913 Y94.227 E456.46278
G0 F6000 X82.913 Y95.359
G1 F1200 X132.937 Y145.382 E462.4628
G0 F6000 X131.806 Y145.382
G1 F1200 X82.913 Y96.49 E468.32718
G0 F6000 X82.913 Y97.621
G1 F1200 X130.674 Y145.382 E474.05583
G0 F6000 X129.543 Y145.382
G1 F1200 X82.913 Y98.753 E479.64877
G0 F6000 X82.913 Y99.884
G1 F1200 X128.412 Y145.382 E485.10605
G0 F6000 X127.28 Y145.382
G1 F1200 X82.913 Y101.015 E490.42761
G0 F6000 X82.913 Y102.147
G1 F1200 X126.149 Y145.382 E495.61346
G0 F6000 X125.017 Y145.382
G1 F1200 X82.913 Y103.278 E500.66359
G0 F6000 X82.913 Y104.409
G1 F1200 X123.886 Y145.382 E505.57806
G0 F6000 X122.755 Y145.382
G1 F1200 X82.913 Y105.541 E510.35682
G0 F6000 X82.913 Y106.672
G1 F1200 X121.623 Y145.382 E514.99986
G0 F6000 X120.492 Y145.382
G1 F1200 X82.913 Y107.804 E519.50718
G0 F6000 X82.913 Y108.935
G1 F1200 X119.361 Y145.382 E523.87884
G0 F6000 X118.229 Y145.382
G1 F1200 X82.914 Y110.067 E528.11467
G0 F6000 X82.914 Y111.198
G1 F1200 X117.098 Y145.382 E532.21484
G0 F6000 X115.966 Y145.382
G1 F1200 X82.914 Y112.33 E536.17924
G0 F6000 X82.914 Y113.461
G1 F1200 X114.835 Y145.382 E540.00798
G0 F6000 X113.704 Y145.382
G1 F1200 X82.914 Y114.593 E543.701
G0 F6000 X82.914 Y115.724
G1 F1200 X112.572 Y145.382 E547.2583
G0 F6000 X111.441 Y145.382
G1 F1200 X82.914 Y116.855 E550.67995
G0 F6000 X82.914 Y117.987
G1 F1200 X110.31 Y145.382 E553.96588
G0 F6000 X109.178 Y145.382
G1 F1200 X82.914 Y119.118 E557.1161
G0 F6000 X82.914 Y120.249
G1 F1200 X108.047 Y145.382 E560.13065
G0 F6000 X106.915 Y145.382
G1 F1200 X82.914 Y121.381 E563.00943
G0 F6000 X82.914 Y122.512
G1 F1200 X105.784 Y145.382 E565.75256
G0 F6000 X104.653 Y145.382
G1 F1200 X82.914 Y123.643 E568.36002
G0 F6000 X82.914 Y124.775
G1 F1200 X103.521 Y145.382 E570.83171
G0 F6000 X102.39 Y145.382
G1 F1200 X82.914 Y125.906 E573.16775
G0 F6000 X82.914 Y127.038
G1 F1200 X101.259 Y145.382 E575.36806
G0 F6000 X100.127 Y145.382
G1 F1200 X82.914 Y128.169 E577.43266
G0 F6000 X82.914 Y129.3
G1 F1200 X98.996 Y145.382 E579.3616
G0 F6000 X97.864 Y145.382
G1 F1200 X82.914 Y130.432 E581.15477
G0 F6000 X82.914 Y131.563
G1 F1200 X96.733 Y145.382 E582.81228
G0 F6000 X95.602 Y145.382
G1 F1200 X82.914 Y132.694 E584.33413
G0 F6000 X82.914 Y133.826
G1 F1200 X94.47 Y145.382 E585.7202
G0 F6000 X93.339 Y145.382
G1 F1200 X82.914 Y134.957 E586.97062
G0 F6000 X82.914 Y136.089
G1 F1200 X92.208 Y145.382 E588.08532
G0 F6000 X91.076 Y145.382
G1 F1200 X82.914 Y137.22 E589.06431
G0 F6000 X82.914 Y138.351
G1 F1200 X89.945 Y145.382 E589.90764
G0 F6000 X88.814 Y145.382
G1 F1200 X82.914 Y139.483 E590.61525
G0 F6000 X82.914 Y140.614
G1 F1200 X87.682 Y145.382 E591.18714
G0 F6000 X86.551 Y145.382
G1 F1200 X82.914 Y141.745 E591.62338
G0 F6000 X82.914 Y142.877
G1 F1200 X85.419 Y145.382 E591.92384
G0 F6000 X84.288 Y145.382
G1 F1200 X82.914 Y144.008 E592.08864
G0 F6000 X82.914 Y145.14
G1 F1200 X83.157 Y145.382 E592.11773
G1 F3000 E584.11773
;MESH:NONMESH
G0 F300 X83.157 Y145.382 Z0.75
G0 F6000 X81.995 Y73.673
G0 X81.913 Y73.618
;TIME_ELAPSED:368.220135
;LAYER:1
M140 S50
M106 S85
;TYPE:WALL-INNER
;MESH:BoxSingle.stl
G1 F3000 E592.11773
G1 F1350 X82.011 Y73.552 E592.13777
G1 X82.238 Y73.507 E592.17702
G1 X152.767 Y73.507 E604.14062
G1 X152.988 Y73.55 E604.17882
G1 X153.084 Y73.615 E604.19848
G1 X153.149 Y73.71 E604.21801
G1 X153.193 Y73.932 E604.2564
G1 X153.195 Y77.315 E604.83024
G1 X153.195 Y146.031 E616.48631
G1 X153.147 Y146.293 E616.53149
G1 X153.086 Y146.383 E616.54994
G1 X152.995 Y146.445 E616.56861
G1 X152.763 Y146.491 E616.60873
G1 X152.354 Y146.493 E616.67811
G1 X82.237 Y146.493 E628.57183
G1 X82.009 Y146.448 E628.61125
G1 X81.912 Y146.383 E628.63105
G1 X81.853 Y146.296 E628.64888
G1 X81.807 Y146.063 E628.68917
G1 X81.805 Y141.775 E629.41653
G1 X81.805 Y73.969 E640.91824
G1 X81.844 Y73.759 E640.95447
G0 F1215 X81.853 Y73.708
G0 X81.913 Y73.618
G0 F7500 X81.334 Y73.044
;TYPE:WALL-OUTER
G1 F1350 X81.699 Y72.798 E641.02913
G1 X82.158 Y72.707 E641.1085
G1 X152.844 Y72.707 E653.09874
G1 X153.298 Y72.796 E653.17721
G1 X153.659 Y73.037 E653.25084
G1 X153.901 Y73.396 E653.32428
G1 X153.993 Y73.855 E653.40369
G1 X153.995 Y77.315 E653.99059
G1 X153.995 Y146.105 E665.65921
G1 X153.904 Y146.6 E665.74459
G1 X153.666 Y146.957 E665.81737
G1 X153.307 Y147.199 E665.89081
G1 X152.846 Y147.291 E665.97055
G1 X152.357 Y147.293 E666.05349
G1 X82.158 Y147.293 E677.96112
G1 X81.697 Y147.202 E678.04083
G1 X81.337 Y146.961 E678.11431
G1 X81.099 Y146.606 E678.18681
G1 X81.007 Y146.145 E678.26655
G1 X81.005 Y141.775 E679.00782
G1 X81.005 Y73.894 E690.52225
G1 X81.096 Y73.402 E690.60712
G1 X81.246 Y73.177 E690.65299
G0 F1215 X81.334 Y73.044
G0 F7500 X81.958 Y73.664
G0 X82.595 Y74.297
;TYPE:SKIN
G1 F1350 X152.403 Y74.297 E702.49429
G1 X152.405 Y77.315 E703.00622
G1 X152.405 Y145.703 E714.60665
G1 X82.597 Y145.703 E726.44795
G1 X82.595 Y141.775 E727.11425
G1 X82.595 Y74.457 E738.53318
G0 F1215 X82.595 Y74.297
G0 F7500 X82.914 Y75.477
G1 F1350 X83.775 Y74.616 E738.73972
G0 F7500 X84.906 Y74.616
G1 F1350 X82.914 Y76.608 E739.21758
G0 F7500 X82.914 Y77.74
G1 F1350 X86.037 Y74.616 E739.96687
G0 F7500 X87.169 Y74.616
G1 F1350 X82.914 Y78.871 E740.98759
G0 F7500 X82.914 Y80.002
G1 F1350 X88.3 Y74.616 E742.27963
G0 F7500 X89.432 Y74.616
G1 F1350 X82.914 Y81.134 E743.84322
G0 F7500 X82.914 Y82.265
G1 F1350 X90.563 Y74.616 E745.67813
G0 F7500 X91.694 Y74.616
G1 F1350 X82.914 Y83.396 E747.78435
G0 F7500 X82.914 Y84.528
G1 F1350 X92.826 Y74.616 E750.16212
G0 F7500 X93.957 Y74.616
G1 F1350 X82.914 Y85.659 E752.81121
G0 F7500 X82.914 Y86.79
G1 F1350 X95.088 Y74.616 E755.73161
G0 F7500 X96.22 Y74.616
G1 F1350 X82.914 Y87.922 E758.92357
G0 F7500 X82.914 Y89.053
G1 F1350 X97.351 Y74.616 E762.38683
G0 F7500 X98.483 Y74.616
G1 F1350 X82.914 Y90.185 E766.12166
G0 F7500 X82.914 Y91.316
G1 F1350 X99.614 Y74.616 E770.12779
G0 F7500 X100.745 Y74.616
G1 F1350 X82.914 Y92.447 E774.40524
G0 F7500 X82.914 Y93.579
G1 F1350 X101.877 Y74.616 E778.95424
G0 F7500 X103.008 Y74.616
G1 F1350 X82.914 Y94.71 E783.77456
G0 F7500 X82.914 Y95.841
G1 F1350 X104.139 Y74.616 E788.86619
G0 F7500 X105.271 Y74.616
G1 F1350 X82.914 Y96.973 E794.22938
G0 F7500 X82.914 Y98.104
G1 F1350 X106.402 Y74.616 E799.86387
G0 F7500 X107.533 Y74.616
G1 F1350 X82.914 Y99.236 E805.76981
G0 F7500 X82.914 Y100.367
G1 F1350 X108.665 Y74.616 E811.94717
G0 F7500 X109.796 Y74.616
G1 F1350 X82.914 Y101.498 E818.39585
G0 F7500 X82.914 Y102.63
G1 F1350 X110.928 Y74.616 E825.11608
G0 F7500 X112.059 Y74.616
G1 F1350 X82.914 Y103.761 E832.10763
G0 F7500 X82.914 Y104.892
G1 F1350 X113.19 Y74.616 E839.37049
G0 F7500 X114.322 Y74.616
G1 F1350 X82.914 Y106.024 E846.9049
G0 F7500 X82.914 Y107.155
G1 F1350 X115.453 Y74.616 E854.71063
G0 F7500 X116.584 Y74.616
G1 F1350 X82.914 Y108.287 E862.78779
G0 F7500 X82.914 Y109.418
G1 F1350 X117.716 Y74.616 E871.13639
G0 F7500 X118.847 Y74.616
G1 F1350 X82.914 Y110.549 E879.75629
G0 F7500 X82.914 Y111.681
G1 F1350 X119.979 Y74.616 E888.64776
G0 F7500 X121.11 Y74.616
G1 F1350 X82.914 Y112.812 E897.81053
G0 F7500 X82.914 Y113.943
G1 F1350 X122.241 Y74.616 E907.24462
G0 F7500 X123.373 Y74.616
G1 F1350 X82.914 Y115.075 E916.95027
G0 F7500 X82.914 Y116.206
G1 F1350 X124.504 Y74.616 E926.92722
G0 F7500 X125.635 Y74.616
G1 F1350 X82.914 Y117.338 E937.17561
G0 F7500 X82.914 Y118.469
G1 F1350 X126.767 Y74.616 E947.69544
G0 F7500 X127.898 Y74.616
G1 F1350 X82.914 Y119.6 E958.48658
G0 F7500 X82.914 Y120.732
G1 F1350 X129.03 Y74.616 E969.54927
G0 F7500 X130.161 Y74.616
G1 F1350 X82.914 Y121.863 E980.88327
G0 F7500 X82.914 Y122.994
G1 F1350 X131.292 Y74.616 E992.48859
G0 F7500 X132.424 Y74.616
G1 F1350 X82.914 Y124.126 E1004.36547
G0 F7500 X82.914 Y125.257
G1 F1350 X133.555 Y74.616 E1016.51365
G0 F7500 X134.686 Y74.616
G1 F1350 X82.914 Y126.388 E1028.93315
G0 F7500 X82.914 Y127.52
