;FLAVOR:Marlin
;TIME:8116
;Filament used: 21.7934m
;Layer height: 0.5
;MINX:44.02
;MINY:34.281
;MINZ:0.25
;MAXX:180.98
;MAXY:185.82
;MAXZ:16.07
;Generated with Cura_SteamEngine 4.4.1
M140 S60
M105
M190 S60
M104 S237
M105
M109 S237
M82 ;absolute extrusion mode
M201 X500.00 Y500.00 Z100.00 E5000.00 ;Setup machine max acceleration
M203 X500.00 Y500.00 Z10.00 E50.00 ;Setup machine max feedrate
M204 P500.00 R1000.00 T500.00 ;Setup Print/Retract/Travel acceleration
M205 X8.00 Y8.00 Z0.40 E5.00 ;Setup Jerk
M220 S100 ;Reset Feedrate
M221 S100 ;Reset Flowrate

G28 ;Home

G92 E0 ;Reset Extruder
G1 Z2.0 F3000 ;Move Z Axis up
G1 X1.1 Y50 Z0.28 F5000.0 ;Move to start position
G1 X1.1 Y200.0 Z0.28 F1500.0 E15 ;Draw the first line
G1 X1.4 Y200.0 Z0.28 F5000.0 ;Move to side a little
G1 X1.4 Y100 Z0.28 F1500.0 E30 ;Draw the second line
G92 E0 ;Reset Extruder
G1 Z2.0 F3000 ;Move Z Axis up

G92 E0
G1 F3000 E-8
;LAYER_COUNT:32
;LAYER:0
M107
G1 F300 Z0.57
;MESH:f??cher.3mf(1)
G0 F6000 X46.795 Y41.58 Z0.57
;TYPE:WALL-INNER
G1 F300 Z0.25
G1 F3000 E0
G1 F1200 X47.194 Y41.58 E0.03384
G1 X108.205 Y41.58 E5.20839
G1 X108.205 Y104.044 E10.50617
G1 X46.796 Y104.044 E15.71447
G1 X46.795 Y41.979 E20.97841
G1 X46.795 Y41.58 E21.00029
G1 F3000 E13.00029
G0 F6000 X44.999 Y40.85
G0 X44.929 Y40.78
;TYPE:WALL-OUTER
G1 F3000 E21.00029
G1 F1200 X110.07 Y40.78 E26.52512
G1 X110.071 Y41.48 E26.58449
G1 X109.005 Y41.48 E26.6749
G1 X109.005 Y104.682 E32.03527
G1 X108.989 Y104.763 E32.04228
G1 X108.963 Y104.803 E32.04632
G1 X108.925 Y104.828 E32.05018
G1 X108.84 Y104.844 E32.05751
G1 X46.16 Y104.844 E37.37362
G1 X46.075 Y104.828 E37.38095
G1 X46.037 Y104.803 E37.38481
G1 X46.012 Y104.765 E37.38867
G1 X45.996 Y104.68 E37.396
G1 X45.995 Y41.48 E42.75621
G1 X44.93 Y41.48 E42.84653
G1 X44.929 Y41.1 E42.87876
G0 F1080 X44.929 Y40.78
G0 F6000 X44.999 Y40.85
G0 X46.28 Y41.391
G0 X47.585 Y42.37
;TYPE:SKIN
G1 F1200 X107.415 Y42.37 E47.95314
G1 X107.415 Y103.254 E53.11692
G1 X47.586 Y103.254 E58.19122
G1 X47.585 Y42.69 E63.32785
G0 F1080 X47.585 Y42.37
G1 F3000 E55.32785
G0 F6000 X107.094 Y43.737
G1 F3000 E63.32785
G1 F1200 X106.046 Y42.69 E63.45349
G0 F6000 X104.915 Y42.69
G1 F1200 X107.094 Y44.868 E63.71479
G0 F6000 X107.094 Y46
G1 F1200 X103.784 Y42.69 E64.11181
G0 F6000 X102.652 Y42.69
G1 F1200 X107.094 Y47.131 E64.64454
G0 F6000 X107.094 Y48.262
G1 F1200 X101.521 Y42.69 E65.31293
G0 F6000 X100.39 Y42.69
G1 F1200 X107.094 Y49.394 E66.11703
G0 F6000 X107.094 Y50.525
G1 F1200 X99.258 Y42.69 E67.05686
G0 F6000 X98.127 Y42.69
G1 F1200 X107.094 Y51.656 E68.13234
G0 F6000 X107.094 Y52.788
G1 F1200 X96.995 Y42.69 E69.34359
G0 F6000 X95.864 Y42.69
G1 F1200 X107.094 Y53.919 E70.69051
G0 F6000 X107.094 Y55.051
G1 F1200 X94.733 Y42.69 E72.17314
G0 F6000 X93.601 Y42.69
G1 F1200 X107.094 Y56.182 E73.79148
G0 F6000 X107.094 Y57.313
G1 F1200 X92.47 Y42.69 E75.54549
G0 F6000 X91.339 Y42.69
G1 F1200 X107.094 Y58.445 E77.43521
G0 F6000 X107.094 Y59.576
G1 F1200 X90.207 Y42.69 E79.46064
G0 F6000 X89.076 Y42.69
G1 F1200 X107.094 Y60.707 E81.62174
G0 F6000 X107.094 Y61.839
G1 F1200 X87.944 Y42.69 E83.91861
G0 F6000 X86.813 Y42.69
G1 F1200 X107.094 Y62.97 E86.35114
G0 F6000 X107.094 Y64.102
G1 F1200 X85.682 Y42.69 E88.91938
G0 F6000 X84.55 Y42.69
G1 F1200 X107.094 Y65.233 E91.62334
G0 F6000 X107.094 Y66.364
G1 F1200 X83.419 Y42.69 E94.46296
G0 F6000 X82.288 Y42.69
G1 F1200 X107.094 Y67.496 E97.4383
G0 F6000 X107.094 Y68.627
G1 F1200 X81.156 Y42.69 E100.54935
G0 F6000 X80.025 Y42.69
G1 F1200 X107.094 Y69.758 E103.79606
G0 F6000 X107.094 Y70.89
G1 F1200 X78.894 Y42.69 E107.17849
G0 F6000 X77.762 Y42.69
G1 F1200 X107.094 Y72.021 E110.69663
G0 F6000 X107.094 Y73.153
G1 F1200 X76.631 Y42.69 E114.35049
G0 F6000 X75.499 Y42.69
G1 F1200 X107.094 Y74.284 E118.14006
G0 F6000 X107.094 Y75.415
G1 F1200 X74.368 Y42.69 E122.0653
G0 F6000 X73.237 Y42.69
G1 F1200 X107.094 Y76.547 E126.12625
G0 F6000 X107.094 Y77.678
G1 F1200 X72.105 Y42.69 E130.32291
G0 F6000 X70.974 Y42.69
G1 F1200 X107.094 Y78.809 E134.65524
G0 F6000 X107.094 Y79.941
G1 F1200 X69.843 Y42.69 E139.12328
G0 F6000 X68.711 Y42.69
G1 F1200 X107.094 Y81.072 E143.72704
G0 F6000 X107.094 Y82.203
G1 F1200 X67.58 Y42.69 E148.46645
G0 F6000 X66.448 Y42.69
G1 F1200 X107.094 Y83.335 E153.34164
G0 F6000 X107.094 Y84.466
G1 F1200 X65.317 Y42.69 E158.35249
G0 F6000 X64.186 Y42.69
G1 F1200 X107.094 Y85.598 E163.49906
G0 F6000 X107.094 Y86.729
G1 F1200 X63.054 Y42.69 E168.78134
G0 F6000 X61.923 Y42.69
G1 F1200 X107.094 Y87.86 E174.19928
G0 F6000 X107.094 Y88.992
G1 F1200 X60.792 Y42.69 E179.75293
G0 F6000 X59.66 Y42.69
G1 F1200 X107.094 Y90.123 E185.4423
G0 F6000 X107.094 Y91.254
G1 F1200 X58.529 Y42.69 E191.26733
G0 F6000 X57.397 Y42.69
G1 F1200 X107.094 Y92.386 E197.22814
G0 F6000 X107.094 Y93.517
G1 F1200 X56.266 Y42.69 E203.3246
G0 F6000 X55.135 Y42.69
G1 F1200 X107.094 Y94.649 E209.55678
G0 F6000 X107.094 Y95.78
G1 F1200 X54.003 Y42.69 E215.92468
G0 F6000 X52.872 Y42.69
G1 F1200 X107.094 Y96.911 E222.42823
G0 F6000 X107.094 Y98.043
G1 F1200 X51.741 Y42.69 E229.0675
G0 F6000 X50.609 Y42.69
G1 F1200 X107.094 Y99.174 E235.84249
G0 F6000 X107.094 Y100.305
G1 F1200 X49.478 Y42.69 E242.75313
G0 F6000 X48.347 Y42.69
G1 F1200 X107.094 Y101.437 E249.79949
G0 F6000 X107.094 Y102.568
G1 F1200 X47.904 Y43.378 E256.89899
G0 F6000 X47.904 Y44.51
G1 F1200 X106.326 Y102.932 E263.90637
G0 F6000 X105.195 Y102.932
G1 F1200 X47.904 Y45.641 E270.77809
G0 F6000 X47.904 Y46.772
G1 F1200 X104.064 Y102.932 E277.51416
G0 F6000 X102.932 Y102.932
G1 F1200 X47.904 Y47.904 E284.11445
G0 F6000 X47.904 Y49.035
G1 F1200 X101.801 Y102.932 E290.57908
G0 F6000 X100.67 Y102.932
G1 F1200 X47.904 Y50.167 E296.90799
G0 F6000 X47.904 Y51.298
G1 F1200 X99.538 Y102.932 E303.10119
G0 F6000 X98.407 Y102.932
G1 F1200 X47.904 Y52.429 E309.15873
G0 F6000 X47.904 Y53.561
G1 F1200 X97.275 Y102.932 E315.08049
G0 F6000 X96.144 Y102.932
G1 F1200 X47.904 Y54.692 E320.8666
G0 F6000 X47.904 Y55.823
G1 F1200 X95.013 Y102.932 E326.51705
G0 F6000 X93.881 Y102.932
G1 F1200 X47.904 Y56.955 E332.03173
G0 F6000 X47.904 Y58.086
G1 F1200 X92.75 Y102.932 E337.41074
G0 F6000 X91.619 Y102.932
G1 F1200 X47.904 Y59.218 E342.65404
G0 F6000 X47.904 Y60.349
G1 F1200 X90.487 Y102.932 E347.76163
G0 F6000 X89.356 Y102.932
G1 F1200 X47.904 Y61.48 E352.73355
G0 F6000 X47.904 Y62.612
G1 F1200 X88.225 Y102.932 E357.56976
G0 F6000 X87.093 Y102.932
G1 F1200 X47.904 Y63.743 E362.27025
G0 F6000 X47.904 Y64.874
G1 F1200 X85.962 Y102.932 E366.83509
G0 F6000 X84.83 Y102.932
G1 F1200 X47.904 Y66.006 E371.26415
G0 F6000 X47.904 Y67.137
G1 F1200 X83.699 Y102.932 E375.55755
G0 F6000 X82.568 Y102.932
G1 F1200 X47.904 Y68.269 E379.71524
G0 F6000 X47.904 Y69.4
G1 F1200 X81.436 Y102.932 E383.7372
G0 F6000 X80.305 Y102.932
G1 F1200 X47.904 Y70.531 E387.62352
G0 F6000 X47.904 Y71.663
G1 F1200 X79.174 Y102.932 E391.37411
G0 F6000 X78.042 Y102.932
G1 F1200 X47.904 Y72.794 E394.98899
G0 F6000 X47.905 Y73.926
G1 F1200 X76.911 Y102.932 E398.46809
G0 F6000 X75.779 Y102.932
G1 F1200 X47.905 Y75.057 E401.81147
G0 F6000 X47.905 Y76.189
G1 F1200 X74.648 Y102.932 E405.01914
G0 F6000 X73.517 Y102.932
G1 F1200 X47.905 Y77.32 E408.09115
G0 F6000 X47.905 Y78.452
G1 F1200 X72.385 Y102.932 E411.02738
G0 F6000 X71.254 Y102.932
G1 F1200 X47.905 Y79.583 E413.82796
G0 F6000 X47.905 Y80.714
G1 F1200 X70.123 Y102.932 E416.49288
G0 F6000 X68.991 Y102.932
G1 F1200 X47.905 Y81.846 E419.02202
G0 F6000 X47.905 Y82.977
G1 F1200 X67.86 Y102.932 E421.41551
G0 F6000 X66.728 Y102.932
G1 F1200 X47.905 Y84.108 E423.67328
G0 F6000 X47.905 Y85.24
G1 F1200 X65.597 Y102.932 E425.79533
G0 F6000 X64.466 Y102.932
G1 F1200 X47.905 Y86.371 E427.78173
G0 F6000 X47.905 Y87.503
G1 F1200 X63.334 Y102.932 E429.63235
G0 F6000 X62.203 Y102.932
G1 F1200 X47.905 Y88.634 E431.34731
G0 F6000 X47.905 Y89.765
G1 F1200 X61.072 Y102.932 E432.92661
G0 F6000 X59.94 Y102.932
G1 F1200 X47.905 Y90.897 E434.37014
G0 F6000 X47.905 Y92.028
G1 F1200 X58.809 Y102.932 E435.67801
G0 F6000 X57.677 Y102.932
G1 F1200 X47.905 Y93.159 E436.85017
G0 F6000 X47.905 Y94.291
G1 F1200 X56.546 Y102.932 E437.8866
G0 F6000 X55.415 Y102.932
G1 F1200 X47.905 Y95.422 E438.78739
G0 F6000 X47.905 Y96.554
G1 F1200 X54.283 Y102.932 E439.55239
G0 F6000 X53.152 Y102.932
G1 F1200 X47.905 Y97.685 E440.18174
G0 F6000 X47.905 Y98.816
G1 F1200 X52.021 Y102.932 E440.67543
G0 F6000 X50.889 Y102.932
G1 F1200 X47.905 Y99.948 E441.03334
G0 F6000 X47.905 Y101.079
G1 F1200 X49.758 Y102.932 E441.2556
G0 F6000 X48.627 Y102.932
G1 F1200 X47.905 Y102.21 E441.3422
G1 F3000 E433.3422
G1 F300 Z0.57
;MESH:f??cher.3mf(3)
G0 F6000 X47.905 Y102.21 Z0.57
G0 X116.796 Y104.044
;TYPE:WALL-INNER
G1 F300 Z0.25
G1 F3000 E441.3422
G1 F1200 X116.795 Y41.979 E446.60614
G1 X116.795 Y41.58 E446.63998
G1 X117.194 Y41.58 E446.66186
G1 X178.205 Y41.58 E451.83641
G1 X178.205 Y104.044 E457.13419
G1 X117.116 Y104.044 E462.31535
G0 F1080 X116.796 Y104.044
G0 F6000 X116.466 Y104.374
G0 X115.996 Y104.68
;TYPE:WALL-OUTER
G1 F1200 X115.995 Y41.48 E467.67555
G1 X114.93 Y41.48 E467.76588
G1 X114.929 Y40.78 E467.82525
G1 X180.07 Y40.78 E473.35007
G1 X180.071 Y41.48 E473.40944
G1 X179.005 Y41.48 E473.49985
G1 X179.005 Y104.682 E478.86023
G1 X178.989 Y104.763 E478.86723
G1 X178.963 Y104.803 E478.87128
G1 X178.925 Y104.828 E478.87513
G1 X178.84 Y104.844 E478.88247
G1 X116.218 Y104.844 E484.19365
G0 F1080 X116.16 Y104.844
G0 X116.075 Y104.828
G0 X116.037 Y104.803
G0 X116.012 Y104.765
G0 X115.996 Y104.68
G0 F6000 X116.872 Y103.964
G0 X117.586 Y103.254
;TYPE:SKIN
G1 F1200 X117.585 Y42.37 E489.35743
G1 X177.415 Y42.37 E494.43181
G1 X177.415 Y103.254 E499.59559
G1 X117.906 Y103.254 E504.64274
G0 F1080 X117.586 Y103.254
G0 F6000 X118.773 Y102.934
G1 F1200 X117.904 Y102.065 E504.74697
G0 F6000 X117.904 Y100.933
G1 F1200 X119.904 Y102.934 E504.98692
G0 F6000 X121.036 Y102.934
G1 F1200 X117.904 Y99.802 E505.36259
G0 F6000 X117.904 Y98.671
G1 F1200 X122.167 Y102.934 E505.87391
G0 F6000 X123.298 Y102.934
G1 F1200 X117.904 Y97.539 E506.52095
G0 F6000 X117.904 Y96.408
G1 F1200 X124.43 Y102.934 E507.3037
G0 F6000 X125.561 Y102.934
G1 F1200 X117.904 Y95.276 E508.22218
G0 F6000 X117.904 Y94.145
G1 F1200 X126.693 Y102.934 E509.27637
G0 F6000 X127.824 Y102.934
G1 F1200 X117.904 Y93.014 E510.46621
G0 F6000 X117.904 Y91.882
G1 F1200 X128.955 Y102.934 E511.79178
G0 F6000 X130.087 Y102.934
G1 F1200 X117.904 Y90.751 E513.25306
G0 F6000 X117.904 Y89.62
G1 F1200 X131.218 Y102.934 E514.84999
G0 F6000 X132.349 Y102.934
G1 F1200 X117.904 Y88.488 E516.58265
G0 F6000 X117.904 Y87.357
G1 F1200 X133.481 Y102.934 E518.45102
G0 F6000 X134.612 Y102.934
G1 F1200 X117.904 Y86.226 E520.45504
G0 F6000 X117.904 Y85.094
G1 F1200 X135.743 Y102.934 E522.59479
G0 F6000 X136.875 Y102.934
G1 F1200 X117.904 Y83.963 E524.87025
G0 F6000 X117.904 Y82.831
G1 F1200 X138.006 Y102.934 E527.28143
G0 F6000 X139.138 Y102.934
G1 F1200 X117.904 Y81.7 E529.82832
G0 F6000 X117.904 Y80.569
G1 F1200 X140.269 Y102.934 E532.51087
G0 F6000 X141.4 Y102.934
G1 F1200 X117.904 Y79.437 E535.32914
G0 F6000 X117.904 Y78.306
G1 F1200 X142.532 Y102.934 E538.28313
G0 F6000 X143.663 Y102.934
G1 F1200 X117.904 Y77.175 E541.37277
G0 F6000 X117.904 Y76.043
G1 F1200 X144.794 Y102.934 E544.59813
G0 F6000 X145.926 Y102.934
G1 F1200 X117.904 Y74.912 E547.9592
G0 F6000 X117.904 Y73.78
G1 F1200 X147.057 Y102.934 E551.456
G0 F6000 X148.189 Y102.934
G1 F1200 X117.904 Y72.649 E555.08851
G0 F6000 X117.904 Y71.518
G1 F1200 X149.32 Y102.934 E558.85667
G0 F6000 X150.451 Y102.934
G1 F1200 X117.904 Y70.386 E562.76056
G0 F6000 X117.904 Y69.255
G1 F1200 X151.583 Y102.934 E566.80016
G0 F6000 X152.714 Y102.934
G1 F1200 X117.904 Y68.124 E570.97541
G0 F6000 X117.904 Y66.992
G1 F1200 X153.845 Y102.934 E575.28639
G0 F6000 X154.977 Y102.934
G1 F1200 X117.904 Y65.861 E579.73308
G0 F6000 X117.904 Y64.729
G1 F1200 X156.108 Y102.934 E584.31549
G0 F6000 X157.24 Y102.934
G1 F1200 X117.904 Y63.598 E589.03361
G0 F6000 X117.904 Y62.467
G1 F1200 X158.371 Y102.934 E593.88739
G0 F6000 X159.502 Y102.934
G1 F1200 X117.904 Y61.335 E598.87689
G0 F6000 X117.904 Y60.204
G1 F1200 X160.634 Y102.934 E604.0021
G0 F6000 X161.765 Y102.934
G1 F1200 X117.904 Y59.073 E609.26298
G0 F6000 X117.904 Y57.941
G1 F1200 X162.896 Y102.934 E614.65956
G0 F6000 X164.028 Y102.934
G1 F1200 X117.904 Y56.81 E620.19187
G0 F6000 X117.904 Y55.679
G1 F1200 X165.159 Y102.934 E625.85983
G0 F6000 X166.291 Y102.934
G1 F1200 X117.904 Y54.547 E631.66357
G0 F6000 X117.904 Y53.416
G1 F1200 X167.422 Y102.934 E637.60297
G0 F6000 X168.553 Y102.934
G1 F1200 X117.904 Y52.284 E643.67808
G0 F6000 X117.904 Y51.153
G1 F1200 X169.685 Y102.934 E649.88891
G0 F6000 X170.816 Y102.934
G1 F1200 X117.904 Y50.022 E656.2354
G0 F6000 X117.904 Y48.89
G1 F1200 X171.947 Y102.934 E662.7176
G0 F6000 X173.079 Y102.934
G1 F1200 X117.904 Y47.759 E669.33552
G0 F6000 X117.904 Y46.628
G1 F1200 X174.21 Y102.934 E676.0891
G0 F6000 X175.341 Y102.934
G1 F1200 X117.904 Y45.496 E682.97839
G0 F6000 X117.904 Y44.365
G1 F1200 X176.473 Y102.934 E690.0034
G0 F6000 X177.094 Y102.423
G1 F1200 X117.904 Y43.233 E697.1029
G0 F6000 X118.492 Y42.69
G1 F1200 X177.094 Y101.292 E704.13187
G0 F6000 X177.094 Y100.16
G1 F1200 X119.623 Y42.69 E711.02512
G0 F6000 X120.754 Y42.69
G1 F1200 X177.094 Y99.029 E717.78271
G0 F6000 X177.094 Y97.898
G1 F1200 X121.886 Y42.69 E724.40459
G0 F6000 X123.017 Y42.69
G1 F1200 X177.094 Y96.766 E730.89075
G0 F6000 X177.094 Y95.635
G1 F1200 X124.148 Y42.69 E737.24126
G0 F6000 X125.28 Y42.69
G1 F1200 X177.094 Y94.504 E743.45605
G0 F6000 X177.094 Y93.372
G1 F1200 X126.411 Y42.69 E749.53512
G0 F6000 X127.542 Y42.69
G1 F1200 X177.094 Y92.241 E755.47853
G0 F6000 X177.094 Y91.11
G1 F1200 X128.674 Y42.69 E761.28623
G0 F6000 X129.805 Y42.69
G1 F1200 X177.094 Y89.978 E766.95821
G0 F6000 X177.094 Y88.847
G1 F1200 X130.937 Y42.69 E772.49447
G0 F6000 X132.068 Y42.69
G1 F1200 X177.094 Y87.715 E777.89502
G0 F6000 X177.094 Y86.584
G1 F1200 X133.199 Y42.69 E783.15991
G0 F6000 X134.331 Y42.69
G1 F1200 X177.094 Y85.453 E788.28908
G0 F6000 X177.094 Y84.321
G1 F1200 X135.462 Y42.69 E793.28254
G0 F6000 X136.593 Y42.69
G1 F1200 X177.094 Y83.19 E798.14034
G0 F6000 X177.094 Y82.059
G1 F1200 X137.725 Y42.69 E802.86242
G0 F6000 X138.856 Y42.69
G1 F1200 X177.094 Y80.927 E807.44879
G0 F6000 X177.094 Y79.796
G1 F1200 X139.988 Y42.69 E811.89944
G0 F6000 X141.119 Y42.69
G1 F1200 X177.094 Y78.664 E816.21437
G0 F6000 X177.094 Y77.533
G1 F1200 X142.25 Y42.69 E820.39364
G0 F6000 X143.382 Y42.69
G1 F1200 X177.094 Y76.402 E824.4372
G0 F6000 X177.094 Y75.27
G1 F1200 X144.513 Y42.69 E828.34504
G0 F6000 X145.644 Y42.69
G1 F1200 X177.094 Y74.139 E832.11723
G0 F6000 X177.094 Y73.008
G1 F1200 X146.776 Y42.69 E835.75369
G0 F6000 X147.907 Y42.69
G1 F1200 X177.094 Y71.876 E839.25445
G0 F6000 X177.094 Y70.745
G1 F1200 X149.039 Y42.69 E842.61948
G0 F6000 X150.17 Y42.69
G1 F1200 X177.094 Y69.613 E845.8488
G0 F6000 X177.094 Y68.482
G1 F1200 X151.301 Y42.69 E848.94246
G0 F6000 X152.433 Y42.69
G1 F1200 X177.094 Y67.351 E851.9004
G0 F6000 X177.094 Y66.219
G1 F1200 X153.564 Y42.69 E854.72263
G0 F6000 X154.695 Y42.69
G1 F1200 X177.094 Y65.088 E857.4092
G0 F6000 X177.094 Y63.957
G1 F1200 X155.827 Y42.69 E859.96005
G0 F6000 X156.958 Y42.69
G1 F1200 X177.094 Y62.825 E862.37519
G0 F6000 X177.094 Y61.694
G1 F1200 X158.089 Y42.69 E864.65466
G0 F6000 X159.221 Y42.69
G1 F1200 X177.094 Y60.562 E866.79837
G0 F6000 X177.094 Y59.431
G1 F1200 X160.352 Y42.69 E868.80641
G0 F6000 X161.484 Y42.69
G1 F1200 X177.094 Y58.3 E870.67874
G0 F6000 X177.094 Y57.168
G1 F1200 X162.615 Y42.69 E872.41535
