;FLAVOR:Marlin
;TIME:9361
;Filament used: 27.1114m
;Layer height: 0.5
;MINX:44.02
;MINY:34.281
;MINZ:0.25
;MAXX:180.98
;MAXY:185.82
;MAXZ:24.57
;Generated with Cura_SteamEngine 4.4.1
M140 S60
M105
M190 S60
M104 S237
M105
M109 S237
M82 ;absolute extrusion mode
M82 ;absolute extrusion mode
M201 X500.00 Y500.00 Z100.00 E5000.00 ;Setup machine max acceleration
M203 X500.00 Y500.00 Z10.00 E75.00 ;Setup machine max feedrate
M204 P500.00 R1000.00 T500.00 ;Setup Print/Retract/Travel acceleration
M205 X8.00 Y8.00 Z0.40 E5.00 ;Setup Jerk
M220 S100 ;Reset Feedrate
M221 S100 ;Reset Flowrate

G21 ; (metric values)
G90 ; (absolute positioning)
M82 ; (set extruder to absolute mode)
G28 ; (home all axis)
G29 ; (Auto Level)

G92 E0 ;Reset Extruder
G1 Z2.0 F3000 ;Move Z Axis up
G1 X1.1 Y50 Z0.28 F5000.0 ;Move to start position
G1 X1.1 Y200.0 Z0.28 F1500.0 E15 ;Draw the first line
G1 X1.4 Y200.0 Z0.28 F5000.0 ;Move to side a little
G1 X1.4 Y100 Z0.28 F1500.0 E30 ;Draw the second line
G92 E0 ;Reset Extruder
G1 Z2.0 F3000 ;Move Z Axis up
G92 E0
G1 F3000 E-8
;LAYER_COUNT:49
;LAYER:0
M107
G1 F300 Z0.57
;MESH:EmptyDrawer.stl(1)
G0 F6000 X46.894 Y41.58 Z0.57
;TYPE:WALL-INNER
G1 F300 Z0.25
G1 F3000 E0
G1 F1200 X47.293 Y41.58 E0.03384
G1 X108.106 Y41.58 E5.19159
G1 X108.106 Y103.945 E10.48098
G1 X46.895 Y103.945 E15.67249
G1 X46.894 Y41.979 E20.92803
G1 X46.894 Y41.58 E20.94991
G1 F3000 E12.94991
G0 F6000 X45.169 Y40.85
G0 X45.099 Y40.78
;TYPE:WALL-OUTER
G1 F3000 E20.94991
G1 F1200 X109.9 Y40.78 E26.4459
G1 X109.901 Y41.48 E26.50527
G1 X108.906 Y41.48 E26.58966
G1 X108.906 Y104.681 E31.94995
G1 X108.897 Y104.725 E31.95376
G1 X108.887 Y104.736 E31.95502
G1 X108.839 Y104.745 E31.95916
G1 X46.161 Y104.745 E37.27509
G1 X46.113 Y104.736 E37.27923
G1 X46.104 Y104.727 E37.28031
G1 X46.095 Y104.679 E37.28446
G1 X46.094 Y41.48 E42.64457
G1 X45.1 Y41.48 E42.72888
G1 X45.099 Y41.1 E42.76111
G0 F1080 X45.099 Y40.78
G0 F6000 X45.169 Y40.85
G0 X46.386 Y41.391
G0 X47.684 Y42.37
;TYPE:SKIN
G1 F1200 X107.316 Y42.37 E47.8187
G1 X107.316 Y103.155 E52.97408
G1 X47.685 Y103.155 E58.03158
G1 X47.684 Y42.69 E63.15982
G0 F1080 X47.684 Y42.37
G1 F3000 E55.15982
G0 F6000 X106.995 Y43.638
G1 F3000 E63.15982
G1 F1200 X106.046 Y42.69 E63.27359
G0 F6000 X104.915 Y42.69
G1 F1200 X106.995 Y44.769 E63.52301
G0 F6000 X106.995 Y45.901
G1 F1200 X103.784 Y42.69 E63.90815
G0 F6000 X102.652 Y42.69
G1 F1200 X106.995 Y47.032 E64.42901
G0 F6000 X106.995 Y48.163
G1 F1200 X101.521 Y42.69 E65.08552
G0 F6000 X100.39 Y42.69
G1 F1200 X106.995 Y49.295 E65.87776
G0 F6000 X106.995 Y50.426
G1 F1200 X99.258 Y42.69 E66.8057
G0 F6000 X98.127 Y42.69
G1 F1200 X106.995 Y51.557 E67.86931
G0 F6000 X106.995 Y52.689
G1 F1200 X96.995 Y42.69 E69.06869
G0 F6000 X95.864 Y42.69
G1 F1200 X106.995 Y53.82 E70.40373
G0 F6000 X106.995 Y54.952
G1 F1200 X94.733 Y42.69 E71.87448
G0 F6000 X93.601 Y42.69
G1 F1200 X106.995 Y56.083 E73.48096
G0 F6000 X106.995 Y57.214
G1 F1200 X92.47 Y42.69 E75.22309
G0 F6000 X91.339 Y42.69
G1 F1200 X106.995 Y58.346 E77.10093
G0 F6000 X106.995 Y59.477
G1 F1200 X90.207 Y42.69 E79.1145
G0 F6000 X89.076 Y42.69
G1 F1200 X106.995 Y60.608 E81.26372
G0 F6000 X106.995 Y61.74
G1 F1200 X87.944 Y42.69 E83.54871
G0 F6000 X86.813 Y42.69
G1 F1200 X106.995 Y62.871 E85.96937
G0 F6000 X106.995 Y64.003
G1 F1200 X85.682 Y42.69 E88.52574
G0 F6000 X84.55 Y42.69
G1 F1200 X106.995 Y65.134 E91.21782
G0 F6000 X106.995 Y66.265
G1 F1200 X83.419 Y42.69 E94.04557
G0 F6000 X82.288 Y42.69
G1 F1200 X106.995 Y67.397 E97.00903
G0 F6000 X106.995 Y68.528
G1 F1200 X81.156 Y42.69 E100.10821
G0 F6000 X80.025 Y42.69
G1 F1200 X106.995 Y69.659 E103.34304
G0 F6000 X106.995 Y70.791
G1 F1200 X78.894 Y42.69 E106.71359
G0 F6000 X77.762 Y42.69
G1 F1200 X106.995 Y71.922 E110.21986
G0 F6000 X106.995 Y73.054
G1 F1200 X76.631 Y42.69 E113.86185
G0 F6000 X75.499 Y42.69
G1 F1200 X106.995 Y74.185 E117.63955
G0 F6000 X106.995 Y75.316
G1 F1200 X74.368 Y42.69 E121.55291
G0 F6000 X73.237 Y42.69
G1 F1200 X106.995 Y76.448 E125.60198
G0 F6000 X106.995 Y77.579
G1 F1200 X72.105 Y42.69 E129.78677
G0 F6000 X70.974 Y42.69
G1 F1200 X106.995 Y78.71 E134.10722
G0 F6000 X106.995 Y79.842
G1 F1200 X69.843 Y42.69 E138.56339
G0 F6000 X68.711 Y42.69
G1 F1200 X106.995 Y80.973 E143.15527
G0 F6000 X106.995 Y82.104
G1 F1200 X67.58 Y42.69 E147.88281
G0 F6000 X66.448 Y42.69
G1 F1200 X106.995 Y83.236 E152.74613
G0 F6000 X106.995 Y84.367
G1 F1200 X65.317 Y42.69 E157.7451
G0 F6000 X64.186 Y42.69
G1 F1200 X106.995 Y85.499 E162.87979
G0 F6000 X106.995 Y86.63
G1 F1200 X63.054 Y42.69 E168.1502
G0 F6000 X61.923 Y42.69
G1 F1200 X106.995 Y87.761 E173.55627
G0 F6000 X106.995 Y88.893
G1 F1200 X60.792 Y42.69 E179.09805
G0 F6000 X59.66 Y42.69
G1 F1200 X106.995 Y90.024 E184.77554
G0 F6000 X106.995 Y91.155
G1 F1200 X58.529 Y42.69 E190.5887
G0 F6000 X57.397 Y42.69
G1 F1200 X106.995 Y92.287 E196.53763
G0 F6000 X106.995 Y93.418
G1 F1200 X56.266 Y42.69 E202.62222
G0 F6000 X55.135 Y42.69
G1 F1200 X106.995 Y94.55 E208.84252
G0 F6000 X106.995 Y95.681
G1 F1200 X54.003 Y42.69 E215.19855
G0 F6000 X52.872 Y42.69
G1 F1200 X106.995 Y96.812 E221.69023
G0 F6000 X106.995 Y97.944
G1 F1200 X51.741 Y42.69 E228.31762
G0 F6000 X50.609 Y42.69
G1 F1200 X106.995 Y99.075 E235.08073
G0 F6000 X106.995 Y100.206
G1 F1200 X49.478 Y42.69 E241.9795
G0 F6000 X48.347 Y42.69
G1 F1200 X106.995 Y101.338 E249.01399
G0 F6000 X106.995 Y102.469
G1 F1200 X48.003 Y43.477 E256.08974
G0 F6000 X48.003 Y44.609
G1 F1200 X106.227 Y102.833 E263.07337
G0 F6000 X105.096 Y102.833
G1 F1200 X48.003 Y45.74 E269.92134
G0 F6000 X48.003 Y46.871
G1 F1200 X103.965 Y102.833 E276.63366
G0 F6000 X102.833 Y102.833
G1 F1200 X48.003 Y48.003 E283.2102
G0 F6000 X48.003 Y49.134
G1 F1200 X101.702 Y102.833 E289.65108
G0 F6000 X100.571 Y102.833
G1 F1200 X48.003 Y50.266 E295.95624
G0 F6000 X48.003 Y51.397
G1 F1200 X99.439 Y102.833 E302.12569
G0 F6000 X98.308 Y102.833
G1 F1200 X48.003 Y52.528 E308.15949
G0 F6000 X48.003 Y53.66
G1 F1200 X97.176 Y102.833 E314.0575
G0 F6000 X96.045 Y102.833
G1 F1200 X48.003 Y54.791 E319.81986
G0 F6000 X48.003 Y55.922
G1 F1200 X94.914 Y102.833 E325.44656
G0 F6000 X93.782 Y102.833
G1 F1200 X48.003 Y57.054 E330.93749
G0 F6000 X48.003 Y58.185
G1 F1200 X92.651 Y102.833 E336.29275
G0 F6000 X91.52 Y102.833
G1 F1200 X48.003 Y59.317 E341.5123
G0 F6000 X48.003 Y60.448
G1 F1200 X90.388 Y102.833 E346.59614
G0 F6000 X89.257 Y102.833
G1 F1200 X48.003 Y61.579 E351.54432
G0 F6000 X48.003 Y62.711
G1 F1200 X88.126 Y102.833 E356.35678
G0 F6000 X86.994 Y102.833
G1 F1200 X48.003 Y63.842 E361.03352
G0 F6000 X48.003 Y64.973
G1 F1200 X85.863 Y102.833 E365.57461
G0 F6000 X84.731 Y102.833
G1 F1200 X48.003 Y66.105 E369.97992
G0 F6000 X48.003 Y67.236
G1 F1200 X83.6 Y102.833 E374.24957
G0 F6000 X82.469 Y102.833
G1 F1200 X48.003 Y68.368 E378.38351
G0 F6000 X48.003 Y69.499
G1 F1200 X81.337 Y102.833 E382.38172
G0 F6000 X80.206 Y102.833
G1 F1200 X48.003 Y70.63 E386.24429
G0 F6000 X48.003 Y71.762
G1 F1200 X79.075 Y102.833 E389.97113
G0 F6000 X77.943 Y102.833
G1 F1200 X48.004 Y72.894 E393.56214
G0 F6000 X48.004 Y74.025
G1 F1200 X76.812 Y102.833 E397.01749
G0 F6000 X75.68 Y102.833
G1 F1200 X48.004 Y75.156 E400.33713
G0 F6000 X48.004 Y76.288
G1 F1200 X74.549 Y102.833 E403.52105
G0 F6000 X73.418 Y102.833
G1 F1200 X48.004 Y77.419 E406.56931
G0 F6000 X48.004 Y78.551
G1 F1200 X72.286 Y102.833 E409.48179
G0 F6000 X71.155 Y102.833
G1 F1200 X48.004 Y79.682 E412.25862
G0 F6000 X48.004 Y80.813
G1 F1200 X70.024 Y102.833 E414.89979
G0 F6000 X68.892 Y102.833
G1 F1200 X48.004 Y81.945 E417.40519
G0 F6000 X48.004 Y83.076
G1 F1200 X67.761 Y102.833 E419.77492
G0 F6000 X66.629 Y102.833
G1 F1200 X48.004 Y84.207 E422.00894
G0 F6000 X48.004 Y85.339
G1 F1200 X65.498 Y102.833 E424.10725
G0 F6000 X64.367 Y102.833
G1 F1200 X48.004 Y86.47 E426.06989
G0 F6000 X48.004 Y87.602
G1 F1200 X63.235 Y102.833 E427.89676
G0 F6000 X62.104 Y102.833
G1 F1200 X48.004 Y88.733 E429.58798
G0 F6000 X48.004 Y89.864
G1 F1200 X60.973 Y102.833 E431.14353
G0 F6000 X59.841 Y102.833
G1 F1200 X48.004 Y90.996 E432.56331
G0 F6000 X48.004 Y92.127
G1 F1200 X58.71 Y102.833 E433.84743
G0 F6000 X57.578 Y102.833
G1 F1200 X48.004 Y93.258 E434.99584
G0 F6000 X48.004 Y94.39
G1 F1200 X56.447 Y102.833 E436.00853
G0 F6000 X55.316 Y102.833
G1 F1200 X48.004 Y95.521 E436.88556
G0 F6000 X48.004 Y96.653
G1 F1200 X54.184 Y102.833 E437.62682
G0 F6000 X53.053 Y102.833
G1 F1200 X48.004 Y97.784 E438.23241
G0 F6000 X48.004 Y98.915
G1 F1200 X51.922 Y102.833 E438.70236
G0 F6000 X50.79 Y102.833
G1 F1200 X48.004 Y100.047 E439.03652
G0 F6000 X48.004 Y101.178
G1 F1200 X49.659 Y102.833 E439.23503
G0 F6000 X48.528 Y102.833
G1 F1200 X48.004 Y102.309 E439.29788
G1 F3000 E431.29788
G1 F300 Z0.57
;MESH:EmptyDrawer.stl(3)
G0 F6000 X48.004 Y102.309 Z0.57
G0 X116.895 Y103.945
;TYPE:WALL-INNER
G1 F300 Z0.25
G1 F3000 E439.29788
G1 F1200 X116.894 Y41.979 E444.55342
G1 X116.894 Y41.58 E444.58726
G1 X117.293 Y41.58 E444.60914
G1 X178.106 Y41.58 E449.7669
G1 X178.106 Y103.945 E455.05628
G1 X117.215 Y103.945 E460.22065
G0 F1080 X116.895 Y103.945
G0 F6000 X116.565 Y104.275
G0 X116.095 Y104.679
;TYPE:WALL-OUTER
G1 F1200 X116.094 Y41.48 E465.58077
G1 X115.1 Y41.48 E465.66507
G1 X115.099 Y40.78 E465.72444
G1 X179.9 Y40.78 E471.22043
G1 X179.901 Y41.48 E471.2798
G1 X178.906 Y41.48 E471.36419
G1 X178.906 Y104.681 E476.72448
G1 X178.897 Y104.725 E476.72829
G1 X178.887 Y104.736 E476.72955
G1 X178.839 Y104.745 E476.73369
G1 X116.373 Y104.745 E482.03164
G0 F1080 X116.161 Y104.745
G0 X116.113 Y104.736
G0 X116.104 Y104.727
G0 X116.095 Y104.679
G0 F6000 X116.971 Y103.865
G0 X117.685 Y103.155
;TYPE:SKIN
G1 F1200 X117.684 Y42.37 E487.18702
G1 X177.316 Y42.37 E492.24461
G1 X177.316 Y103.155 E497.39999
G1 X118.005 Y103.155 E502.43035
G0 F1080 X117.685 Y103.155
G0 F6000 X118.674 Y102.835
G1 F1200 X118.003 Y102.164 E502.51084
G0 F6000 X118.003 Y101.032
G1 F1200 X119.805 Y102.835 E502.72704
G0 F6000 X120.937 Y102.835
G1 F1200 X118.003 Y99.901 E503.07895
G0 F6000 X118.003 Y98.77
G1 F1200 X122.068 Y102.835 E503.56653
G0 F6000 X123.199 Y102.835
G1 F1200 X118.003 Y97.638 E504.18982
G0 F6000 X118.003 Y96.507
G1 F1200 X124.331 Y102.835 E504.94882
G0 F6000 X125.462 Y102.835
G1 F1200 X118.003 Y95.375 E505.84355
G0 F6000 X118.003 Y94.244
G1 F1200 X126.594 Y102.835 E506.87399
G0 F6000 X127.725 Y102.835
G1 F1200 X118.003 Y93.113 E508.04008
G0 F6000 X118.003 Y91.981
G1 F1200 X128.856 Y102.835 E509.3419
G0 F6000 X129.988 Y102.835
G1 F1200 X118.003 Y90.85 E510.77943
G0 F6000 X118.003 Y89.719
G1 F1200 X131.119 Y102.835 E512.35262
G0 F6000 X132.25 Y102.835
G1 F1200 X118.003 Y88.587 E514.06152
G0 F6000 X118.003 Y87.456
G1 F1200 X133.382 Y102.835 E515.90614
G0 F6000 X134.513 Y102.835
G1 F1200 X118.003 Y86.325 E517.88642
G0 F6000 X118.003 Y85.193
G1 F1200 X135.645 Y102.835 E520.00248
G0 F6000 X136.776 Y102.835
G1 F1200 X118.003 Y84.062 E522.25419
G0 F6000 X118.003 Y82.93
G1 F1200 X137.907 Y102.835 E524.64162
G0 F6000 X139.039 Y102.835
G1 F1200 X118.003 Y81.799 E527.16476
G0 F6000 X118.003 Y80.668
G1 F1200 X140.17 Y102.835 E529.82357
G0 F6000 X141.301 Y102.835
G1 F1200 X118.003 Y79.536 E532.61809
G0 F6000 X118.003 Y78.405
G1 F1200 X142.433 Y102.835 E535.54832
G0 F6000 X143.564 Y102.835
G1 F1200 X118.003 Y77.274 E538.61422
G0 F6000 X118.003 Y76.142
G1 F1200 X144.695 Y102.835 E541.81583
G0 F6000 X145.827 Y102.835
G1 F1200 X118.003 Y75.011 E545.15315
G0 F6000 X118.003 Y73.879
G1 F1200 X146.958 Y102.835 E548.6262
G0 F6000 X148.09 Y102.835
G1 F1200 X118.003 Y72.748 E552.23496
G0 F6000 X118.003 Y71.617
G1 F1200 X149.221 Y102.835 E555.97937
G0 F6000 X150.352 Y102.835
G1 F1200 X118.003 Y70.485 E559.85951
G0 F6000 X118.003 Y69.354
G1 F1200 X151.484 Y102.835 E563.87536
G0 F6000 X152.615 Y102.835
G1 F1200 X118.003 Y68.223 E568.02687
G0 F6000 X118.003 Y67.091
G1 F1200 X153.746 Y102.835 E572.31409
G0 F6000 X154.878 Y102.835
G1 F1200 X118.003 Y65.96 E576.73703
G0 F6000 X118.003 Y64.828
G1 F1200 X156.009 Y102.835 E581.29569
G0 F6000 X157.141 Y102.835
G1 F1200 X118.003 Y63.697 E585.99007
G0 F6000 X118.003 Y62.566
G1 F1200 X158.272 Y102.835 E590.8201
G0 F6000 X159.403 Y102.835
G1 F1200 X118.003 Y61.434 E595.78585
G0 F6000 X118.003 Y60.303
G1 F1200 X160.535 Y102.835 E600.88732
G0 F6000 X161.666 Y102.835
G1 F1200 X118.003 Y59.172 E606.12444
G0 F6000 X118.003 Y58.04
G1 F1200 X162.797 Y102.835 E611.49728
G0 F6000 X163.929 Y102.835
G1 F1200 X118.003 Y56.909 E617.00583
G0 F6000 X118.003 Y55.777
G1 F1200 X165.06 Y102.835 E622.65011
G0 F6000 X166.192 Y102.835
G1 F1200 X118.003 Y54.646 E628.4301
G0 F6000 X118.003 Y53.515
G1 F1200 X167.323 Y102.835 E634.34575
G0 F6000 X168.454 Y102.835
G1 F1200 X118.003 Y52.383 E640.39711
G0 F6000 X118.003 Y51.252
G1 F1200 X169.586 Y102.835 E646.58419
G0 F6000 X170.717 Y102.835
G1 F1200 X118.003 Y50.121 E652.90693
G0 F6000 X118.003 Y48.989
G1 F1200 X171.848 Y102.835 E659.36538
G0 F6000 X172.98 Y102.835
G1 F1200 X118.003 Y47.858 E665.95955
G0 F6000 X118.003 Y46.727
G1 F1200 X174.111 Y102.835 E672.68938
G0 F6000 X175.242 Y102.835
G1 F1200 X118.003 Y45.595 E679.55493
G0 F6000 X118.003 Y44.464
G1 F1200 X176.374 Y102.835 E686.55619
G0 F6000 X176.995 Y102.324
G1 F1200 X118.003 Y43.332 E693.63194
G0 F6000 X118.492 Y42.69
G1 F1200 X176.995 Y101.193 E700.64903
G0 F6000 X176.995 Y100.061
G1 F1200 X119.623 Y42.69 E707.53041
G0 F6000 X120.754 Y42.69
G1 F1200 X176.995 Y98.93 E714.27613
G0 F6000 X176.995 Y97.799
G1 F1200 X121.886 Y42.69 E720.88613
G0 F6000 X123.017 Y42.69
G1 F1200 X176.995 Y96.667 E727.36042
G0 F6000 X176.995 Y95.536
G1 F1200 X124.148 Y42.69 E733.69905
G0 F6000 X125.28 Y42.69
G1 F1200 X176.995 Y94.405 E739.90196
G0 F6000 X176.995 Y93.273
G1 F1200 X126.411 Y42.69 E745.96916
G0 F6000 X127.542 Y42.69
G1 F1200 X176.995 Y92.142 E751.9007
G0 F6000 X176.995 Y91.011
G1 F1200 X128.674 Y42.69 E757.69652
G0 F6000 X129.805 Y42.69
G1 F1200 X176.995 Y89.879 E763.35663
G0 F6000 X176.995 Y88.748
G1 F1200 X130.937 Y42.69 E768.88102
G0 F6000 X132.068 Y42.69
G1 F1200 X176.995 Y87.616 E774.26969
G0 F6000 X176.995 Y86.485
G1 F1200 X133.199 Y42.69 E779.5227
G0 F6000 X134.331 Y42.69
G1 F1200 X176.995 Y85.354 E784.64
G0 F6000 X176.995 Y84.222
G1 F1200 X135.462 Y42.69 E789.62159
G0 F6000 X136.593 Y42.69
G1 F1200 X176.995 Y83.091 E794.46751
G0 F6000 X176.995 Y81.96
G1 F1200 X137.725 Y42.69 E799.17772
G0 F6000 X138.856 Y42.69
G1 F1200 X176.995 Y80.828 E803.75221
G0 F6000 X176.995 Y79.697
G1 F1200 X139.988 Y42.69 E808.19098
G0 F6000 X141.119 Y42.69
G1 F1200 X176.995 Y78.565 E812.49404
G0 F6000 X176.995 Y77.434
G1 F1200 X142.25 Y42.69 E816.66144
G0 F6000 X143.382 Y42.69
G1 F1200 X176.995 Y76.303 E820.69313
G0 F6000 X176.995 Y75.171
G1 F1200 X144.513 Y42.69 E824.58909
G0 F6000 X145.644 Y42.69
G1 F1200 X176.995 Y74.04 E828.3494
G0 F6000 X176.995 Y72.909
G1 F1200 X146.776 Y42.69 E831.974
G0 F6000 X147.907 Y42.69
G1 F1200 X176.995 Y71.777 E835.46287
G0 F6000 X176.995 Y70.646
G1 F1200 X149.039 Y42.69 E838.81603
G0 F6000 X150.17 Y42.69
G1 F1200 X176.995 Y69.514 E842.03347
G0 F6000 X176.995 Y68.383
G1 F1200 X151.301 Y42.69 E845.11526
G0 F6000 X152.433 Y42.69
G1 F1200 X176.995 Y67.252 E848.06133
G0 F6000 X176.995 Y66.12
G1 F1200 X153.564 Y42.69 E850.87168
G0 F6000 X154.695 Y42.69
G1 F1200 X176.995 Y64.989 E853.54638
G0 F6000 X176.995 Y63.858
G1 F1200 X155.827 Y42.69 E856.08536
G0 F6000 X156.958 Y42.69
G1 F1200 X176.995 Y62.726 E858.48862
G0 F6000 X176.995 Y61.595
G1 F1200 X158.089 Y42.69 E860.75622
G0 F6000 X159.221 Y42.69
G1 F1200 X176.995 Y60.463 E862.88805
G0 F6000 X176.995 Y59.332
G1 F1200 X160.352 Y42.69 E864.88422
G0 F6000 X161.484 Y42.69
G1 F1200 X176.995 Y58.201 E866.74467
