;FLAVOR:Marlin
;TIME:11573
;Filament used: 39.8203m
;Layer height: 0.5
;MINX:81.005
;MINY:54.047
;MINZ:0.25
;MAXX:153.995
;MAXY:165.953
;MAXZ:67.75
;Generated with Cura_SteamEngine 4.4.1
M140 S60
M105
M190 S60
M104 S237
M105
M109 S237
M82 ;absolute extrusion mode
M82 ;absolute extrusion mode
M201 X500.00 Y500.00 Z100.00 E5000.00 ;Setup machine max acceleration
M203 X500.00 Y500.00 Z10.00 E75.00 ;Setup machine max feedrate
M204 P500.00 R1000.00 T500.00 ;Setup Print/Retract/Travel acceleration
M205 X8.00 Y8.00 Z0.40 E5.00 ;Setup Jerk
M220 S100 ;Reset Feedrate
M221 S100 ;Reset Flowrate

G21 ; (metric values)
G90 ; (absolute positioning)
M82 ; (set extruder to absolute mode)
G28 ; (home all axis)
G29 ; (Auto Level)

G92 E0 ;Reset Extruder
G1 Z2.0 F3000 ;Move Z Axis up
G1 X1.1 Y50 Z0.28 F5000.0 ;Move to start position
G1 X1.1 Y200.0 Z0.28 F1500.0 E15 ;Draw the first line
G1 X1.4 Y200.0 Z0.28 F5000.0 ;Move to side a little
G1 X1.4 Y100 Z0.28 F1500.0 E30 ;Draw the second line
G92 E0 ;Reset Extruder
G1 Z2.0 F3000 ;Move Z Axis up

G92 E0
G1 F3000 E-8
;LAYER_COUNT:136
;LAYER:0
M107
G1 F300 Z0.57
;MESH:BoxSingle.stl
G0 F6000 X82.052 Y55.005 Z0.57
;TYPE:WALL-INNER
G1 F300 Z0.25
G1 F3000 E0
G1 F1200 X82.175 Y54.882 E0.01475
G1 X82.293 Y54.847 E0.02519
G1 X152.704 Y54.847 E5.99698
G1 X152.829 Y54.884 E6.00804
G1 X152.944 Y54.999 E6.02183
G1 X153.112 Y55.376 E6.05684
G1 X153.194 Y55.986 E6.10904
G1 X153.195 Y57.218 E6.21353
G1 X153.195 Y163.996 E15.26973
G1 X153.113 Y164.623 E15.32336
G1 X152.948 Y164.995 E15.35788
G1 X152.827 Y165.116 E15.37239
G1 X152.702 Y165.153 E15.38345
G1 X82.293 Y165.153 E21.35507
G1 X82.173 Y165.118 E21.36567
G1 X82.053 Y164.997 E21.38012
G1 X81.888 Y164.626 E21.41456
G1 X81.806 Y164.014 E21.46693
G1 X81.805 Y162.442 E21.60026
G1 X81.805 Y56.004 E30.62762
G1 X81.887 Y55.377 E30.68125
G1 X81.922 Y55.298 E30.68858
G0 F1080 X82.052 Y55.005
G0 F6000 X81.382 Y54.543
;TYPE:WALL-OUTER
G1 F1200 X81.752 Y54.173 E30.73296
G1 X82.177 Y54.047 E30.77056
G1 X152.821 Y54.047 E36.76211
G1 X153.249 Y54.174 E36.79997
G1 X153.615 Y54.538 E36.84375
G1 X153.89 Y55.154 E36.90097
G1 X153.994 Y55.932 E36.96754
G1 X153.995 Y57.217 E37.07653
G1 X153.995 Y164.045 E46.13697
G1 X153.891 Y164.843 E46.20522
G1 X153.618 Y165.457 E46.26221
G1 X153.25 Y165.825 E46.30635
G1 X152.824 Y165.952 E46.34405
G1 X152.747 Y165.953 E46.35058
G1 X82.177 Y165.953 E52.33586
G1 X81.752 Y165.827 E52.37346
G1 X81.382 Y165.458 E52.41778
G1 X81.11 Y164.846 E52.47458
G1 X81.006 Y164.068 E52.54115
G1 X81.005 Y162.442 E52.67906
G1 X81.005 Y55.955 E61.71057
G1 X81.109 Y55.157 E61.77883
G1 X81.252 Y54.835 E61.80871
G0 F1080 X81.382 Y54.543
G0 F6000 X82.107 Y55.041
G0 X82.651 Y55.637
;TYPE:SKIN
G1 F1200 X152.35 Y55.637 E67.72011
G1 X152.404 Y56.039 E67.75452
G1 X152.405 Y163.939 E76.90588
G1 X152.349 Y164.363 E76.94215
G1 X82.65 Y164.363 E82.85355
G1 X82.596 Y163.961 E82.88796
G1 X82.595 Y162.442 E83.01679
G1 X82.595 Y56.061 E92.03931
G1 X82.61 Y55.954 E92.04848
G0 F1080 X82.651 Y55.637
G1 F3000 E84.04848
G0 F6000 X150.992 Y55.956
G1 F3000 E92.04848
G1 F1200 X152.084 Y57.049 E92.17952
G0 F6000 X152.084 Y58.18
G1 F1200 X149.86 Y55.956 E92.44627
G0 F6000 X148.729 Y55.956
G1 F1200 X152.084 Y59.312 E92.84875
G0 F6000 X152.084 Y60.443
G1 F1200 X147.597 Y55.956 E93.38694
G0 F6000 X146.466 Y55.956
G1 F1200 X152.084 Y61.574 E94.06078
G0 F6000 X152.084 Y62.706
G1 F1200 X145.335 Y55.956 E94.87035
G0 F6000 X144.203 Y55.956
G1 F1200 X152.084 Y63.837 E95.81563
G0 F6000 X152.084 Y64.968
G1 F1200 X143.072 Y55.956 E96.89656
G0 F6000 X141.941 Y55.956
G1 F1200 X152.084 Y66.1 E98.11322
G0 F6000 X152.084 Y67.231
G1 F1200 X140.809 Y55.956 E99.46559
G0 F6000 X139.678 Y55.956
G1 F1200 X152.084 Y68.363 E100.95367
G0 F6000 X152.084 Y69.494
G1 F1200 X138.546 Y55.956 E102.57748
G0 F6000 X137.415 Y55.956
G1 F1200 X152.084 Y70.625 E104.33694
G0 F6000 X152.084 Y71.757
G1 F1200 X136.284 Y55.956 E106.23212
G0 F6000 X135.152 Y55.956
G1 F1200 X152.084 Y72.888 E108.26301
G0 F6000 X152.084 Y74.019
G1 F1200 X134.021 Y55.956 E110.42956
G0 F6000 X132.89 Y55.956
G1 F1200 X152.084 Y75.151 E112.73183
G0 F6000 X152.084 Y76.282
G1 F1200 X131.758 Y55.956 E115.16982
G0 F6000 X130.627 Y55.956
G1 F1200 X152.084 Y77.414 E117.74352
G0 F6000 X152.084 Y78.545
G1 F1200 X129.496 Y55.956 E120.45288
G0 F6000 X128.364 Y55.956
G1 F1200 X152.084 Y79.676 E123.29796
G0 F6000 X152.084 Y80.808
G1 F1200 X127.233 Y55.956 E126.27875
G0 F6000 X126.101 Y55.956
G1 F1200 X152.084 Y81.939 E129.39526
G0 F6000 X152.084 Y83.07
G1 F1200 X124.97 Y55.956 E132.64743
G0 F6000 X123.839 Y55.956
G1 F1200 X152.084 Y84.202 E136.03531
G0 F6000 X152.084 Y85.333
G1 F1200 X122.707 Y55.956 E139.55891
G0 F6000 X121.576 Y55.956
G1 F1200 X152.084 Y86.465 E143.21823
G0 F6000 X152.084 Y87.596
G1 F1200 X120.445 Y55.956 E147.0132
G0 F6000 X119.313 Y55.956
G1 F1200 X152.084 Y88.727 E150.94389
G0 F6000 X152.084 Y89.859
G1 F1200 X118.182 Y55.956 E155.0103
G0 F6000 X117.05 Y55.956
G1 F1200 X152.084 Y90.99 E159.21242
G0 F6000 X152.084 Y92.121
G1 F1200 X115.919 Y55.956 E163.5502
G0 F6000 X114.788 Y55.956
G1 F1200 X152.084 Y93.253 E168.0237
G0 F6000 X152.084 Y94.384
G1 F1200 X113.656 Y55.956 E172.63292
G0 F6000 X112.525 Y55.956
G1 F1200 X152.084 Y95.515 E177.37779
G0 F6000 X152.084 Y96.647
G1 F1200 X111.394 Y55.956 E182.25838
G0 F6000 X110.262 Y55.956
G1 F1200 X152.084 Y97.778 E187.27468
G0 F6000 X152.084 Y98.91
G1 F1200 X109.131 Y55.956 E192.42671
G0 F6000 X107.999 Y55.956
G1 F1200 X152.084 Y100.041 E197.71445
G0 F6000 X152.084 Y101.172
G1 F1200 X106.868 Y55.956 E203.13784
G0 F6000 X105.737 Y55.956
G1 F1200 X152.084 Y102.304 E208.69695
G0 F6000 X152.084 Y103.435
G1 F1200 X104.605 Y55.956 E214.39178
G0 F6000 X103.474 Y55.956
G1 F1200 X152.084 Y104.566 E220.22227
G0 F6000 X152.084 Y105.698
G1 F1200 X102.343 Y55.956 E226.18847
G0 F6000 X101.211 Y55.956
G1 F1200 X152.084 Y106.829 E232.29039
G0 F6000 X152.084 Y107.961
G1 F1200 X100.08 Y55.956 E238.52803
G0 F6000 X98.948 Y55.956
G1 F1200 X152.084 Y109.092 E244.90139
G0 F6000 X152.085 Y110.224
G1 F1200 X97.817 Y55.956 E251.41052
G0 F6000 X96.686 Y55.956
G1 F1200 X152.085 Y111.355 E258.0553
G0 F6000 X152.085 Y112.487
G1 F1200 X95.554 Y55.956 E264.83587
G0 F6000 X94.423 Y55.956
G1 F1200 X152.085 Y113.618 E271.75209
G0 F6000 X152.085 Y114.749
G1 F1200 X93.292 Y55.956 E278.80397
G0 F6000 X92.16 Y55.956
G1 F1200 X152.085 Y115.881 E285.99162
G0 F6000 X152.085 Y117.012
G1 F1200 X91.029 Y55.956 E293.31494
G0 F6000 X89.898 Y55.956
G1 F1200 X152.085 Y118.144 E300.77396
G0 F6000 X152.085 Y119.275
G1 F1200 X88.766 Y55.956 E308.36871
G0 F6000 X87.635 Y55.956
G1 F1200 X152.085 Y120.406 E316.09911
G0 F6000 X152.085 Y121.538
G1 F1200 X86.503 Y55.956 E323.96529
G0 F6000 X85.372 Y55.956
G1 F1200 X152.085 Y122.669 E331.96713
G0 F6000 X152.085 Y123.8
G1 F1200 X84.241 Y55.956 E340.10462
G0 F6000 X83.109 Y55.956
G1 F1200 X152.085 Y124.932 E348.37789
G0 F6000 X152.085 Y126.063
G1 F1200 X82.913 Y56.892 E356.67461
G0 F6000 X82.913 Y58.023
G1 F1200 X152.085 Y127.195 E364.97139
G0 F6000 X152.085 Y128.326
G1 F1200 X82.913 Y59.155 E373.26811
G0 F6000 X82.913 Y60.286
G1 F1200 X152.085 Y129.457 E381.56483
G0 F6000 X152.085 Y130.589
G1 F1200 X82.913 Y61.417 E389.86161
G0 F6000 X82.913 Y62.549
G1 F1200 X152.085 Y131.72 E398.15833
G0 F6000 X152.085 Y132.851
G1 F1200 X82.913 Y63.68 E406.45504
G0 F6000 X82.913 Y64.811
G1 F1200 X152.085 Y133.983 E414.75182
G0 F6000 X152.085 Y135.114
G1 F1200 X82.913 Y65.943 E423.04854
G0 F6000 X82.913 Y67.074
G1 F1200 X152.085 Y136.246 E431.34532
G0 F6000 X152.085 Y137.377
G1 F1200 X82.913 Y68.206 E439.64204
G0 F6000 X82.913 Y69.337
G1 F1200 X152.085 Y138.508 E447.93876
G0 F6000 X152.085 Y139.64
G1 F1200 X82.913 Y70.468 E456.23554
G0 F6000 X82.913 Y71.6
G1 F1200 X152.085 Y140.771 E464.53226
G0 F6000 X152.085 Y141.902
G1 F1200 X82.913 Y72.731 E472.82898
G0 F6000 X82.913 Y73.862
G1 F1200 X152.085 Y143.034 E481.12575
G0 F6000 X152.085 Y144.165
G1 F1200 X82.913 Y74.994 E489.42247
G0 F6000 X82.913 Y76.125
G1 F1200 X152.085 Y145.297 E497.71925
G0 F6000 X152.085 Y146.428
G1 F1200 X82.913 Y77.257 E506.01597
G0 F6000 X82.913 Y78.388
G1 F1200 X152.085 Y147.559 E514.31269
G0 F6000 X152.085 Y148.691
G1 F1200 X82.913 Y79.519 E522.60947
G0 F6000 X82.913 Y80.651
G1 F1200 X152.085 Y149.822 E530.90619
G0 F6000 X152.085 Y150.953
G1 F1200 X82.913 Y81.782 E539.20291
G0 F6000 X82.913 Y82.913
G1 F1200 X152.085 Y152.085 E547.49969
G0 F6000 X152.085 Y153.216
G1 F1200 X82.913 Y84.045 E555.79641
G0 F6000 X82.913 Y85.176
G1 F1200 X152.085 Y154.347 E564.09312
G0 F6000 X152.085 Y155.479
G1 F1200 X82.913 Y86.308 E572.38984
G0 F6000 X82.913 Y87.439
G1 F1200 X152.085 Y156.61 E580.68656
G0 F6000 X152.085 Y157.742
G1 F1200 X82.913 Y88.57 E588.98334
G0 F6000 X82.913 Y89.702
G1 F1200 X152.085 Y158.873 E597.28006
G0 F6000 X152.085 Y160.004
G1 F1200 X82.913 Y90.833 E605.57678
G0 F6000 X82.913 Y91.964
G1 F1200 X152.085 Y161.136 E613.87356
G0 F6000 X152.085 Y162.267
G1 F1200 X82.913 Y93.096 E622.17028
G0 F6000 X82.913 Y94.227
G1 F1200 X152.085 Y163.398 E630.467
G0 F6000 X151.596 Y164.041
G1 F1200 X82.913 Y95.359 E638.70506
G0 F6000 X82.913 Y96.49
G1 F1200 X150.465 Y164.041 E646.80747
G0 F6000 X149.333 Y164.041
G1 F1200 X82.913 Y97.621 E654.77416
G0 F6000 X82.913 Y98.753
G1 F1200 X148.202 Y164.041 E662.60514
G0 F6000 X147.071 Y164.041
G1 F1200 X82.913 Y99.884 E670.30046
G0 F6000 X82.913 Y101.015
G1 F1200 X145.939 Y164.041 E677.86006
G0 F6000 X144.808 Y164.041
G1 F1200 X82.913 Y102.147 E685.28395
G0 F6000 X82.913 Y103.278
G1 F1200 X143.677 Y164.041 E692.57217
G0 F6000 X142.545 Y164.041
G1 F1200 X82.913 Y104.409 E699.72469
G0 F6000 X82.913 Y105.541
G1 F1200 X141.414 Y164.041 E706.74148
G0 F6000 X140.282 Y164.041
G1 F1200 X82.913 Y106.672 E713.62256
G0 F6000 X82.913 Y107.804
G1 F1200 X139.151 Y164.041 E720.36792
G0 F6000 X138.02 Y164.041
G1 F1200 X82.913 Y108.935 E726.97762
G0 F6000 X82.913 Y110.066
G1 F1200 X136.888 Y164.041 E733.45161
G0 F6000 X135.757 Y164.041
G1 F1200 X82.913 Y111.198 E739.78988
G0 F6000 X82.913 Y112.329
G1 F1200 X134.626 Y164.041 E745.99249
G0 F6000 X133.494 Y164.041
G1 F1200 X82.913 Y113.46 E752.05939
G0 F6000 X82.913 Y114.592
G1 F1200 X132.363 Y164.041 E757.99057
G0 F6000 X131.231 Y164.041
G1 F1200 X82.913 Y115.723 E763.78603
G0 F6000 X82.913 Y116.855
G1 F1200 X130.1 Y164.041 E769.44578
G0 F6000 X128.969 Y164.041
G1 F1200 X82.913 Y117.986 E774.96987
G0 F6000 X82.913 Y119.117
G1 F1200 X127.837 Y164.041 E780.35824
G0 F6000 X126.706 Y164.041
G1 F1200 X82.913 Y120.249 E785.6109
G0 F6000 X82.913 Y121.38
G1 F1200 X125.575 Y164.041 E790.7279
G0 F6000 X124.443 Y164.041
G1 F1200 X82.913 Y122.511 E795.70918
G0 F6000 X82.913 Y123.643
G1 F1200 X123.312 Y164.041 E800.55474
G0 F6000 X122.18 Y164.041
G1 F1200 X82.913 Y124.774 E805.26459
G0 F6000 X82.913 Y125.906
G1 F1200 X121.049 Y164.041 E809.83872
G0 F6000 X119.918 Y164.041
G1 F1200 X82.913 Y127.037 E814.2772
G0 F6000 X82.913 Y128.168
G1 F1200 X118.786 Y164.041 E818.57995
G0 F6000 X117.655 Y164.041
G1 F1200 X82.913 Y129.3 E822.747
G0 F6000 X82.913 Y130.431
G1 F1200 X116.524 Y164.041 E826.77838
G0 F6000 X115.392 Y164.041
G1 F1200 X82.913 Y131.562 E830.67405
G0 F6000 X82.913 Y132.694
G1 F1200 X114.261 Y164.041 E834.434
G0 F6000 X113.13 Y164.041
G1 F1200 X82.913 Y133.825 E838.05829
G0 F6000 X82.913 Y134.956
G1 F1200 X111.998 Y164.041 E841.54687
G0 F6000 X110.867 Y164.041
G1 F1200 X82.913 Y136.088 E844.89973
G0 F6000 X82.913 Y137.219
G1 F1200 X109.735 Y164.041 E848.11687
G0 F6000 X108.604 Y164.041
G1 F1200 X82.913 Y138.351 E851.1983
G0 F6000 X82.913 Y139.482
G1 F1200 X107.473 Y164.041 E854.14406
G0 F6000 X106.341 Y164.041
G1 F1200 X82.913 Y140.613 E856.95412
G0 F6000 X82.913 Y141.745
G1 F1200 X105.21 Y164.041 E859.62845
G0 F6000 X104.079 Y164.041
G1 F1200 X82.913 Y142.876 E862.16713
G0 F6000 X82.913 Y144.007
G1 F1200 X102.947 Y164.041 E864.57009
G0 F6000 X101.816 Y164.041
G1 F1200 X82.913 Y145.139 E866.83734
G0 F6000 X82.913 Y146.27
G1 F1200 X100.684 Y164.041 E868.96887
G0 F6000 X99.553 Y164.041
G1 F1200 X82.913 Y147.402 E870.96468
G0 F6000 X82.913 Y148.533
G1 F1200 X98.422 Y164.041 E872.82483
G0 F6000 X97.29 Y164.041
G1 F1200 X82.913 Y149.664 E874.54927
G0 F6000 X82.913 Y150.796
G1 F1200 X96.159 Y164.041 E876.13799
G0 F6000 X95.028 Y164.041
G1 F1200 X82.913 Y151.927 E877.59105
G0 F6000 X82.913 Y153.058
G1 F1200 X93.896 Y164.041 E878.9084
G0 F6000 X92.765 Y164.041
G1 F1200 X82.913 Y154.19 E880.09003
G0 F6000 X82.913 Y155.321
G1 F1200 X91.633 Y164.041 E881.13594
G0 F6000 X90.502 Y164.041
G1 F1200 X82.913 Y156.453 E882.04614
G0 F6000 X82.913 Y157.584
G1 F1200 X89.371 Y164.041 E882.82068
G0 F6000 X88.239 Y164.041
G1 F1200 X82.913 Y158.715 E883.4595
G0 F6000 X82.913 Y159.847
G1 F1200 X87.108 Y164.041 E883.96261
G0 F6000 X85.977 Y164.041
G1 F1200 X82.913 Y160.978 E884.33006
G0 F6000 X82.913 Y162.109
G1 F1200 X84.845 Y164.041 E884.56179
G0 F6000 X83.714 Y164.041
G1 F1200 X82.915 Y163.242 E884.65762
G1 F3000 E876.65762
;MESH:NONMESH
G0 F300 X82.915 Y163.242 Z0.75
G0 F6000 X82.125 Y55.074
G0 X82.054 Y55.002
;TIME_ELAPSED:544.108227
;LAYER:1
M140 S50
M106 S85
;TYPE:WALL-INNER
;MESH:BoxSingle.stl
G1 F3000 E884.65762
G1 F1350 X82.174 Y54.882 E884.68641
G1 X82.292 Y54.847 E884.70729
G1 X152.707 Y54.847 E896.65155
G1 X152.825 Y54.882 E896.67243
G1 X152.943 Y54.999 E896.70062
G1 X153.112 Y55.374 E896.77039
G1 X153.193 Y55.982 E896.87443
G1 X153.195 Y61.134 E897.74835
G1 X153.195 Y164.009 E915.19869
G1 X153.115 Y164.618 E915.30288
G1 X152.946 Y164.998 E915.37343
G1 X152.83 Y165.114 E915.40126
G1 X152.706 Y165.151 E915.42321
G1 X152.354 Y165.153 E915.48292
G1 X82.293 Y165.153 E927.36713
G1 X82.173 Y165.118 E927.38834
G1 X82.053 Y164.998 E927.41712
G1 X81.889 Y164.628 E927.48577
G1 X81.807 Y164.018 E927.59018
G1 X81.805 Y157.505 E928.69495
G1 X81.805 Y55.991 E945.91444
G1 X81.885 Y55.382 E946.01863
G1 X81.989 Y55.148 E946.06207
G0 F1215 X82.054 Y55.002
G0 F7500 X81.382 Y54.544
;TYPE:WALL-OUTER
G1 F1350 X81.751 Y54.173 E946.15082
G1 X82.177 Y54.047 E946.22618
G1 X152.821 Y54.047 E958.20929
G1 X153.245 Y54.172 E958.28427
G1 X153.613 Y54.537 E958.37219
G1 X153.889 Y55.152 E958.48653
G1 X153.993 Y55.928 E958.61934
G1 X153.995 Y61.134 E959.50242
G1 X153.995 Y164.059 E976.96124
G1 X153.893 Y164.839 E977.09468
G1 X153.618 Y165.456 E977.20926
G1 X153.254 Y165.822 E977.29682
G1 X152.825 Y165.951 E977.37281
G1 X152.357 Y165.953 E977.4522
G1 X82.177 Y165.953 E989.3566
G1 X81.752 Y165.827 E989.43179
G1 X81.382 Y165.458 E989.52043
G1 X81.111 Y164.85 E989.63334
G1 X81.007 Y164.072 E989.76649
G1 X81.005 Y157.505 E990.88043
G1 X81.005 Y55.941 E1008.10839
G1 X81.107 Y55.161 E1008.24183
G1 X81.317 Y54.69 E1008.3293
G0 F1215 X81.382 Y54.544
G0 F7500 X82.107 Y55.041
G0 X82.649 Y55.637
;TYPE:SKIN
G1 F1350 X152.35 Y55.637 E1020.15245
G1 X152.403 Y56.034 E1020.22039
G1 X152.405 Y61.134 E1021.08549
G1 X152.405 Y163.952 E1038.52616
G1 X152.351 Y164.363 E1038.59648
G1 X82.65 Y164.363 E1050.41963
G1 X82.597 Y163.965 E1050.48774
G1 X82.595 Y56.048 E1068.79334
G1 X82.629 Y55.795 E1068.83664
G0 F1215 X82.649 Y55.637
G0 F7500 X83.201 Y55.956
G1 F1350 X82.914 Y56.243 E1068.90549
G0 F7500 X82.914 Y57.375
G1 F1350 X84.333 Y55.956 E1069.24589
G0 F7500 X85.464 Y55.956
G1 F1350 X82.914 Y58.506 E1069.85761
G0 F7500 X82.914 Y59.638
G1 F1350 X86.595 Y55.956 E1070.74076
G0 F7500 X87.727 Y55.956
G1 F1350 X82.914 Y60.769 E1071.89534
G0 F7500 X82.914 Y61.9
G1 F1350 X88.858 Y55.956 E1073.32124
G0 F7500 X89.989 Y55.956
G1 F1350 X82.914 Y63.032 E1075.01857
G0 F7500 X82.914 Y64.163
G1 F1350 X91.121 Y55.956 E1076.98733
