;FLAVOR:Marlin
;TIME:11910
;Filament used: 5.75228m
;Layer height: 0.2
;MINX:27.45
;MINY:82.45
;MINZ:0.3
;MAXX:207.55
;MAXY:152.55
;MAXZ:2.25
;Generated with Cura_SteamEngine 4.7.0
M140 S60
M105
M190 S60
M104 S205
M105
M109 S205
M82 ;absolute extrusion mode
M201 X500.00 Y500.00 Z100.00 E5000.00 ;Setup machine max acceleration
M203 X500.00 Y500.00 Z10.00 E75.00 ;Setup machine max feedrate
M204 P500.00 R1000.00 T500.00 ;Setup Print/Retract/Travel acceleration
M205 X8.00 Y8.00 Z0.40 E5.00 ;Setup Jerk
M220 S100 ;Reset Feedrate
M221 S100 ;Reset Flowrate

G21 ; (metric values)
G90 ; (absolute positioning)
M82 ; (set extruder to absolute mode)
G28 ; (home all axis)
G29 ; (Auto Level)

G92 E0 ;Reset Extruder
G1 Z2.0 F3000 ;Move Z Axis up
G1 X1.1 Y50 Z0.28 F5000.0 ;Move to start position
G1 X1.1 Y200.0 Z0.28 F1500.0 E15 ;Draw the first line
G1 X1.4 Y200.0 Z0.28 F5000.0 ;Move to side a little
G1 X1.4 Y100 Z0.28 F1500.0 E30 ;Draw the second line
G92 E0 ;Reset Extruder
G1 Z2.0 F3000 ;Move Z Axis up
G92 E0
G92 E0
G1 F1500 E-7
;LAYER_COUNT:9
;LAYER:0
M107
G1 F300 Z0.65
G0 F6000 X31.039 Y82.718 Z0.65
;TYPE:SKIRT
G1 F300 Z0.3
G1 F1500 E0
G1 F900 X31.663 Y82.555 E0.03218
G1 X32.513 Y82.461 E0.07484
G1 X32.834 Y82.452 E0.09086
G1 X32.98 Y82.45 E0.09815
G1 X201.643 Y82.45 E8.51278
G1 X202.415 Y82.461 E8.5513
G1 X203.058 Y82.51 E8.58347
G1 X203.69 Y82.638 E8.61564
G1 X204.301 Y82.844 E8.64781
G1 X204.882 Y83.123 E8.67996
G1 X205.424 Y83.472 E8.71213
G1 X205.918 Y83.886 E8.74428
G1 X206.358 Y84.358 E8.77648
G1 X206.736 Y84.88 E8.80863
G1 X207.046 Y85.445 E8.84078
G1 X207.284 Y86.044 E8.87294
G1 X207.446 Y86.668 E8.9051
G1 X207.539 Y87.514 E8.94756
G1 X207.548 Y87.834 E8.96353
G1 X207.55 Y87.98 E8.97082
G1 X207.55 Y146.678 E11.89927
G1 X207.541 Y147.405 E11.93555
G1 X207.493 Y148.048 E11.96772
G1 X207.366 Y148.68 E11.99988
G1 X207.161 Y149.292 E12.03208
G1 X206.883 Y149.873 E12.06421
G1 X206.535 Y150.416 E12.09639
G1 X206.122 Y150.911 E12.12855
G1 X205.651 Y151.351 E12.16071
G1 X205.129 Y151.73 E12.19289
G1 X204.565 Y152.041 E12.22502
G1 X203.966 Y152.28 E12.2572
G1 X203.343 Y152.444 E12.28934
G1 X202.487 Y152.539 E12.3323
G1 X202.166 Y152.548 E12.34833
G1 X202.02 Y152.55 E12.35561
G1 X33.29 Y152.55 E20.77358
G1 X32.592 Y152.541 E20.80841
G1 X31.949 Y152.492 E20.84058
G1 X31.317 Y152.365 E20.87274
G1 X30.706 Y152.16 E20.9049
G1 X30.125 Y151.882 E20.93703
G1 X29.582 Y151.533 E20.96923
G1 X29.087 Y151.12 E21.0014
G1 X28.647 Y150.649 E21.03355
G1 X28.268 Y150.127 E21.06574
G1 X27.957 Y149.563 E21.09787
G1 X27.719 Y148.964 E21.13002
G1 X27.556 Y148.34 E21.1622
G1 X27.461 Y147.481 E21.20532
G1 X27.452 Y147.148 E21.22194
G1 X27.45 Y147.008 E21.22892
G1 X27.45 Y88.254 E24.16017
G1 X27.459 Y87.589 E24.19335
G1 X27.508 Y86.946 E24.22552
G1 X27.636 Y86.314 E24.2577
G1 X27.841 Y85.703 E24.28985
G1 X28.12 Y85.122 E24.322
G1 X28.469 Y84.579 E24.35421
G1 X28.882 Y84.085 E24.38633
G1 X29.353 Y83.645 E24.41849
G1 X29.876 Y83.267 E24.45068
G1 X30.44 Y82.956 E24.48281
G1 X30.545 Y82.914 E24.48846
G0 F810 X31.039 Y82.718
G1 F1500 E17.48846
G1 F300 Z0.65
;MESH:frontplate.stl
G0 F6000 X32.85 Y87.85 Z0.65
;TYPE:WALL-OUTER
G1 F300 Z0.3
G1 F1500 E24.48846
G1 F900 X202.15 Y87.85 E32.93487
G1 X202.15 Y147.15 E35.89336
G1 X32.85 Y147.15 E44.33977
G1 X32.85 Y88.382 E47.27171
G0 F810 X32.85 Y87.85
G0 F6000 X33.25 Y87.85
G0 X33.29 Y88.29
G1 F1500 E40.27171
G1 F300 Z0.65
G0 F6000 X194.139 Y140.762 Z0.65
G1 F300 Z0.3
G1 F1500 E47.27171
G1 F900 X194.034 Y141.156 E47.29206
G1 X193.997 Y141.564 E47.3125
G1 X194.034 Y141.973 E47.33298
G1 X194.139 Y142.369 E47.35342
G1 X194.313 Y142.739 E47.37382
G1 X194.548 Y143.076 E47.39432
G1 X194.838 Y143.366 E47.41478
G1 X195.173 Y143.601 E47.4352
G1 X195.544 Y143.775 E47.45564
G1 X195.941 Y143.881 E47.47614
G1 X196.35 Y143.917 E47.49662
G1 X196.759 Y143.881 E47.51711
G1 X197.156 Y143.775 E47.53761
G1 X197.527 Y143.601 E47.55805
G1 X197.862 Y143.366 E47.57847
G1 X198.152 Y143.076 E47.59893
G1 X198.387 Y142.739 E47.61943
G1 X198.561 Y142.369 E47.63982
G1 X198.666 Y141.973 E47.66026
G1 X198.703 Y141.564 E47.68075
G1 X198.666 Y141.156 E47.70119
G1 X198.561 Y140.762 E47.72153
G1 X198.387 Y140.389 E47.74207
G1 X198.152 Y140.053 E47.76252
G1 X197.862 Y139.763 E47.78299
G1 X197.527 Y139.528 E47.8034
G1 X197.156 Y139.354 E47.82384
G1 X196.759 Y139.248 E47.84434
G1 X196.35 Y139.211 E47.86483
G1 X195.941 Y139.248 E47.88532
G1 X195.544 Y139.354 E47.90582
G1 X195.173 Y139.528 E47.92627
G1 X194.838 Y139.763 E47.94668
G1 X194.548 Y140.053 E47.96714
G1 X194.382 Y140.29 E47.98158
G0 F810 X194.313 Y140.389
G0 X194.139 Y140.762
G0 F6000 X194.036 Y141.149
G0 X193.639 Y141.086
;TYPE:WALL-INNER
G1 F900 X193.595 Y141.564 E48.00553
G1 X193.639 Y142.043 E48.02952
G1 X193.762 Y142.506 E48.05342
G1 X193.965 Y142.94 E48.07733
G1 X194.24 Y143.334 E48.1013
G1 X194.58 Y143.673 E48.12525
G1 X194.972 Y143.948 E48.14914
G1 X195.406 Y144.152 E48.17307
G1 X195.871 Y144.276 E48.19708
G1 X196.35 Y144.319 E48.22107
G1 X196.829 Y144.276 E48.24506
G1 X197.294 Y144.152 E48.26907
G1 X197.728 Y143.948 E48.293
G1 X198.12 Y143.673 E48.31689
G1 X198.46 Y143.334 E48.34084
G1 X198.735 Y142.94 E48.36481
G1 X198.938 Y142.506 E48.38872
G1 X199.061 Y142.043 E48.41262
G1 X199.105 Y141.564 E48.43662
G1 X199.061 Y141.086 E48.46056
G1 X198.938 Y140.625 E48.48437
G1 X198.735 Y140.188 E48.50841
G1 X198.46 Y139.795 E48.53234
G1 X198.12 Y139.456 E48.55629
G1 X197.728 Y139.181 E48.58018
G1 X197.294 Y138.977 E48.60411
G1 X196.829 Y138.853 E48.62812
G1 X196.35 Y138.809 E48.65211
G1 X195.871 Y138.853 E48.67611
G1 X195.406 Y138.977 E48.70012
G1 X194.972 Y139.181 E48.72405
G1 X194.58 Y139.456 E48.74794
G1 X194.24 Y139.795 E48.77189
G1 X193.965 Y140.188 E48.79582
G1 X193.785 Y140.576 E48.81716
G0 F810 X193.762 Y140.625
G0 X193.639 Y141.086
G0 F6000 X193.244 Y141.016
G1 F900 X193.193 Y141.564 E48.84462
G1 X193.244 Y142.113 E48.87212
G1 X193.385 Y142.643 E48.89949
G1 X193.617 Y143.141 E48.9269
G1 X193.932 Y143.592 E48.95434
G1 X194.322 Y143.981 E48.98182
G1 X194.771 Y144.295 E49.00916
G1 X195.268 Y144.529 E49.03656
G1 X195.801 Y144.671 E49.06408
G1 X196.35 Y144.721 E49.09159
G1 X196.899 Y144.671 E49.11909
G1 X197.432 Y144.529 E49.14661
G1 X197.929 Y144.295 E49.17401
G1 X198.378 Y143.981 E49.20135
G1 X198.768 Y143.592 E49.22883
G1 X199.083 Y143.141 E49.25628
G1 X199.315 Y142.643 E49.28368
G1 X199.456 Y142.113 E49.31105
G1 X199.507 Y141.564 E49.33855
G1 X199.456 Y141.016 E49.36601
G1 X199.315 Y140.488 E49.39328
G1 X199.083 Y139.988 E49.42078
G1 X198.767 Y139.537 E49.44825
G1 X198.378 Y139.148 E49.4757
G1 X197.929 Y138.834 E49.50303
G1 X197.432 Y138.6 E49.53044
G1 X196.899 Y138.458 E49.55796
G1 X196.35 Y138.407 E49.58546
G1 X195.801 Y138.458 E49.61297
G1 X195.268 Y138.6 E49.64049
G1 X194.771 Y138.834 E49.6679
G1 X194.322 Y139.148 E49.69523
G1 X193.933 Y139.537 E49.72268
G1 X193.617 Y139.988 E49.75015
G1 X193.385 Y140.488 E49.77765
G1 X193.381 Y140.502 E49.77838
G0 F810 X193.244 Y141.016
G1 F1500 E42.77838
G1 F300 Z0.65
G0 F6000 X196.35 Y95.789 Z0.65
;TYPE:WALL-OUTER
G1 F300 Z0.3
G1 F1500 E49.77838
G1 F900 X196.759 Y95.752 E49.79887
G1 X197.156 Y95.646 E49.81937
G1 X197.527 Y95.472 E49.83981
G1 X197.862 Y95.237 E49.86023
G1 X198.152 Y94.947 E49.88069
G1 X198.387 Y94.611 E49.90114
G1 X198.561 Y94.238 E49.92168
G1 X198.666 Y93.844 E49.94202
G1 X198.703 Y93.436 E49.96246
G1 X198.666 Y93.027 E49.98295
G1 X198.561 Y92.631 E50.00339
G1 X198.387 Y92.261 E50.02379
G1 X198.152 Y91.924 E50.04428
G1 X197.862 Y91.634 E50.06474
G1 X197.527 Y91.399 E50.08516
G1 X197.156 Y91.225 E50.1056
G1 X196.759 Y91.119 E50.1261
G1 X196.35 Y91.083 E50.14659
G1 X195.941 Y91.119 E50.16707
G1 X195.544 Y91.225 E50.18757
G1 X195.173 Y91.399 E50.20802
G1 X194.838 Y91.634 E50.22843
G1 X194.548 Y91.924 E50.24889
G1 X194.313 Y92.261 E50.26939
G1 X194.139 Y92.631 E50.28979
G1 X194.034 Y93.027 E50.31023
G1 X193.997 Y93.436 E50.33072
G1 X194.034 Y93.844 E50.35115
G1 X194.139 Y94.238 E50.3715
G1 X194.313 Y94.611 E50.39203
G1 X194.548 Y94.947 E50.41249
G1 X194.838 Y95.237 E50.43295
G1 X195.173 Y95.472 E50.45336
G1 X195.544 Y95.646 E50.47381
G1 X195.823 Y95.721 E50.48822
G0 F810 X195.941 Y95.752
G0 X196.35 Y95.789
G0 F6000 X196.749 Y95.753
G0 X196.829 Y96.147
;TYPE:WALL-INNER
G1 F900 X197.294 Y96.023 E50.51223
G1 X197.728 Y95.819 E50.53616
G1 X198.12 Y95.544 E50.56005
G1 X198.46 Y95.205 E50.584
G1 X198.735 Y94.812 E50.60793
G1 X198.938 Y94.375 E50.63197
G1 X199.061 Y93.914 E50.65577
G1 X199.105 Y93.436 E50.67972
G1 X199.061 Y92.957 E50.70372
G1 X198.938 Y92.494 E50.72762
G1 X198.735 Y92.06 E50.75152
G1 X198.46 Y91.666 E50.77549
G1 X198.12 Y91.327 E50.79945
G1 X197.728 Y91.052 E50.82334
G1 X197.294 Y90.848 E50.84726
G1 X196.829 Y90.724 E50.87127
G1 X196.35 Y90.681 E50.89527
G1 X195.871 Y90.724 E50.91926
G1 X195.406 Y90.848 E50.94327
G1 X194.972 Y91.052 E50.96719
G1 X194.58 Y91.327 E50.99108
G1 X194.24 Y91.666 E51.01504
G1 X193.965 Y92.06 E51.03901
G1 X193.762 Y92.494 E51.06291
G1 X193.639 Y92.957 E51.08681
G1 X193.595 Y93.436 E51.11081
G1 X193.639 Y93.914 E51.13476
G1 X193.762 Y94.375 E51.15856
G1 X193.965 Y94.812 E51.1826
G1 X194.24 Y95.205 E51.20653
G1 X194.58 Y95.544 E51.23049
G1 X194.972 Y95.819 E51.25438
G1 X195.406 Y96.023 E51.2783
G1 X195.871 Y96.147 E51.30231
G1 X196.3 Y96.187 E51.32381
G0 F810 X196.35 Y96.191
G0 X196.829 Y96.147
G0 F6000 X196.899 Y96.542
G1 F900 X197.432 Y96.4 E51.35133
G1 X197.929 Y96.166 E51.37873
G1 X198.378 Y95.852 E51.40607
G1 X198.767 Y95.463 E51.43351
G1 X199.083 Y95.012 E51.46099
G1 X199.315 Y94.512 E51.48849
G1 X199.456 Y93.984 E51.51575
G1 X199.507 Y93.436 E51.54321
G1 X199.456 Y92.887 E51.57072
G1 X199.315 Y92.357 E51.59808
G1 X199.083 Y91.859 E51.62549
G1 X198.768 Y91.408 E51.65293
G1 X198.378 Y91.019 E51.68041
G1 X197.929 Y90.705 E51.70775
G1 X197.432 Y90.471 E51.73516
G1 X196.899 Y90.329 E51.76267
G1 X196.35 Y90.279 E51.79018
G1 X195.801 Y90.329 E51.81768
G1 X195.268 Y90.471 E51.8452
G1 X194.771 Y90.705 E51.87261
G1 X194.322 Y91.019 E51.89994
G1 X193.932 Y91.408 E51.92742
G1 X193.617 Y91.859 E51.95487
G1 X193.385 Y92.357 E51.98228
G1 X193.244 Y92.887 E52.00964
G1 X193.193 Y93.436 E52.03715
G1 X193.244 Y93.984 E52.0646
G1 X193.385 Y94.512 E52.09187
G1 X193.617 Y95.012 E52.11937
G1 X193.933 Y95.463 E52.14684
G1 X194.322 Y95.852 E52.17429
G1 X194.771 Y96.166 E52.20162
G1 X195.268 Y96.4 E52.22903
G1 X195.801 Y96.542 E52.25655
G1 X196.35 Y96.593 E52.28406
G1 X196.369 Y96.591 E52.28501
G0 F810 X196.899 Y96.542
G1 F1500 E45.28501
G1 F300 Z0.65
G0 F6000 X173.1 Y97.15 Z0.65
;TYPE:WALL-OUTER
G1 F300 Z0.3
G1 F1500 E52.28501
G1 F900 X95.4 Y97.15 E56.16148
G1 X95.4 Y137.85 E58.19201
G1 X173.1 Y137.85 E62.06848
G1 X173.1 Y97.682 E64.07247
G0 F810 X173.1 Y97.15
G0 F6000 X172.7 Y97.15
G0 X173.5 Y96.75
;TYPE:WALL-INNER
G1 F900 X95 Y96.75 E67.98885
G1 X95 Y138.25 E70.05929
G1 X173.5 Y138.25 E73.97567
G1 X173.5 Y97.282 E76.01957
G0 F810 X173.5 Y96.75
G0 F6000 X173.9 Y96.35
G1 F900 X94.6 Y96.35 E79.97587
G1 X94.6 Y138.65 E82.08622
G1 X173.9 Y138.65 E86.04252
G1 X173.9 Y96.882 E88.12633
G0 F810 X173.9 Y96.35
G1 F1500 E81.12633
G1 F300 Z0.65
G0 F6000 X40.861 Y140.762 Z0.65
;TYPE:WALL-OUTER
G1 F300 Z0.3
G1 F1500 E88.12633
G1 F900 X40.687 Y140.389 E88.14686
G1 X40.452 Y140.053 E88.16732
G1 X40.162 Y139.763 E88.18778
G1 X39.827 Y139.528 E88.2082
G1 X39.456 Y139.354 E88.22864
G1 X39.059 Y139.248 E88.24914
G1 X38.65 Y139.211 E88.26963
G1 X38.241 Y139.248 E88.29012
G1 X37.844 Y139.354 E88.31062
G1 X37.473 Y139.528 E88.33106
G1 X37.138 Y139.763 E88.35148
G1 X36.848 Y140.053 E88.37194
G1 X36.613 Y140.389 E88.39239
G1 X36.439 Y140.762 E88.41293
G1 X36.334 Y141.156 E88.43327
G1 X36.297 Y141.564 E88.45371
G1 X36.334 Y141.973 E88.4742
G1 X36.439 Y142.369 E88.49464
G1 X36.613 Y142.739 E88.51504
G1 X36.848 Y143.076 E88.53553
G1 X37.138 Y143.366 E88.556
G1 X37.473 Y143.601 E88.57641
G1 X37.844 Y143.775 E88.59685
G1 X38.241 Y143.881 E88.61735
G1 X38.65 Y143.917 E88.63784
G1 X39.059 Y143.881 E88.65832
G1 X39.456 Y143.775 E88.67882
G1 X39.827 Y143.601 E88.69927
G1 X40.162 Y143.366 E88.71968
G1 X40.452 Y143.076 E88.74014
G1 X40.687 Y142.739 E88.76064
G1 X40.861 Y142.369 E88.78104
G1 X40.966 Y141.973 E88.80148
G1 X41.003 Y141.564 E88.82197
G1 X40.977 Y141.28 E88.83619
G0 F810 X40.966 Y141.156
G0 X40.861 Y140.762
G0 F6000 X40.692 Y140.399
G0 X41.035 Y140.188
;TYPE:WALL-INNER
G1 F900 X40.76 Y139.795 E88.86013
G1 X40.42 Y139.456 E88.88408
G1 X40.028 Y139.181 E88.90797
G1 X39.594 Y138.977 E88.93189
G1 X39.129 Y138.853 E88.9559
G1 X38.65 Y138.809 E88.9799
G1 X38.171 Y138.853 E89.0039
G1 X37.706 Y138.977 E89.02791
G1 X37.272 Y139.181 E89.05183
G1 X36.88 Y139.456 E89.07572
G1 X36.54 Y139.795 E89.09968
G1 X36.265 Y140.188 E89.12361
G1 X36.062 Y140.625 E89.14765
G1 X35.939 Y141.086 E89.17145
G1 X35.895 Y141.564 E89.1954
G1 X35.939 Y142.043 E89.2194
G1 X36.062 Y142.506 E89.2433
G1 X36.265 Y142.94 E89.2672
G1 X36.54 Y143.334 E89.29117
G1 X36.88 Y143.673 E89.31513
G1 X37.272 Y143.948 E89.33902
G1 X37.706 Y144.152 E89.36294
G1 X38.171 Y144.276 E89.38695
G1 X38.65 Y144.319 E89.41094
G1 X39.129 Y144.276 E89.43494
G1 X39.594 Y144.152 E89.45895
G1 X40.028 Y143.948 E89.48287
G1 X40.42 Y143.673 E89.50676
G1 X40.76 Y143.334 E89.53071
G1 X41.035 Y142.94 E89.55469
G1 X41.238 Y142.506 E89.57859
G1 X41.361 Y142.043 E89.60249
G1 X41.405 Y141.564 E89.62649
G1 X41.361 Y141.086 E89.65044
G1 X41.251 Y140.674 E89.67171
G0 F810 X41.238 Y140.625
G0 X41.035 Y140.188
G0 F6000 X41.383 Y139.988
G1 F900 X41.067 Y139.537 E89.69919
G1 X40.678 Y139.148 E89.72663
G1 X40.229 Y138.834 E89.75397
G1 X39.732 Y138.6 E89.78137
G1 X39.199 Y138.458 E89.80889
G1 X38.65 Y138.407 E89.8364
G1 X38.101 Y138.458 E89.86391
G1 X37.568 Y138.6 E89.89143
G1 X37.071 Y138.834 E89.91883
G1 X36.622 Y139.148 E89.94617
G1 X36.233 Y139.537 E89.97361
G1 X35.917 Y139.988 E90.00109
G1 X35.685 Y140.488 E90.02859
G1 X35.544 Y141.016 E90.05585
G1 X35.493 Y141.564 E90.08331
G1 X35.544 Y142.113 E90.11082
G1 X35.685 Y142.643 E90.13818
G1 X35.917 Y143.141 E90.16559
G1 X36.232 Y143.592 E90.19303
G1 X36.622 Y143.981 E90.22051
G1 X37.071 Y144.295 E90.24785
G1 X37.568 Y144.529 E90.27526
G1 X38.101 Y144.671 E90.30278
G1 X38.65 Y144.721 E90.33028
G1 X39.199 Y144.671 E90.35778
G1 X39.732 Y144.529 E90.3853
G1 X40.229 Y144.295 E90.41271
G1 X40.678 Y143.981 E90.44004
G1 X41.068 Y143.592 E90.46752
G1 X41.383 Y143.141 E90.49497
G1 X41.615 Y142.643 E90.52238
G1 X41.756 Y142.113 E90.54974
G1 X41.807 Y141.564 E90.57725
G1 X41.756 Y141.016 E90.6047
G1 X41.615 Y140.488 E90.63197
G1 X41.607 Y140.47 E90.63295
G0 F810 X41.383 Y139.988
G1 F1500 E83.63295
G1 F300 Z0.65
G0 F6000 X54.65 Y127.39 Z0.65
;TYPE:WALL-OUTER
G1 F300 Z0.3
G1 F1500 E90.63295
G1 F900 X55.064 Y127.737 E90.6599
G1 X55.529 Y128.011 E90.68683
G1 X56.03 Y128.208 E90.71369
G1 X56.558 Y128.323 E90.74065
G1 X57.014 Y128.346 E90.76343
G1 X57.083 Y128.352 E90.76688
G1 X57.561 Y128.301 E90.79086
G1 X57.645 Y128.289 E90.7951
G1 X58.153 Y128.146 E90.82143
G1 X58.643 Y127.922 E90.84831
G1 X59.09 Y127.621 E90.87519
G1 X59.484 Y127.251 E90.90216
G1 X59.811 Y126.823 E90.92903
G1 X60.069 Y126.35 E90.95591
G1 X60.245 Y125.839 E90.98287
G1 X60.311 Y125.445 E91.0028
G1 X60.338 Y125.318 E91.00928
G1 X60.343 Y124.769 E91.03667
G1 X60.263 Y124.236 E91.06356
G1 X60.099 Y123.722 E91.09048
G1 X59.854 Y123.241 E91.11741
G1 X59.535 Y122.807 E91.14428
G1 X59.151 Y122.429 E91.17116
G1 X58.709 Y122.116 E91.19818
G1 X58.225 Y121.88 E91.22505
G1 X57.708 Y121.724 E91.25199
G1 X57.174 Y121.654 E91.27886
G1 X56.707 Y121.664 E91.30216
