;FLAVOR:Marlin
;TIME:4420
;Filament used: 8.80123m
;Layer height: 0.4
;MINX:25.36
;MINY:87.86
;MINZ:0.4
;MAXX:194.64
;MAXY:147.14
;MAXZ:2.8
;Generated with Cura_SteamEngine 4.4.1
M140 S60
M105
M190 S60
M104 S215
M105
M109 S215
M82 ;absolute extrusion mode
M201 X500.00 Y500.00 Z100.00 E5000.00 ;Setup machine max acceleration
M203 X500.00 Y500.00 Z10.00 E75.00 ;Setup machine max feedrate
M204 P500.00 R1000.00 T500.00 ;Setup Print/Retract/Travel acceleration
M205 X8.00 Y8.00 Z0.40 E5.00 ;Setup Jerk
M220 S100 ;Reset Feedrate
M221 S100 ;Reset Flowrate

G21 ; (metric values)
G90 ; (absolute positioning)
M82 ; (set extruder to absolute mode)
G28 ; (home all axis)
G29 ; (Auto Level)

G92 E0 ;Reset Extruder
G1 Z2.0 F3000 ;Move Z Axis up
G1 X1.1 Y50 Z0.28 F5000.0 ;Move to start position
G1 X1.1 Y200.0 Z0.28 F1500.0 E15 ;Draw the first line
G1 X1.4 Y200.0 Z0.28 F5000.0 ;Move to side a little
G1 X1.4 Y100 Z0.28 F1500.0 E30 ;Draw the second line
G92 E0 ;Reset Extruder
G1 Z2.0 F3000 ;Move Z Axis up
G92 E0
G92 E0
G1 F1500 E-6
;LAYER_COUNT:6
;LAYER:0
M107
G1 F300 Z0.8
;MESH:1.stl
G0 F3000 X30.615 Y138.53 Z0.8
;TYPE:WALL-INNER
G1 F300 Z0.4
G1 F1500 E0
G1 F900 X30.097 Y138.669 E0.06505
G1 X29.611 Y138.895 E0.13005
G1 X29.168 Y139.204 E0.19556
G1 X28.789 Y139.585 E0.26074
G1 X28.481 Y140.023 E0.32568
G1 X28.256 Y140.51 E0.39074
G1 X28.115 Y141.029 E0.45597
G1 X28.069 Y141.564 E0.5211
G1 X28.115 Y142.101 E0.58646
G1 X28.256 Y142.619 E0.65157
G1 X28.481 Y143.103 E0.71631
G1 X28.789 Y143.543 E0.78145
G1 X29.168 Y143.925 E0.84671
G1 X29.611 Y144.234 E0.91222
G1 X30.097 Y144.461 E0.97728
G1 X30.617 Y144.599 E1.04253
G1 X31.15 Y144.645 E1.10741
G1 X31.683 Y144.599 E1.17229
G1 X32.203 Y144.461 E1.23754
G1 X32.689 Y144.234 E1.3026
G1 X33.132 Y143.925 E1.36811
G1 X33.511 Y143.543 E1.43337
G1 X33.819 Y143.103 E1.49851
G1 X34.044 Y142.619 E1.56325
G1 X34.185 Y142.101 E1.62836
G1 X34.231 Y141.564 E1.69372
G1 X34.185 Y141.029 E1.75885
G1 X34.044 Y140.51 E1.82408
G1 X33.819 Y140.023 E1.88914
G1 X33.511 Y139.585 E1.95408
G1 X33.132 Y139.204 E2.01926
G1 X32.689 Y138.895 E2.08477
G1 X32.203 Y138.669 E2.14977
G1 X31.685 Y138.53 E2.21482
G1 X31.15 Y138.483 E2.27996
G1 X30.837 Y138.511 E2.31807
G0 F810 X30.615 Y138.53
G0 F3000 X30.74 Y139.239
;TYPE:WALL-OUTER
G1 F900 X30.343 Y139.345 E2.36825
G1 X29.97 Y139.519 E2.41852
G1 X29.631 Y139.755 E2.46897
G1 X29.341 Y140.047 E2.51923
G1 X29.105 Y140.383 E2.56938
G1 X28.932 Y140.756 E2.61959
G1 X28.824 Y141.154 E2.66996
G1 X28.789 Y141.564 E2.72022
G1 X28.824 Y141.975 E2.77059
G1 X28.932 Y142.372 E2.82084
G1 X29.105 Y142.744 E2.87095
G1 X29.341 Y143.082 E2.92129
G1 X29.631 Y143.374 E2.97156
G1 X29.97 Y143.61 E3.022
G1 X30.343 Y143.784 E3.07227
G1 X30.741 Y143.89 E3.12257
G1 X31.15 Y143.925 E3.17271
G1 X31.559 Y143.89 E3.22284
G1 X31.957 Y143.784 E3.27315
G1 X32.33 Y143.61 E3.32341
G1 X32.669 Y143.374 E3.37386
G1 X32.959 Y143.082 E3.42412
G1 X33.195 Y142.744 E3.47447
G1 X33.368 Y142.372 E3.52457
G1 X33.476 Y141.975 E3.57482
G1 X33.511 Y141.564 E3.6252
G1 X33.476 Y141.154 E3.67546
G1 X33.368 Y140.756 E3.72582
G1 X33.195 Y140.383 E3.77604
G1 X32.959 Y140.047 E3.82619
G1 X32.669 Y139.755 E3.87645
G1 X32.33 Y139.519 E3.92689
G1 X31.957 Y139.345 E3.97716
G1 X31.56 Y139.239 E4.02735
G1 X31.15 Y139.203 E4.07761
G1 X30.961 Y139.22 E4.10079
G0 F810 X30.74 Y139.239
G0 F3000 X30.547 Y139.29
G0 X30.343 Y138.524
G1 F1500 E-1.89921
G1 F300 Z0.8
G0 F3000 X185.769 Y93.436 Z0.8
;TYPE:WALL-INNER
G1 F300 Z0.4
G1 F1500 E4.10079
G1 F900 X185.815 Y93.971 E4.16592
G1 X185.956 Y94.49 E4.23114
G1 X186.181 Y94.977 E4.29621
G1 X186.489 Y95.415 E4.36115
G1 X186.868 Y95.796 E4.42633
G1 X187.311 Y96.105 E4.49183
G1 X187.797 Y96.331 E4.55684
G1 X188.315 Y96.47 E4.62189
G1 X188.85 Y96.517 E4.68702
G1 X189.385 Y96.47 E4.75216
G1 X189.903 Y96.331 E4.81721
G1 X190.389 Y96.105 E4.88221
G1 X190.832 Y95.796 E4.94772
G1 X191.211 Y95.415 E5.0129
G1 X191.519 Y94.977 E5.07784
G1 X191.744 Y94.49 E5.1429
G1 X191.885 Y93.971 E5.20813
G1 X191.931 Y93.436 E5.27325
G1 X191.885 Y92.899 E5.33862
G1 X191.744 Y92.381 E5.40373
G1 X191.519 Y91.897 E5.46847
G1 X191.211 Y91.457 E5.53361
G1 X190.832 Y91.075 E5.59887
G1 X190.389 Y90.766 E5.66438
G1 X189.903 Y90.539 E5.72943
G1 X189.383 Y90.401 E5.79468
G1 X188.85 Y90.355 E5.85957
G1 X188.317 Y90.401 E5.92445
G1 X187.797 Y90.539 E5.9897
G1 X187.311 Y90.766 E6.05476
G1 X186.868 Y91.075 E6.12027
G1 X186.489 Y91.457 E6.18553
G1 X186.181 Y91.897 E6.25067
G1 X185.956 Y92.381 E6.3154
G1 X185.815 Y92.899 E6.38051
G1 X185.788 Y93.214 E6.41886
G0 F810 X185.769 Y93.436
G0 F3000 X186.489 Y93.436
;TYPE:WALL-OUTER
G1 F900 X186.524 Y93.846 E6.46911
G1 X186.632 Y94.244 E6.51948
G1 X186.805 Y94.617 E6.5697
G1 X187.041 Y94.953 E6.61984
G1 X187.331 Y95.245 E6.67011
G1 X187.67 Y95.481 E6.72055
G1 X188.043 Y95.655 E6.77082
G1 X188.44 Y95.761 E6.82101
G1 X188.85 Y95.797 E6.87127
G1 X189.26 Y95.761 E6.92154
G1 X189.657 Y95.655 E6.97172
G1 X190.03 Y95.481 E7.02199
G1 X190.369 Y95.245 E7.07244
G1 X190.659 Y94.953 E7.1227
G1 X190.895 Y94.617 E7.17285
G1 X191.068 Y94.244 E7.22306
G1 X191.176 Y93.846 E7.27343
G1 X191.211 Y93.436 E7.32369
G1 X191.176 Y93.025 E7.37406
G1 X191.068 Y92.628 E7.42431
G1 X190.895 Y92.256 E7.47442
G1 X190.659 Y91.918 E7.52476
G1 X190.369 Y91.626 E7.57503
G1 X190.03 Y91.39 E7.62547
G1 X189.657 Y91.216 E7.67574
G1 X189.259 Y91.11 E7.72604
G1 X188.85 Y91.075 E7.77618
G1 X188.441 Y91.11 E7.82631
G1 X188.043 Y91.216 E7.87661
G1 X187.67 Y91.39 E7.92688
G1 X187.331 Y91.626 E7.97733
G1 X187.041 Y91.918 E8.02759
G1 X186.805 Y92.256 E8.07794
G1 X186.632 Y92.628 E8.12804
G1 X186.524 Y93.025 E8.17829
G1 X186.507 Y93.215 E8.20159
G0 F810 X186.489 Y93.436
G0 F3000 X186.506 Y93.635
G0 X185.715 Y93.701
G1 F1500 E2.20159
G1 F300 Z0.8
G0 F3000 X185.956 Y140.51 Z0.8
;TYPE:WALL-INNER
G1 F300 Z0.4
G1 F1500 E8.20159
G1 F900 X185.815 Y141.029 E8.26682
G1 X185.769 Y141.564 E8.33194
G1 X185.815 Y142.101 E8.39731
G1 X185.956 Y142.619 E8.46242
G1 X186.181 Y143.103 E8.52715
G1 X186.489 Y143.543 E8.59229
G1 X186.868 Y143.925 E8.65756
G1 X187.311 Y144.234 E8.72307
G1 X187.797 Y144.461 E8.78812
G1 X188.317 Y144.599 E8.85337
G1 X188.85 Y144.645 E8.91826
G1 X189.383 Y144.599 E8.98314
G1 X189.903 Y144.461 E9.04839
G1 X190.389 Y144.234 E9.11345
G1 X190.832 Y143.925 E9.17895
G1 X191.211 Y143.543 E9.24422
G1 X191.519 Y143.103 E9.30936
G1 X191.744 Y142.619 E9.37409
G1 X191.885 Y142.101 E9.4392
G1 X191.931 Y141.564 E9.50457
G1 X191.885 Y141.029 E9.5697
G1 X191.744 Y140.51 E9.63492
G1 X191.519 Y140.023 E9.69999
G1 X191.211 Y139.585 E9.76493
G1 X190.832 Y139.204 E9.83011
G1 X190.389 Y138.895 E9.89561
G1 X189.903 Y138.669 E9.96062
G1 X189.385 Y138.53 E10.02567
G1 X188.85 Y138.483 E10.0908
G1 X188.315 Y138.53 E10.15594
G1 X187.797 Y138.669 E10.22099
G1 X187.311 Y138.895 E10.28599
G1 X186.868 Y139.204 E10.3515
G1 X186.489 Y139.585 E10.41668
G1 X186.181 Y140.023 E10.48162
G1 X186.049 Y140.308 E10.51971
G0 F810 X185.956 Y140.51
G0 F3000 X186.632 Y140.756
;TYPE:WALL-OUTER
G1 F900 X186.524 Y141.154 E10.57008
G1 X186.489 Y141.564 E10.62033
G1 X186.524 Y141.975 E10.67071
G1 X186.632 Y142.372 E10.72096
G1 X186.805 Y142.744 E10.77106
G1 X187.041 Y143.082 E10.82141
G1 X187.331 Y143.374 E10.87167
G1 X187.67 Y143.61 E10.92212
G1 X188.043 Y143.784 E10.97239
G1 X188.441 Y143.89 E11.02269
G1 X188.85 Y143.925 E11.07283
G1 X189.259 Y143.89 E11.12296
G1 X189.657 Y143.784 E11.17326
G1 X190.03 Y143.61 E11.22353
G1 X190.369 Y143.374 E11.27398
G1 X190.659 Y143.082 E11.32424
G1 X190.895 Y142.744 E11.37459
G1 X191.068 Y142.372 E11.42469
G1 X191.176 Y141.975 E11.47494
G1 X191.211 Y141.564 E11.52532
G1 X191.176 Y141.154 E11.57557
G1 X191.068 Y140.756 E11.62594
G1 X190.895 Y140.383 E11.67616
G1 X190.659 Y140.047 E11.7263
G1 X190.369 Y139.755 E11.77656
G1 X190.03 Y139.519 E11.82701
G1 X189.657 Y139.345 E11.87728
G1 X189.26 Y139.239 E11.92746
G1 X188.85 Y139.203 E11.97773
G1 X188.44 Y139.239 E12.028
G1 X188.043 Y139.345 E12.07818
G1 X187.67 Y139.519 E12.12845
G1 X187.331 Y139.755 E12.1789
G1 X187.041 Y140.047 E12.22916
G1 X186.805 Y140.383 E12.27931
G1 X186.725 Y140.555 E12.30247
G0 F810 X186.632 Y140.756
G0 F3000 X186.58 Y140.949
G0 X185.815 Y140.742
G1 F1500 E6.30247
G1 F300 Z0.8
G0 F3000 X175.022 Y126.488 Z0.8
;TYPE:WALL-INNER
G1 F300 Z0.4
G1 F1500 E12.30247
G1 F900 X174.932 Y127.161 E12.38482
G1 X174.932 Y127.839 E12.46705
G1 X175.022 Y128.512 E12.5494
G1 X175.201 Y129.166 E12.63164
G1 X175.467 Y129.791 E12.71402
G1 X175.811 Y130.374 E12.79612
G1 X176.232 Y130.907 E12.8785
G1 X176.72 Y131.38 E12.96092
G1 X177.268 Y131.782 E13.04335
G1 X177.862 Y132.107 E13.12547
G1 X178.495 Y132.351 E13.20775
G1 X179.155 Y132.508 E13.29003
G1 X179.83 Y132.577 E13.37232
G1 X180.508 Y132.554 E13.4546
G1 X181.177 Y132.441 E13.53689
G1 X181.826 Y132.241 E13.61925
G1 X182.442 Y131.954 E13.70168
G1 X183.013 Y131.588 E13.78393
G1 X183.531 Y131.151 E13.86613
G1 X183.986 Y130.648 E13.94839
G1 X184.37 Y130.088 E14.03074
G1 X184.677 Y129.484 E14.11292
G1 X184.899 Y128.842 E14.1953
G1 X185.034 Y128.177 E14.2776
G1 X185.08 Y127.5 E14.3599
G1 X185.034 Y126.823 E14.4422
G1 X184.899 Y126.158 E14.5245
G1 X184.677 Y125.516 E14.60688
G1 X184.37 Y124.912 E14.68906
G1 X183.986 Y124.352 E14.77141
G1 X183.531 Y123.849 E14.85367
G1 X183.013 Y123.412 E14.93587
G1 X182.442 Y123.046 E15.01813
G1 X181.826 Y122.759 E15.10055
G1 X181.177 Y122.559 E15.18291
G1 X180.508 Y122.446 E15.2652
G1 X179.83 Y122.423 E15.34748
G1 X179.155 Y122.492 E15.42977
G1 X178.495 Y122.649 E15.51205
G1 X177.862 Y122.893 E15.59433
G1 X177.268 Y123.218 E15.67645
G1 X176.72 Y123.62 E15.75888
G1 X176.232 Y124.093 E15.8413
G1 X175.811 Y124.626 E15.92368
G1 X175.467 Y125.209 E16.00578
G1 X175.201 Y125.834 E16.08816
G1 X175.08 Y126.273 E16.14339
G0 F810 X175.022 Y126.488
G0 F3000 X175.726 Y126.631
;TYPE:WALL-OUTER
G1 F900 X175.649 Y127.209 E16.21461
G1 X175.649 Y127.791 E16.28569
G1 X175.726 Y128.369 E16.3569
G1 X175.88 Y128.93 E16.42795
G1 X176.108 Y129.467 E16.4992
G1 X176.404 Y129.968 E16.57027
G1 X176.765 Y130.425 E16.6414
G1 X177.184 Y130.831 E16.71265
G1 X177.654 Y131.176 E16.78386
G1 X178.164 Y131.455 E16.85486
G1 X178.708 Y131.665 E16.92608
G1 X179.275 Y131.8 E16.99726
G1 X179.854 Y131.859 E17.06834
G1 X180.436 Y131.839 E17.13946
G1 X181.011 Y131.742 E17.21068
G1 X181.568 Y131.57 E17.28188
G1 X182.096 Y131.324 E17.35302
G1 X182.587 Y131.01 E17.4242
G1 X183.032 Y130.634 E17.49535
G1 X183.422 Y130.203 E17.56634
G1 X183.752 Y129.722 E17.63758
G1 X184.015 Y129.203 E17.70864
G1 X184.206 Y128.652 E17.77986
G1 X184.322 Y128.081 E17.85103
G1 X184.361 Y127.5 E17.92214
G1 X184.322 Y126.919 E17.99326
G1 X184.206 Y126.348 E18.06442
G1 X184.015 Y125.797 E18.13565
G1 X183.752 Y125.278 E18.20671
G1 X183.422 Y124.797 E18.27795
G1 X183.032 Y124.366 E18.34894
G1 X182.587 Y123.99 E18.42009
G1 X182.096 Y123.676 E18.49127
G1 X181.568 Y123.43 E18.56241
G1 X181.011 Y123.258 E18.63361
G1 X180.436 Y123.161 E18.70482
G1 X179.854 Y123.141 E18.77595
G1 X179.275 Y123.2 E18.84703
G1 X178.708 Y123.335 E18.91821
G1 X178.164 Y123.545 E18.98943
G1 X177.654 Y123.824 E19.06043
G1 X177.184 Y124.169 E19.13163
G1 X176.765 Y124.575 E19.20289
G1 X176.404 Y125.032 E19.27402
G1 X176.108 Y125.533 E19.34508
G1 X175.88 Y126.07 E19.41634
G1 X175.784 Y126.417 E19.46031
G0 F810 X175.726 Y126.631
G0 F3000 X175.7 Y126.829
G0 X174.915 Y126.724
G1 F1500 E13.46031
G1 F300 Z0.8
G0 F3000 X164.035 Y136.598 Z0.8
;TYPE:WALL-INNER
G1 F300 Z0.4
G1 F1500 E19.46031
G1 F900 X163.932 Y137.196 E19.5339
G1 X163.932 Y137.804 E19.60764
G1 X164.035 Y138.402 E19.68124
G1 X164.237 Y138.976 E19.75504
G1 X164.534 Y139.505 E19.82862
G1 X164.914 Y139.977 E19.90211
G1 X165.37 Y140.38 E19.97592
G1 X165.889 Y140.698 E20.04974
G1 X166.451 Y140.923 E20.12316
G1 X167.044 Y141.052 E20.19676
G1 X167.651 Y141.078 E20.27045
G1 X168.255 Y141 E20.34431
G1 X168.835 Y140.823 E20.41786
G1 X169.377 Y140.55 E20.49146
G1 X169.867 Y140.188 E20.56535
G1 X170.286 Y139.75 E20.63887
G1 X170.627 Y139.246 E20.71267
G1 X170.877 Y138.692 E20.78638
G1 X171.029 Y138.104 E20.86004
G1 X171.081 Y137.5 E20.93357
G1 X171.029 Y136.895 E21.00722
G1 X170.877 Y136.308 E21.08076
G1 X170.627 Y135.754 E21.15447
G1 X170.286 Y135.25 E21.22828
G1 X169.867 Y134.812 E21.30179
G1 X169.377 Y134.45 E21.37568
G1 X168.835 Y134.177 E21.44928
G1 X168.255 Y134 E21.52283
G1 X167.651 Y133.922 E21.59669
G1 X167.044 Y133.948 E21.67038
G1 X166.451 Y134.077 E21.74398
G1 X165.889 Y134.302 E21.8174
G1 X165.37 Y134.62 E21.89122
G1 X164.914 Y135.023 E21.96503
G1 X164.534 Y135.495 E22.03852
G1 X164.237 Y136.024 E22.1121
G1 X164.109 Y136.388 E22.1589
G0 F810 X164.035 Y136.598
G0 F3000 X164.731 Y136.779
;TYPE:WALL-OUTER
G1 F900 X164.649 Y137.257 E22.21813
G1 X164.649 Y137.743 E22.27749
G1 X164.731 Y138.221 E22.33672
G1 X164.893 Y138.679 E22.39605
G1 X165.13 Y139.102 E22.45527
G1 X165.434 Y139.48 E22.51451
G1 X165.798 Y139.801 E22.57378
G1 X166.212 Y140.055 E22.6331
G1 X166.662 Y140.235 E22.6923
G1 X167.136 Y140.338 E22.75154
G1 X167.621 Y140.359 E22.81083
G1 X168.103 Y140.297 E22.87018
G1 X168.567 Y140.155 E22.92944
G1 X169 Y139.937 E22.98865
G1 X169.391 Y139.648 E23.04803
G1 X169.726 Y139.298 E23.1072
G1 X169.999 Y138.895 E23.16665
G1 X170.198 Y138.453 E23.22585
G1 X170.32 Y137.983 E23.28516
G1 X170.361 Y137.5 E23.34436
G1 X170.32 Y137.016 E23.40368
G1 X170.198 Y136.547 E23.46287
G1 X169.999 Y136.105 E23.52207
G1 X169.726 Y135.702 E23.58152
G1 X169.391 Y135.352 E23.64069
G1 X169 Y135.063 E23.70007
G1 X168.567 Y134.845 E23.75928
G1 X168.103 Y134.703 E23.81854
G1 X167.621 Y134.641 E23.87789
G1 X167.136 Y134.662 E23.93718
G1 X166.662 Y134.765 E23.99642
G1 X166.212 Y134.945 E24.05561
G1 X165.798 Y135.199 E24.11493
G1 X165.434 Y135.52 E24.17421
G1 X165.13 Y135.898 E24.23345
G1 X164.893 Y136.321 E24.29267
G1 X164.805 Y136.57 E24.32492
G0 F810 X164.731 Y136.779
G0 F3000 X164.698 Y136.976
G0 X163.916 Y136.842
G1 F1500 E18.32492
G1 F300 Z0.8
G0 F3000 X150.201 Y125.834 Z0.8
;TYPE:WALL-INNER
G1 F300 Z0.4
G1 F1500 E24.32492
G1 F900 X150.022 Y126.488 E24.40716
G1 X149.932 Y127.161 E24.48951
G1 X149.932 Y127.839 E24.57174
G1 X150.022 Y128.512 E24.65409
G1 X150.201 Y129.166 E24.73632
G1 X150.467 Y129.791 E24.81871
G1 X150.811 Y130.374 E24.90081
G1 X151.232 Y130.907 E24.98318
G1 X151.72 Y131.38 E25.06561
G1 X152.268 Y131.782 E25.14804
G1 X152.862 Y132.107 E25.23016
G1 X153.495 Y132.351 E25.31244
G1 X154.155 Y132.508 E25.39472
G1 X154.83 Y132.577 E25.47701
G1 X155.508 Y132.554 E25.55929
G1 X156.177 Y132.441 E25.64157
G1 X156.826 Y132.241 E25.72394
G1 X157.442 Y131.954 E25.80636
G1 X158.013 Y131.588 E25.88862
G1 X158.531 Y131.151 E25.97081
G1 X158.986 Y130.648 E26.05307
G1 X159.37 Y130.088 E26.13543
G1 X159.677 Y129.484 E26.2176
G1 X159.899 Y128.842 E26.29999
G1 X160.034 Y128.177 E26.38229
G1 X160.08 Y127.5 E26.46459
G1 X160.034 Y126.823 E26.54688
G1 X159.899 Y126.158 E26.62918
G1 X159.677 Y125.516 E26.71157
G1 X159.37 Y124.912 E26.79374
G1 X158.986 Y124.352 E26.8761
G1 X158.531 Y123.849 E26.95836
G1 X158.013 Y123.412 E27.04055
G1 X157.442 Y123.046 E27.12281
G1 X156.826 Y122.759 E27.20523
G1 X156.177 Y122.559 E27.2876
G1 X155.508 Y122.446 E27.36989
G1 X154.83 Y122.423 E27.45216
G1 X154.155 Y122.492 E27.53445
G1 X153.495 Y122.649 E27.61674
G1 X152.862 Y122.893 E27.69901
G1 X152.268 Y123.218 E27.78113
G1 X151.72 Y123.62 E27.86356
G1 X151.232 Y124.093 E27.94599
G1 X150.811 Y124.626 E28.02837
G1 X150.467 Y125.209 E28.11046
G1 X150.288 Y125.629 E28.16584
G0 F810 X150.201 Y125.834
G0 F3000 X150.88 Y126.07
;TYPE:WALL-OUTER
G1 F900 X150.726 Y126.631 E28.23689
