;FLAVOR:Marlin
;TIME:11231
;Filament used: 38.5407m
;Layer height: 0.6
;MINX:15.28
;MINY:75.28
;MINZ:0.4
;MAXX:204.72
;MAXY:154.72
;MAXZ:80.025
;Generated with Cura_SteamEngine 4.4.1
M140 S60
M105
M190 S60
M104 S215
M105
M109 S215
M82 ;absolute extrusion mode
M201 X500.00 Y500.00 Z100.00 E5000.00 ;Setup machine max acceleration
M203 X500.00 Y500.00 Z10.00 E75.00 ;Setup machine max feedrate
M204 P500.00 R1000.00 T500.00 ;Setup Print/Retract/Travel acceleration
M205 X8.00 Y8.00 Z0.40 E5.00 ;Setup Jerk
M220 S100 ;Reset Feedrate
M221 S100 ;Reset Flowrate

G21 ; (metric values)
G90 ; (absolute positioning)
M82 ; (set extruder to absolute mode)
G28 ; (home all axis)
G29 ; (Auto Level)

G92 E0 ;Reset Extruder
G1 Z2.0 F3000 ;Move Z Axis up
G1 X1.1 Y50 Z0.28 F5000.0 ;Move to start position
G1 X1.1 Y200.0 Z0.28 F1500.0 E15 ;Draw the first line
G1 X1.4 Y200.0 Z0.28 F5000.0 ;Move to side a little
G1 X1.4 Y100 Z0.28 F1500.0 E30 ;Draw the second line
G92 E0 ;Reset Extruder
G1 Z2.0 F3000 ;Move Z Axis up
G92 E0
G92 E0
G1 F1500 E-6
;LAYER_COUNT:126
;LAYER:0
M107
G1 F300 Z0.8
G0 F3000 X22.122 Y75.716 Z0.8
;TYPE:SKIRT
G1 F300 Z0.4
G1 F1500 E0
G1 F900 X22.975 Y75.493 E0.10768
G1 X23.845 Y75.349 E0.21538
G1 X25 Y75.28 E0.35669
G1 X195 Y75.28 E21.119
G1 X195.881 Y75.32 E21.22671
G1 X196.754 Y75.44 E21.33433
G1 X197.613 Y75.638 E21.44199
G1 X198.451 Y75.913 E21.54971
G1 X199.26 Y76.263 E21.65736
G1 X200.034 Y76.685 E21.76503
G1 X200.767 Y77.175 E21.87271
G1 X201.452 Y77.73 E21.98038
G1 X202.084 Y78.344 E22.088
G1 X202.658 Y79.014 E22.19575
G1 X203.169 Y79.732 E22.30338
G1 X203.612 Y80.494 E22.41103
G1 X203.985 Y81.293 E22.51872
G1 X204.284 Y82.122 E22.62635
G1 X204.507 Y82.975 E22.73403
G1 X204.651 Y83.845 E22.84173
G1 X204.72 Y85 E22.98305
G1 X204.72 Y145 E30.31092
G1 X204.68 Y145.881 E30.41863
G1 X204.56 Y146.754 E30.52625
G1 X204.362 Y147.613 E30.63391
G1 X204.087 Y148.451 E30.74163
G1 X203.737 Y149.26 E30.84928
G1 X203.315 Y150.034 E30.95695
G1 X202.825 Y150.767 E31.06463
G1 X202.27 Y151.452 E31.17231
G1 X201.656 Y152.084 E31.27992
G1 X200.986 Y152.658 E31.38767
G1 X200.268 Y153.169 E31.4953
G1 X199.506 Y153.612 E31.60295
G1 X198.707 Y153.985 E31.71064
G1 X197.878 Y154.284 E31.81827
G1 X197.025 Y154.507 E31.92595
G1 X196.155 Y154.651 E32.03365
G1 X195 Y154.72 E32.17497
G1 X25 Y154.72 E52.93727
G1 X24.119 Y154.68 E53.04498
G1 X23.246 Y154.56 E53.1526
G1 X22.387 Y154.362 E53.26027
G1 X21.549 Y154.087 E53.36798
G1 X20.74 Y153.737 E53.47564
G1 X19.966 Y153.315 E53.5833
G1 X19.233 Y152.825 E53.69099
G1 X18.548 Y152.27 E53.79866
G1 X17.916 Y151.656 E53.90628
G1 X17.342 Y150.986 E54.01403
G1 X16.831 Y150.268 E54.12166
G1 X16.388 Y149.506 E54.22931
G1 X16.015 Y148.707 E54.337
G1 X15.716 Y147.878 E54.44463
G1 X15.493 Y147.025 E54.55231
G1 X15.349 Y146.155 E54.66001
G1 X15.28 Y145 E54.80132
G1 X15.28 Y85 E62.12919
G1 X15.32 Y84.119 E62.2369
G1 X15.44 Y83.246 E62.34453
G1 X15.638 Y82.387 E62.45219
G1 X15.913 Y81.549 E62.5599
G1 X16.263 Y80.74 E62.66756
G1 X16.685 Y79.966 E62.77522
G1 X17.175 Y79.233 E62.88291
G1 X17.73 Y78.548 E62.99058
G1 X18.344 Y77.916 E63.0982
G1 X19.014 Y77.342 E63.20595
G1 X19.732 Y76.831 E63.31358
G1 X20.494 Y76.388 E63.42123
G1 X21.293 Y76.015 E63.52892
G1 X21.914 Y75.791 E63.60955
G0 F810 X22.122 Y75.716
G0 F3000 X21.956 Y76.53
G1 F900 X22.767 Y76.281 E63.71316
G1 X23.598 Y76.11 E63.81677
G1 X24.441 Y76.017 E63.92036
G1 X25 Y76 E63.98866
G1 X195 Y76 E84.75097
G1 X195.847 Y76.04 E84.85453
G1 X196.687 Y76.16 E84.95816
G1 X197.512 Y76.358 E85.06178
G1 X198.315 Y76.633 E85.16544
G1 X199.088 Y76.982 E85.26902
G1 X199.824 Y77.402 E85.37252
G1 X200.518 Y77.89 E85.47613
G1 X201.163 Y78.441 E85.57974
G1 X201.753 Y79.051 E85.68339
G1 X202.283 Y79.713 E85.78696
G1 X202.749 Y80.422 E85.89058
G1 X203.145 Y81.172 E85.99416
G1 X203.47 Y81.956 E86.09781
G1 X203.719 Y82.767 E86.20142
G1 X203.89 Y83.598 E86.30504
G1 X203.983 Y84.441 E86.40862
G1 X204 Y85 E86.47692
G1 X204 Y145 E93.8048
G1 X203.96 Y145.847 E93.90836
G1 X203.84 Y146.687 E94.01199
G1 X203.642 Y147.512 E94.11561
G1 X203.367 Y148.315 E94.21927
G1 X203.018 Y149.088 E94.32285
G1 X202.598 Y149.824 E94.42635
G1 X202.11 Y150.518 E94.52997
G1 X201.559 Y151.163 E94.63357
G1 X200.949 Y151.753 E94.73722
G1 X200.287 Y152.283 E94.84079
G1 X199.578 Y152.749 E94.94441
G1 X198.828 Y153.145 E95.04799
G1 X198.044 Y153.47 E95.15164
G1 X197.233 Y153.719 E95.25525
G1 X196.402 Y153.89 E95.35887
G1 X195.559 Y153.983 E95.46245
G1 X195 Y154 E95.53075
G1 X25 Y154 E116.29306
G1 X24.153 Y153.96 E116.39662
G1 X23.313 Y153.84 E116.50025
G1 X22.488 Y153.642 E116.60387
G1 X21.685 Y153.367 E116.70754
G1 X20.912 Y153.018 E116.81112
G1 X20.176 Y152.598 E116.91461
G1 X19.482 Y152.11 E117.01823
G1 X18.837 Y151.559 E117.12183
G1 X18.247 Y150.949 E117.22548
G1 X17.717 Y150.287 E117.32905
G1 X17.251 Y149.578 E117.43267
G1 X16.855 Y148.828 E117.53625
G1 X16.53 Y148.044 E117.63991
G1 X16.281 Y147.233 E117.74352
G1 X16.11 Y146.402 E117.84713
G1 X16.017 Y145.559 E117.95072
G1 X16 Y145 E118.01902
G1 X16 Y85 E125.34689
G1 X16.04 Y84.153 E125.45045
G1 X16.16 Y83.313 E125.55408
G1 X16.358 Y82.488 E125.6577
G1 X16.633 Y81.685 E125.76137
G1 X16.982 Y80.912 E125.86495
G1 X17.402 Y80.176 E125.96844
G1 X17.89 Y79.482 E126.07206
G1 X18.441 Y78.837 E126.17567
G1 X19.051 Y78.247 E126.27931
G1 X19.713 Y77.717 E126.38288
G1 X20.422 Y77.251 E126.4865
G1 X21.172 Y76.855 E126.59008
G1 X21.751 Y76.615 E126.66663
G0 F810 X21.956 Y76.53
G0 F3000 X22.61 Y77.072
G1 F900 X23.399 Y76.876 E126.76592
G1 X24.204 Y76.758 E126.86529
G1 X25 Y76.72 E126.96262
G1 X195 Y76.72 E147.72492
G1 X195.813 Y76.76 E147.82434
G1 X196.617 Y76.88 E147.92362
G1 X197.407 Y77.077 E148.02306
G1 X198.173 Y77.352 E148.12245
G1 X198.908 Y77.7 E148.22177
G1 X199.605 Y78.119 E148.3211
G1 X200.259 Y78.604 E148.42054
G1 X200.861 Y79.151 E148.51988
G1 X201.407 Y79.755 E148.61932
G1 X201.891 Y80.409 E148.71869
G1 X202.308 Y81.107 E148.81799
G1 X202.655 Y81.843 E148.91737
G1 X202.928 Y82.61 E149.0168
G1 X203.124 Y83.399 E149.11609
G1 X203.242 Y84.204 E149.21545
G1 X203.28 Y85 E149.31278
G1 X203.28 Y145 E156.64065
G1 X203.24 Y145.813 E156.74007
G1 X203.12 Y146.617 E156.83935
G1 X202.923 Y147.407 E156.93879
G1 X202.648 Y148.173 E157.03819
G1 X202.3 Y148.908 E157.1375
G1 X201.881 Y149.605 E157.23683
G1 X201.396 Y150.259 E157.33627
G1 X200.849 Y150.861 E157.43561
G1 X200.245 Y151.407 E157.53505
G1 X199.591 Y151.891 E157.63442
G1 X198.893 Y152.308 E157.73372
G1 X198.157 Y152.655 E157.8331
G1 X197.39 Y152.928 E157.93253
G1 X196.601 Y153.124 E158.03182
G1 X195.796 Y153.242 E158.13119
G1 X195 Y153.28 E158.22851
G1 X25 Y153.28 E178.99082
G1 X24.187 Y153.24 E179.09023
G1 X23.383 Y153.12 E179.18951
G1 X22.593 Y152.923 E179.28895
G1 X21.827 Y152.648 E179.38835
G1 X21.092 Y152.3 E179.48767
G1 X20.395 Y151.881 E179.58699
G1 X19.741 Y151.396 E179.68643
G1 X19.139 Y150.849 E179.78577
G1 X18.593 Y150.245 E179.88521
G1 X18.109 Y149.591 E179.98458
G1 X17.692 Y148.893 E180.08388
G1 X17.345 Y148.157 E180.18326
G1 X17.072 Y147.39 E180.28269
G1 X16.876 Y146.601 E180.38198
G1 X16.758 Y145.796 E180.48135
G1 X16.72 Y145 E180.57868
G1 X16.72 Y85 E187.90655
G1 X16.76 Y84.187 E188.00596
G1 X16.88 Y83.383 E188.10524
G1 X17.077 Y82.593 E188.20468
G1 X17.352 Y81.827 E188.30408
G1 X17.7 Y81.092 E188.4034
G1 X18.119 Y80.395 E188.50272
G1 X18.604 Y79.741 E188.60216
G1 X19.151 Y79.139 E188.70151
G1 X19.755 Y78.593 E188.80095
G1 X20.409 Y78.109 E188.90031
G1 X21.107 Y77.692 E188.99962
G1 X21.843 Y77.345 E189.09899
G1 X22.401 Y77.146 E189.17135
G0 F810 X22.61 Y77.072
G0 F3000 X22.506 Y77.863
G1 F900 X23.252 Y77.645 E189.26627
G1 X24.016 Y77.504 E189.36115
G1 X25 Y77.44 E189.48158
G1 X195 Y77.44 E210.24389
G1 X195.776 Y77.48 E210.33879
G1 X196.545 Y77.599 E210.43383
G1 X197.296 Y77.797 E210.52868
G1 X198.024 Y78.071 E210.62368
G1 X198.72 Y78.418 E210.71866
G1 X199.376 Y78.835 E210.8136
G1 X199.986 Y79.317 E210.90855
G1 X200.543 Y79.859 E211.00347
G1 X201.042 Y80.456 E211.09849
G1 X201.477 Y81.1 E211.19341
G1 X201.843 Y81.786 E211.28837
G1 X202.137 Y82.506 E211.38335
G1 X202.355 Y83.252 E211.47827
G1 X202.496 Y84.016 E211.57316
G1 X202.56 Y85 E211.69359
G1 X202.56 Y145 E219.02146
G1 X202.52 Y145.776 E219.11636
G1 X202.401 Y146.545 E219.2114
G1 X202.203 Y147.296 E219.30625
G1 X201.929 Y148.024 E219.40125
G1 X201.582 Y148.72 E219.49623
G1 X201.165 Y149.376 E219.59117
G1 X200.683 Y149.986 E219.68612
G1 X200.141 Y150.543 E219.78104
G1 X199.544 Y151.042 E219.87607
G1 X198.9 Y151.477 E219.97098
G1 X198.214 Y151.843 E220.06594
G1 X197.494 Y152.137 E220.16092
G1 X196.748 Y152.355 E220.25584
G1 X195.984 Y152.496 E220.35073
G1 X195 Y152.56 E220.47116
G1 X25 Y152.56 E241.23347
G1 X24.224 Y152.52 E241.32837
G1 X23.455 Y152.401 E241.4234
G1 X22.704 Y152.203 E241.51826
G1 X21.976 Y151.929 E241.61326
G1 X21.28 Y151.582 E241.70824
G1 X20.624 Y151.165 E241.80317
G1 X20.014 Y150.683 E241.89813
G1 X19.457 Y150.141 E241.99304
G1 X18.958 Y149.544 E242.08807
G1 X18.523 Y148.9 E242.18299
G1 X18.157 Y148.214 E242.27795
G1 X17.863 Y147.494 E242.37293
G1 X17.645 Y146.748 E242.46785
G1 X17.504 Y145.984 E242.56273
G1 X17.44 Y145 E242.68316
G1 X17.44 Y85 E250.01104
G1 X17.48 Y84.224 E250.10594
G1 X17.599 Y83.455 E250.20097
G1 X17.797 Y82.704 E250.29583
G1 X18.071 Y81.976 E250.39083
G1 X18.418 Y81.28 E250.48581
G1 X18.835 Y80.624 E250.58075
G1 X19.317 Y80.014 E250.6757
G1 X19.859 Y79.457 E250.77062
G1 X20.456 Y78.958 E250.86564
G1 X21.1 Y78.523 E250.96056
G1 X21.786 Y78.157 E251.05552
G1 X22.301 Y77.947 E251.12344
G0 F810 X22.506 Y77.863
G0 F3000 X23.157 Y78.413
G1 F900 X23.878 Y78.253 E251.21364
G1 X24.613 Y78.171 E251.30397
G1 X25 Y78.16 E251.35125
G1 X195 Y78.16 E272.11356
G1 X195.738 Y78.2 E272.20382
G1 X196.468 Y78.319 E272.29415
G1 X197.181 Y78.517 E272.38453
G1 X197.868 Y78.79 E272.47482
G1 X198.521 Y79.136 E272.56507
G1 X199.134 Y79.551 E272.65548
G1 X199.698 Y80.029 E272.74577
G1 X200.207 Y80.565 E272.83605
G1 X200.656 Y81.153 E272.9264
G1 X201.038 Y81.786 E273.0167
G1 X201.349 Y82.456 E273.10691
G1 X201.587 Y83.157 E273.19733
G1 X201.747 Y83.878 E273.28753
G1 X201.829 Y84.613 E273.37785
G1 X201.84 Y85 E273.42513
G1 X201.84 Y145 E280.75301
G1 X201.8 Y145.738 E280.84327
G1 X201.681 Y146.468 E280.9336
G1 X201.483 Y147.181 E281.02398
G1 X201.21 Y147.868 E281.11427
G1 X200.864 Y148.521 E281.20452
G1 X200.449 Y149.134 E281.29493
G1 X199.971 Y149.698 E281.38522
G1 X199.435 Y150.207 E281.4755
G1 X198.847 Y150.656 E281.56586
G1 X198.214 Y151.038 E281.65615
G1 X197.544 Y151.349 E281.74636
G1 X196.843 Y151.587 E281.83678
G1 X196.122 Y151.747 E281.92698
G1 X195.387 Y151.829 E282.0173
G1 X195 Y151.84 E282.06458
G1 X25 Y151.84 E302.82689
G1 X24.262 Y151.8 E302.91716
G1 X23.532 Y151.681 E303.00749
G1 X22.819 Y151.483 E303.09786
G1 X22.132 Y151.21 E303.18815
G1 X21.479 Y150.864 E303.27841
G1 X20.866 Y150.449 E303.36882
G1 X20.302 Y149.971 E303.45911
G1 X19.793 Y149.435 E303.54938
G1 X19.344 Y148.847 E303.63974
G1 X18.962 Y148.214 E303.73004
G1 X18.651 Y147.544 E303.82025
G1 X18.413 Y146.843 E303.91066
G1 X18.253 Y146.122 E304.00086
G1 X18.171 Y145.387 E304.09119
G1 X18.16 Y145 E304.13847
G1 X18.16 Y85 E311.46634
G1 X18.2 Y84.262 E311.55661
G1 X18.319 Y83.532 E311.64694
G1 X18.517 Y82.819 E311.73731
G1 X18.79 Y82.132 E311.8276
G1 X19.136 Y81.479 E311.91786
G1 X19.551 Y80.866 E312.00827
G1 X20.029 Y80.302 E312.09856
G1 X20.565 Y79.793 E312.18883
G1 X21.153 Y79.344 E312.27919
G1 X21.786 Y78.962 E312.36949
G1 X22.456 Y78.651 E312.4597
G1 X22.947 Y78.484 E312.52304
G0 F810 X23.157 Y78.413
G0 F3000 X23.116 Y79.177
G1 F900 X23.792 Y79 E312.60838
G1 X24.485 Y78.902 E312.69386
G1 X25 Y78.88 E312.75682
G1 X195 Y78.88 E333.51912
G1 X195.698 Y78.92 E333.60451
G1 X196.387 Y79.039 E333.68991
G1 X197.058 Y79.237 E333.77535
G1 X197.703 Y79.509 E333.86084
G1 X198.312 Y79.853 E333.94627
G1 X198.877 Y80.265 E334.03167
G1 X199.392 Y80.738 E334.11707
G1 X199.85 Y81.267 E334.20253
G1 X200.244 Y81.845 E334.28796
G1 X200.57 Y82.464 E334.3734
G1 X200.823 Y83.116 E334.45882
G1 X201 Y83.792 E334.54416
G1 X201.098 Y84.485 E334.62964
G1 X201.12 Y85 E334.69259
G1 X201.12 Y145 E342.02047
G1 X201.08 Y145.698 E342.10585
G1 X200.961 Y146.387 E342.19125
G1 X200.763 Y147.058 E342.27669
G1 X200.491 Y147.703 E342.36218
G1 X200.147 Y148.312 E342.44761
G1 X199.735 Y148.877 E342.53301
G1 X199.262 Y149.392 E342.61841
G1 X198.733 Y149.85 E342.70387
G1 X198.155 Y150.244 E342.7893
G1 X197.536 Y150.57 E342.87474
G1 X196.884 Y150.823 E342.96016
G1 X196.208 Y151 E343.0455
G1 X195.515 Y151.098 E343.13098
G1 X195 Y151.12 E343.19393
G1 X25 Y151.12 E363.95624
G1 X24.302 Y151.08 E364.04163
G1 X23.613 Y150.961 E364.12702
G1 X22.942 Y150.763 E364.21247
G1 X22.297 Y150.491 E364.29796
G1 X21.688 Y150.147 E364.38338
G1 X21.123 Y149.735 E364.46878
G1 X20.608 Y149.262 E364.55419
G1 X20.15 Y148.733 E364.63964
G1 X19.756 Y148.155 E364.72508
G1 X19.43 Y147.536 E364.81052
G1 X19.177 Y146.884 E364.89593
G1 X19 Y146.208 E364.98128
G1 X18.902 Y145.515 E365.06676
G1 X18.88 Y145 E365.12971
G1 X18.88 Y85 E372.45758
G1 X18.92 Y84.302 E372.54297
G1 X19.039 Y83.613 E372.62836
G1 X19.237 Y82.942 E372.71381
G1 X19.509 Y82.297 E372.7993
G1 X19.853 Y81.688 E372.88472
G1 X20.265 Y81.123 E372.97013
G1 X20.738 Y80.608 E373.05553
G1 X21.267 Y80.15 E373.14098
G1 X21.845 Y79.756 E373.22642
G1 X22.464 Y79.43 E373.31186
G1 X22.909 Y79.257 E373.37017
G0 F810 X23.116 Y79.177
G0 F3000 X23.131 Y79.934
G1 F900 X23.76 Y79.744 E373.45042
G1 X24.407 Y79.633 E373.53059
G1 X25 Y79.6 E373.60313
G1 X195 Y79.6 E394.36544
G1 X195.656 Y79.64 E394.4457
G1 X196.302 Y79.759 E394.52593
G1 X196.929 Y79.956 E394.60619
G1 X197.527 Y80.228 E394.68643
G1 X198.088 Y80.57 E394.76667
G1 X198.603 Y80.978 E394.84692
G1 X199.065 Y81.445 E394.92714
G1 X199.466 Y81.965 E395.00734
G1 X199.802 Y82.529 E395.08752
G1 X200.066 Y83.131 E395.1678
G1 X200.256 Y83.76 E395.24805
G1 X200.367 Y84.407 E395.32823
G1 X200.4 Y85 E395.40076
G1 X200.4 Y145 E402.72864
G1 X200.36 Y145.656 E402.8089
G1 X200.241 Y146.302 E402.88913
G1 X200.044 Y146.929 E402.96939
G1 X199.772 Y147.527 E403.04963
G1 X199.43 Y148.088 E403.12987
G1 X199.022 Y148.603 E403.21012
G1 X198.555 Y149.065 E403.29035
G1 X198.035 Y149.466 E403.37054
G1 X197.471 Y149.802 E403.45072
G1 X196.869 Y150.066 E403.531
G1 X196.24 Y150.256 E403.61125
G1 X195.593 Y150.367 E403.69143
G1 X195 Y150.4 E403.76396
G1 X25 Y150.4 E424.52627
G1 X24.344 Y150.36 E424.60654
G1 X23.698 Y150.241 E424.68676
G1 X23.071 Y150.044 E424.76703
G1 X22.473 Y149.772 E424.84726
G1 X21.912 Y149.43 E424.92751
G1 X21.397 Y149.022 E425.00775
G1 X20.935 Y148.555 E425.08798
G1 X20.534 Y148.035 E425.16818
G1 X20.198 Y147.471 E425.24836
G1 X19.934 Y146.869 E425.32864
G1 X19.744 Y146.24 E425.40889
G1 X19.633 Y145.593 E425.48906
G1 X19.6 Y145 E425.5616
G1 X19.6 Y85 E432.88947
G1 X19.64 Y84.344 E432.96974
G1 X19.759 Y83.698 E433.04996
G1 X19.956 Y83.071 E433.13023
G1 X20.228 Y82.473 E433.21046
G1 X20.57 Y81.912 E433.29071
G1 X20.978 Y81.397 E433.37095
G1 X21.445 Y80.935 E433.45118
G1 X21.965 Y80.534 E433.53138
G1 X22.529 Y80.198 E433.61156
G1 X22.928 Y80.023 E433.66477
G0 F810 X23.131 Y79.934
G0 F3000 X23.783 Y80.481
G1 F900 X24.382 Y80.361 E433.73938
G1 X25 Y80.32 E433.81502
G1 X195 Y80.32 E454.57733
G1 X195.61 Y80.36 E454.65199
G1 X196.21 Y80.479 E454.72669
G1 X196.789 Y80.676 E454.80139
G1 X197.338 Y80.946 E454.87611
G1 X197.847 Y81.285 E454.9508
G1 X198.307 Y81.688 E455.02549
G1 X198.71 Y82.148 E455.10018
G1 X199.051 Y82.656 E455.17491
G1 X199.322 Y83.204 E455.24957
G1 X199.519 Y83.783 E455.32427
