;FLAVOR:Marlin
;TIME:24336
;Filament used: 61.839m
;Layer height: 0.4
;MINX:15.28
;MINY:75.28
;MINZ:0.4
;MAXX:204.72
;MAXY:159.371
;MAXZ:170.15
;Generated with Cura_SteamEngine 4.4.1
M140 S60
M105
M190 S60
M104 S215
M105
M109 S215
M82 ;absolute extrusion mode
M201 X500.00 Y500.00 Z100.00 E5000.00 ;Setup machine max acceleration
M203 X500.00 Y500.00 Z10.00 E75.00 ;Setup machine max feedrate
M204 P500.00 R1000.00 T500.00 ;Setup Print/Retract/Travel acceleration
M205 X8.00 Y8.00 Z0.40 E5.00 ;Setup Jerk
M220 S100 ;Reset Feedrate
M221 S100 ;Reset Flowrate

G21 ; (metric values)
G90 ; (absolute positioning)
M82 ; (set extruder to absolute mode)
G28 ; (home all axis)
G29 ; (Auto Level)

G92 E0 ;Reset Extruder
G1 Z2.0 F3000 ;Move Z Axis up
G1 X1.1 Y50 Z0.28 F5000.0 ;Move to start position
G1 X1.1 Y200.0 Z0.28 F1500.0 E15 ;Draw the first line
G1 X1.4 Y200.0 Z0.28 F5000.0 ;Move to side a little
G1 X1.4 Y100 Z0.28 F1500.0 E30 ;Draw the second line
G92 E0 ;Reset Extruder
G1 Z2.0 F3000 ;Move Z Axis up
G92 E0
G92 E0
G1 F1500 E-6
;LAYER_COUNT:321
;LAYER:0
M107
G1 F300 Z0.8
G0 F3000 X22.122 Y75.716 Z0.8
;TYPE:SKIRT
G1 F300 Z0.4
G1 F1500 E0
G1 F900 X22.975 Y75.493 E0.10768
G1 X23.845 Y75.349 E0.21538
G1 X25 Y75.28 E0.35669
G1 X195 Y75.28 E21.119
G1 X195.881 Y75.32 E21.22671
G1 X196.754 Y75.44 E21.33433
G1 X197.613 Y75.638 E21.44199
G1 X198.451 Y75.913 E21.54971
G1 X199.26 Y76.263 E21.65736
G1 X200.034 Y76.685 E21.76503
G1 X200.767 Y77.175 E21.87271
G1 X201.452 Y77.73 E21.98038
G1 X202.084 Y78.344 E22.088
G1 X202.658 Y79.014 E22.19575
G1 X203.169 Y79.732 E22.30338
G1 X203.612 Y80.494 E22.41103
G1 X203.985 Y81.293 E22.51872
G1 X204.284 Y82.122 E22.62635
G1 X204.507 Y82.975 E22.73403
G1 X204.651 Y83.845 E22.84173
G1 X204.72 Y85 E22.98305
G1 X204.72 Y145 E30.31092
G1 X204.68 Y145.881 E30.41863
G1 X204.56 Y146.754 E30.52625
G1 X204.362 Y147.613 E30.63391
G1 X204.087 Y148.451 E30.74163
G1 X203.737 Y149.26 E30.84928
G1 X203.315 Y150.034 E30.95695
G1 X202.825 Y150.767 E31.06463
G1 X202.27 Y151.452 E31.17231
G1 X201.656 Y152.084 E31.27992
G1 X200.986 Y152.658 E31.38767
G1 X200.268 Y153.169 E31.4953
G1 X199.506 Y153.612 E31.60295
G1 X198.707 Y153.985 E31.71064
G1 X197.878 Y154.284 E31.81827
G1 X197.025 Y154.507 E31.92595
G1 X196.155 Y154.651 E32.03365
G1 X195 Y154.72 E32.17497
G1 X186.291 Y154.72 E33.23861
G1 X185.825 Y155.417 E33.34101
G1 X185.27 Y156.102 E33.44868
G1 X184.656 Y156.734 E33.55629
G1 X183.986 Y157.308 E33.66405
G1 X183.268 Y157.819 E33.77168
G1 X182.506 Y158.262 E33.87933
G1 X181.707 Y158.635 E33.98702
G1 X180.878 Y158.934 E34.09465
G1 X180.025 Y159.157 E34.20233
G1 X179.155 Y159.301 E34.31003
G1 X178.002 Y159.37 E34.4511
G1 X172.002 Y159.371 E35.18388
G1 X171.121 Y159.331 E35.29159
G1 X170.247 Y159.212 E35.39932
G1 X169.388 Y159.014 E35.50698
G1 X168.551 Y158.738 E35.61462
G1 X167.742 Y158.389 E35.72223
G1 X166.968 Y157.967 E35.82989
G1 X166.235 Y157.477 E35.93758
G1 X165.549 Y156.922 E36.04534
G1 X164.917 Y156.308 E36.15296
G1 X164.343 Y155.639 E36.26062
G1 X163.832 Y154.92 E36.36835
G1 X163.715 Y154.72 E36.39665
G1 X56.291 Y154.72 E49.51647
G1 X55.825 Y155.417 E49.61887
G1 X55.27 Y156.102 E49.72654
G1 X54.656 Y156.734 E49.83416
G1 X53.986 Y157.308 E49.94191
G1 X53.268 Y157.819 E50.04954
G1 X52.506 Y158.262 E50.15719
G1 X51.707 Y158.635 E50.26488
G1 X50.878 Y158.934 E50.37251
G1 X50.025 Y159.157 E50.48019
G1 X49.155 Y159.301 E50.58789
G1 X48.002 Y159.37 E50.72896
G1 X42.002 Y159.371 E51.46175
G1 X41.121 Y159.331 E51.56946
G1 X40.247 Y159.212 E51.67718
G1 X39.388 Y159.014 E51.78484
G1 X38.551 Y158.738 E51.89248
G1 X37.742 Y158.389 E52.00009
G1 X36.968 Y157.967 E52.10776
G1 X36.235 Y157.477 E52.21544
G1 X35.549 Y156.922 E52.32321
G1 X34.917 Y156.308 E52.43082
G1 X34.343 Y155.639 E52.53848
G1 X33.832 Y154.92 E52.64621
G1 X33.715 Y154.72 E52.67451
G1 X25 Y154.72 E53.73888
G1 X24.119 Y154.68 E53.84659
G1 X23.246 Y154.56 E53.95421
G1 X22.387 Y154.362 E54.06188
G1 X21.549 Y154.087 E54.16959
G1 X20.74 Y153.737 E54.27725
G1 X19.966 Y153.315 E54.38491
G1 X19.233 Y152.825 E54.4926
G1 X18.548 Y152.27 E54.60027
G1 X17.916 Y151.656 E54.70788
G1 X17.342 Y150.986 E54.81564
G1 X16.831 Y150.268 E54.92327
G1 X16.388 Y149.506 E55.03091
G1 X16.015 Y148.707 E55.13861
G1 X15.716 Y147.878 E55.24624
G1 X15.493 Y147.025 E55.35392
G1 X15.349 Y146.155 E55.46162
G1 X15.28 Y145 E55.60293
G1 X15.28 Y85 E62.9308
G1 X15.32 Y84.119 E63.03851
G1 X15.44 Y83.246 E63.14613
G1 X15.638 Y82.387 E63.2538
G1 X15.913 Y81.549 E63.36151
G1 X16.263 Y80.74 E63.46917
G1 X16.685 Y79.966 E63.57683
G1 X17.175 Y79.233 E63.68452
G1 X17.73 Y78.548 E63.79219
G1 X18.344 Y77.916 E63.8998
G1 X19.014 Y77.342 E64.00756
G1 X19.732 Y76.831 E64.11519
G1 X20.494 Y76.388 E64.22284
G1 X21.293 Y76.015 E64.33053
G1 X21.914 Y75.791 E64.41115
G0 F810 X22.122 Y75.716
G0 F3000 X21.956 Y76.53
G1 F900 X22.767 Y76.281 E64.51477
G1 X23.598 Y76.11 E64.61838
G1 X24.441 Y76.017 E64.72197
G1 X25 Y76 E64.79027
G1 X195 Y76 E85.55257
G1 X195.847 Y76.04 E85.65614
G1 X196.687 Y76.16 E85.75977
G1 X197.512 Y76.358 E85.86339
G1 X198.315 Y76.633 E85.96705
G1 X199.088 Y76.982 E86.07063
G1 X199.824 Y77.402 E86.17413
G1 X200.518 Y77.89 E86.27774
G1 X201.163 Y78.441 E86.38135
G1 X201.753 Y79.051 E86.48499
G1 X202.283 Y79.713 E86.58856
G1 X202.749 Y80.422 E86.69218
G1 X203.145 Y81.172 E86.79577
G1 X203.47 Y81.956 E86.89942
G1 X203.719 Y82.767 E87.00303
G1 X203.89 Y83.598 E87.10665
G1 X203.983 Y84.441 E87.21023
G1 X204 Y85 E87.27853
G1 X204 Y145 E94.60641
G1 X203.96 Y145.847 E94.70997
G1 X203.84 Y146.687 E94.8136
G1 X203.642 Y147.512 E94.91722
G1 X203.367 Y148.315 E95.02088
G1 X203.018 Y149.088 E95.12446
G1 X202.598 Y149.824 E95.22796
G1 X202.11 Y150.518 E95.33157
G1 X201.559 Y151.163 E95.43518
G1 X200.949 Y151.753 E95.53883
G1 X200.287 Y152.283 E95.6424
G1 X199.578 Y152.749 E95.74602
G1 X198.828 Y153.145 E95.8496
G1 X198.044 Y153.47 E95.95325
G1 X197.233 Y153.719 E96.05686
G1 X196.402 Y153.89 E96.16048
G1 X195.559 Y153.983 E96.26406
G1 X195 Y154 E96.33236
G1 X185.868 Y154 E97.44767
G1 X185.598 Y154.474 E97.51429
G1 X185.11 Y155.168 E97.61791
G1 X184.559 Y155.813 E97.72151
G1 X183.949 Y156.403 E97.82516
G1 X183.287 Y156.933 E97.92873
G1 X182.578 Y157.399 E98.03235
G1 X181.828 Y157.795 E98.13593
G1 X181.044 Y158.12 E98.23958
G1 X180.233 Y158.369 E98.34319
G1 X179.402 Y158.54 E98.44681
G1 X178.559 Y158.633 E98.55039
G1 X178.001 Y158.65 E98.61857
G1 X172.001 Y158.651 E99.35136
G1 X171.154 Y158.611 E99.45492
G1 X170.314 Y158.492 E99.55853
G1 X169.489 Y158.294 E99.66215
G1 X168.687 Y158.019 E99.7657
G1 X167.914 Y157.67 E99.86928
G1 X167.177 Y157.25 E99.97289
G1 X166.483 Y156.762 E100.0765
G1 X165.838 Y156.211 E100.18011
G1 X165.248 Y155.601 E100.28375
G1 X164.718 Y154.939 E100.38732
G1 X164.252 Y154.23 E100.49094
G1 X164.13 Y154 E100.52274
G1 X55.868 Y154 E113.74491
G1 X55.598 Y154.474 E113.81153
G1 X55.11 Y155.168 E113.91515
G1 X54.559 Y155.813 E114.01875
G1 X53.949 Y156.403 E114.1224
G1 X53.287 Y156.933 E114.22597
G1 X52.578 Y157.399 E114.32959
G1 X51.828 Y157.795 E114.43317
G1 X51.044 Y158.12 E114.53682
G1 X50.233 Y158.369 E114.64044
G1 X49.402 Y158.54 E114.74405
G1 X48.559 Y158.633 E114.84764
G1 X48.001 Y158.65 E114.91582
G1 X42.001 Y158.651 E115.6486
G1 X41.154 Y158.611 E115.75216
G1 X40.314 Y158.492 E115.85578
G1 X39.489 Y158.294 E115.9594
G1 X38.687 Y158.019 E116.06295
G1 X37.914 Y157.67 E116.16653
G1 X37.177 Y157.25 E116.27013
G1 X36.483 Y156.762 E116.37375
G1 X35.838 Y156.211 E116.47735
G1 X35.248 Y155.601 E116.581
G1 X34.718 Y154.939 E116.68457
G1 X34.252 Y154.23 E116.78819
G1 X34.13 Y154 E116.81998
G1 X25 Y154 E117.93504
G1 X24.153 Y153.96 E118.0386
G1 X23.313 Y153.84 E118.14223
G1 X22.488 Y153.642 E118.24585
G1 X21.685 Y153.367 E118.34952
G1 X20.912 Y153.018 E118.4531
G1 X20.176 Y152.598 E118.55659
G1 X19.482 Y152.11 E118.66021
G1 X18.837 Y151.559 E118.76382
G1 X18.247 Y150.949 E118.86746
G1 X17.717 Y150.287 E118.97103
G1 X17.251 Y149.578 E119.07465
G1 X16.855 Y148.828 E119.17823
G1 X16.53 Y148.044 E119.28189
G1 X16.281 Y147.233 E119.3855
G1 X16.11 Y146.402 E119.48912
G1 X16.017 Y145.559 E119.5927
G1 X16 Y145 E119.661
G1 X16 Y85 E126.98887
G1 X16.04 Y84.153 E127.09243
G1 X16.16 Y83.313 E127.19607
G1 X16.358 Y82.488 E127.29968
G1 X16.633 Y81.685 E127.40335
G1 X16.982 Y80.912 E127.50693
G1 X17.402 Y80.176 E127.61043
G1 X17.89 Y79.482 E127.71404
G1 X18.441 Y78.837 E127.81765
G1 X19.051 Y78.247 E127.92129
G1 X19.713 Y77.717 E128.02486
G1 X20.422 Y77.251 E128.12848
G1 X21.172 Y76.855 E128.23207
G1 X21.751 Y76.615 E128.30861
G0 F810 X21.956 Y76.53
G0 F3000 X22.61 Y77.072
G1 F900 X23.399 Y76.876 E128.4079
G1 X24.204 Y76.758 E128.50727
G1 X25 Y76.72 E128.6046
G1 X195 Y76.72 E149.3669
G1 X195.813 Y76.76 E149.46632
G1 X196.617 Y76.88 E149.5656
G1 X197.407 Y77.077 E149.66504
G1 X198.173 Y77.352 E149.76444
G1 X198.908 Y77.7 E149.86375
G1 X199.605 Y78.119 E149.96308
G1 X200.259 Y78.604 E150.06252
G1 X200.861 Y79.151 E150.16186
G1 X201.407 Y79.755 E150.2613
G1 X201.891 Y80.409 E150.36067
G1 X202.308 Y81.107 E150.45997
G1 X202.655 Y81.843 E150.55935
G1 X202.928 Y82.61 E150.65878
G1 X203.124 Y83.399 E150.75807
G1 X203.242 Y84.204 E150.85744
G1 X203.28 Y85 E150.95476
G1 X203.28 Y145 E158.28264
G1 X203.24 Y145.813 E158.38205
G1 X203.12 Y146.617 E158.48133
G1 X202.923 Y147.407 E158.58077
G1 X202.648 Y148.173 E158.68017
G1 X202.3 Y148.908 E158.77949
G1 X201.881 Y149.605 E158.87881
G1 X201.396 Y150.259 E158.97825
G1 X200.849 Y150.861 E159.07759
G1 X200.245 Y151.407 E159.17703
G1 X199.591 Y151.891 E159.2764
G1 X198.893 Y152.308 E159.3757
G1 X198.157 Y152.655 E159.47508
G1 X197.39 Y152.928 E159.57451
G1 X196.601 Y153.124 E159.6738
G1 X195.796 Y153.242 E159.77317
G1 X195 Y153.28 E159.87049
G1 X185.432 Y153.28 E161.03905
G1 X185.3 Y153.558 E161.07663
G1 X184.881 Y154.255 E161.17595
G1 X184.396 Y154.909 E161.27539
G1 X183.849 Y155.511 E161.37474
G1 X183.245 Y156.057 E161.47418
G1 X182.591 Y156.541 E161.57354
G1 X181.893 Y156.958 E161.67285
G1 X181.157 Y157.305 E161.77222
G1 X180.39 Y157.578 E161.87165
G1 X179.601 Y157.774 E161.97094
G1 X178.796 Y157.892 E162.07031
G1 X178.001 Y157.93 E162.16752
G1 X172.001 Y157.931 E162.9003
G1 X171.189 Y157.891 E162.99959
G1 X170.384 Y157.772 E163.09898
G1 X169.595 Y157.574 E163.19833
G1 X168.829 Y157.3 E163.29769
G1 X168.093 Y156.951 E163.39717
G1 X167.396 Y156.533 E163.49643
G1 X166.742 Y156.048 E163.59587
G1 X166.14 Y155.501 E163.69521
G1 X165.594 Y154.897 E163.79465
G1 X165.11 Y154.243 E163.89402
G1 X164.693 Y153.545 E163.99332
G1 X164.568 Y153.28 E164.0291
G1 X55.432 Y153.28 E177.35802
G1 X55.3 Y153.558 E177.3956
G1 X54.881 Y154.255 E177.49492
G1 X54.396 Y154.909 E177.59437
G1 X53.849 Y155.511 E177.69371
G1 X53.245 Y156.057 E177.79315
G1 X52.591 Y156.541 E177.89251
G1 X51.893 Y156.958 E177.99182
G1 X51.157 Y157.305 E178.09119
G1 X50.39 Y157.578 E178.19063
G1 X49.601 Y157.774 E178.28992
G1 X48.796 Y157.892 E178.38928
G1 X48.001 Y157.93 E178.48649
G1 X42.001 Y157.931 E179.21927
G1 X41.189 Y157.891 E179.31857
G1 X40.384 Y157.772 E179.41795
G1 X39.595 Y157.574 E179.5173
G1 X38.829 Y157.3 E179.61666
G1 X38.093 Y156.951 E179.71614
G1 X37.396 Y156.533 E179.8154
G1 X36.742 Y156.048 E179.91484
G1 X36.14 Y155.501 E180.01418
G1 X35.594 Y154.897 E180.11362
G1 X35.11 Y154.243 E180.21299
G1 X34.693 Y153.545 E180.31229
G1 X34.568 Y153.28 E180.34808
G1 X25 Y153.28 E181.51663
G1 X24.187 Y153.24 E181.61604
G1 X23.383 Y153.12 E181.71532
G1 X22.593 Y152.923 E181.81476
G1 X21.827 Y152.648 E181.91416
G1 X21.092 Y152.3 E182.01348
G1 X20.395 Y151.881 E182.1128
G1 X19.741 Y151.396 E182.21224
G1 X19.139 Y150.849 E182.31158
G1 X18.593 Y150.245 E182.41102
G1 X18.109 Y149.591 E182.51039
G1 X17.692 Y148.893 E182.60969
G1 X17.345 Y148.157 E182.70907
G1 X17.072 Y147.39 E182.8085
G1 X16.876 Y146.601 E182.90779
G1 X16.758 Y145.796 E183.00716
G1 X16.72 Y145 E183.10449
G1 X16.72 Y85 E190.43236
G1 X16.76 Y84.187 E190.53177
G1 X16.88 Y83.383 E190.63105
G1 X17.077 Y82.593 E190.73049
G1 X17.352 Y81.827 E190.82989
G1 X17.7 Y81.092 E190.92921
G1 X18.119 Y80.395 E191.02853
G1 X18.604 Y79.741 E191.12797
G1 X19.151 Y79.139 E191.22731
G1 X19.755 Y78.593 E191.32675
G1 X20.409 Y78.109 E191.42612
G1 X21.107 Y77.692 E191.52542
G1 X21.843 Y77.345 E191.6248
G1 X22.401 Y77.146 E191.69715
G0 F810 X22.61 Y77.072
G0 F3000 X22.506 Y77.863
G1 F900 X23.252 Y77.645 E191.79207
G1 X24.016 Y77.504 E191.88696
G1 X25 Y77.44 E192.00739
G1 X195 Y77.44 E212.7697
G1 X195.776 Y77.48 E212.8646
G1 X196.545 Y77.599 E212.95963
G1 X197.296 Y77.797 E213.05449
G1 X198.024 Y78.071 E213.14949
G1 X198.72 Y78.418 E213.24447
G1 X199.376 Y78.835 E213.33941
G1 X199.986 Y79.317 E213.43436
G1 X200.543 Y79.859 E213.52927
G1 X201.042 Y80.456 E213.6243
G1 X201.477 Y81.1 E213.71922
G1 X201.843 Y81.786 E213.81418
G1 X202.137 Y82.506 E213.90916
G1 X202.355 Y83.252 E214.00408
G1 X202.496 Y84.016 E214.09896
G1 X202.56 Y85 E214.2194
G1 X202.56 Y145 E221.54727
G1 X202.52 Y145.776 E221.64217
G1 X202.401 Y146.545 E221.7372
G1 X202.203 Y147.296 E221.83206
G1 X201.929 Y148.024 E221.92706
G1 X201.582 Y148.72 E222.02204
G1 X201.165 Y149.376 E222.11698
G1 X200.683 Y149.986 E222.21193
G1 X200.141 Y150.543 E222.30685
G1 X199.544 Y151.042 E222.40187
G1 X198.9 Y151.477 E222.49679
G1 X198.214 Y151.843 E222.59175
G1 X197.494 Y152.137 E222.68673
G1 X196.748 Y152.355 E222.78165
G1 X195.984 Y152.496 E222.87654
G1 X195 Y152.56 E222.99697
G1 X184.972 Y152.56 E224.2217
G1 X184.929 Y152.674 E224.23658
G1 X184.582 Y153.37 E224.33156
G1 X184.165 Y154.026 E224.4265
G1 X183.683 Y154.636 E224.52145
G1 X183.141 Y155.193 E224.61637
G1 X182.544 Y155.692 E224.71139
G1 X181.9 Y156.127 E224.80631
G1 X181.214 Y156.493 E224.90127
G1 X180.494 Y156.787 E224.99625
G1 X179.748 Y157.005 E225.09117
G1 X178.984 Y157.146 E225.18606
G1 X178.001 Y157.21 E225.30636
G1 X172.001 Y157.211 E226.03915
G1 X171.225 Y157.171 E226.13405
G1 X170.457 Y157.052 E226.22897
G1 X169.705 Y156.854 E226.32394
G1 X168.977 Y156.58 E226.41894
G1 X168.281 Y156.233 E226.51392
G1 X167.625 Y155.817 E226.60879
G1 X167.015 Y155.335 E226.70374
G1 X166.458 Y154.793 E226.79866
G1 X165.959 Y154.196 E226.89369
G1 X165.524 Y153.552 E226.9886
G1 X165.158 Y152.866 E227.08356
G1 X165.033 Y152.56 E227.12393
G1 X54.972 Y152.56 E240.56582
G1 X54.929 Y152.674 E240.5807
G1 X54.582 Y153.37 E240.67568
G1 X54.165 Y154.026 E240.77062
G1 X53.683 Y154.636 E240.86557
G1 X53.141 Y155.193 E240.96048
G1 X52.544 Y155.692 E241.05551
G1 X51.9 Y156.127 E241.15043
G1 X51.214 Y156.493 E241.24539
G1 X50.494 Y156.787 E241.34037
G1 X49.748 Y157.005 E241.43529
G1 X48.984 Y157.146 E241.53017
G1 X48.001 Y157.21 E241.65048
G1 X42.001 Y157.211 E242.38327
G1 X41.225 Y157.171 E242.47817
G1 X40.457 Y157.052 E242.57309
G1 X39.705 Y156.854 E242.66806
G1 X38.977 Y156.58 E242.76306
G1 X38.281 Y156.233 E242.85804
G1 X37.625 Y155.817 E242.95291
G1 X37.015 Y155.335 E243.04786
G1 X36.458 Y154.793 E243.14278
G1 X35.959 Y154.196 E243.23781
G1 X35.524 Y153.552 E243.33272
G1 X35.158 Y152.866 E243.42768
G1 X35.033 Y152.56 E243.46805
G1 X25 Y152.56 E244.6934
G1 X24.224 Y152.52 E244.78829
G1 X23.455 Y152.401 E244.88333
G1 X22.704 Y152.203 E244.97819
G1 X21.976 Y151.929 E245.07319
G1 X21.28 Y151.582 E245.16817
G1 X20.624 Y151.165 E245.2631
G1 X20.014 Y150.683 E245.35805
G1 X19.457 Y150.141 E245.45297
G1 X18.958 Y149.544 E245.548
G1 X18.523 Y148.9 E245.64291
G1 X18.157 Y148.214 E245.73788
G1 X17.863 Y147.494 E245.83286
G1 X17.645 Y146.748 E245.92778
G1 X17.504 Y145.984 E246.02266
G1 X17.44 Y145 E246.14309
G1 X17.44 Y85 E253.47097
G1 X17.48 Y84.224 E253.56587
