;FLAVOR:Marlin
;TIME:7555
;Filament used: 4.12151m
;Layer height: 0.2
;MINX:65.7
;MINY:106.525
;MINZ:0.2
;MAXX:169.3
;MAXY:128.475
;MAXZ:81.95
;Generated with Cura_SteamEngine 4.7.0
M140 S60
M105
M190 S60
M104 S205
M105
M109 S205
M82 ;absolute extrusion mode
M201 X500.00 Y500.00 Z100.00 E5000.00 ;Setup machine max acceleration
M203 X500.00 Y500.00 Z10.00 E75.00 ;Setup machine max feedrate
M204 P500.00 R1000.00 T500.00 ;Setup Print/Retract/Travel acceleration
M205 X8.00 Y8.00 Z0.40 E5.00 ;Setup Jerk
M220 S100 ;Reset Feedrate
M221 S100 ;Reset Flowrate

G21 ; (metric values)
G90 ; (absolute positioning)
M82 ; (set extruder to absolute mode)
G28 ; (home all axis)
G29 ; (Auto Level)

G92 E0 ;Reset Extruder
G1 Z2.0 F3000 ;Move Z Axis up
G1 X1.1 Y50 Z0.28 F5000.0 ;Move to start position
G1 X1.1 Y200.0 Z0.28 F1500.0 E15 ;Draw the first line
G1 X1.4 Y200.0 Z0.28 F5000.0 ;Move to side a little
G1 X1.4 Y100 Z0.28 F1500.0 E30 ;Draw the second line
G92 E0 ;Reset Extruder
G1 Z2.0 F3000 ;Move Z Axis up
G92 E0
G92 E0
G1 F1500 E-7
;LAYER_COUNT:408
;LAYER:0
M107
G1 F300 Z0.55
G0 F6000 X68.14 Y110.517 Z0.55
;TYPE:SKIRT
G1 F300 Z0.2
G1 F1500 E0
G1 F900 X68.714 Y110.172 E0.02227
G1 X69.324 Y109.898 E0.04452
G1 X69.963 Y109.698 E0.06679
G1 X70.621 Y109.576 E0.08904
G1 X71.152 Y109.536 E0.10676
G1 X71.473 Y109.527 E0.11744
G1 X71.63 Y109.525 E0.12266
G1 X99.5 Y109.525 E1.04962
G1 X102.16 Y109.487 E1.1381
G1 X104.846 Y109.373 E1.22752
G1 X107.499 Y109.185 E1.31598
G1 X110.165 Y108.921 E1.40508
G1 X112.829 Y108.58 E1.49441
G1 X115.43 Y108.171 E1.58198
G1 X118.081 Y107.679 E1.67166
G1 X120.688 Y107.117 E1.76036
G1 X121.49 Y106.921 E1.78782
G1 X122.523 Y106.682 E1.82309
G1 X122.925 Y106.604 E1.83671
G1 X123.653 Y106.536 E1.86103
G1 X123.973 Y106.527 E1.87167
G1 X124.13 Y106.525 E1.8769
G1 X162.993 Y106.525 E3.16948
G1 X163.771 Y106.536 E3.19536
G1 X164.438 Y106.585 E3.21761
G1 X165.095 Y106.714 E3.23988
G1 X165.731 Y106.92 E3.26211
G1 X166.339 Y107.201 E3.28439
G1 X166.908 Y107.551 E3.30661
G1 X167.432 Y107.968 E3.32888
G1 X167.902 Y108.444 E3.35113
G1 X168.312 Y108.972 E3.37336
G1 X168.657 Y109.546 E3.39564
G1 X168.93 Y110.157 E3.4179
G1 X169.128 Y110.796 E3.44015
G1 X169.249 Y111.454 E3.4624
G1 X169.289 Y111.978 E3.47988
G1 X169.298 Y112.298 E3.49053
G1 X169.3 Y112.455 E3.49575
G1 X169.3 Y122.208 E3.82013
G1 X169.291 Y122.935 E3.84432
G1 X169.242 Y123.603 E3.86659
G1 X169.115 Y124.259 E3.88882
G1 X168.91 Y124.896 E3.91107
G1 X168.631 Y125.504 E3.93332
G1 X168.281 Y126.074 E3.95557
G1 X167.865 Y126.599 E3.97785
G1 X167.39 Y127.07 E4.0001
G1 X166.863 Y127.481 E4.02233
G1 X166.29 Y127.827 E4.04459
G1 X165.68 Y128.101 E4.06683
G1 X165.041 Y128.301 E4.0891
G1 X164.383 Y128.423 E4.11136
G1 X163.848 Y128.464 E4.12921
G1 X163.527 Y128.473 E4.13989
G1 X163.37 Y128.475 E4.14511
G1 X71.935 Y128.475 E7.18625
G1 X71.237 Y128.466 E7.20947
G1 X70.57 Y128.417 E7.23171
G1 X69.913 Y128.289 E7.25397
G1 X69.276 Y128.084 E7.27623
G1 X68.668 Y127.804 E7.29849
G1 X68.098 Y127.454 E7.32074
G1 X67.574 Y127.038 E7.34299
G1 X67.103 Y126.563 E7.36524
G1 X66.692 Y126.035 E7.3875
G1 X66.347 Y125.462 E7.40974
G1 X66.073 Y124.852 E7.43198
G1 X65.873 Y124.213 E7.45425
G1 X65.752 Y123.555 E7.47651
G1 X65.711 Y123.017 E7.49445
G1 X65.702 Y122.684 E7.50553
G1 X65.7 Y122.533 E7.51055
G1 X65.7 Y115.75 E7.73616
G1 X65.709 Y115.061 E7.75908
G1 X65.758 Y114.394 E7.78132
G1 X65.886 Y113.737 E7.80358
G1 X66.091 Y113.1 E7.82584
G1 X66.371 Y112.492 E7.8481
G1 X66.721 Y111.922 E7.87035
G1 X67.137 Y111.398 E7.8926
G1 X67.612 Y110.927 E7.91485
G1 X68.14 Y110.517 E7.93709
G0 F6000 X68.524 Y110.743
G1 F900 X69.088 Y110.432 E7.95851
G1 X69.687 Y110.193 E7.97996
G1 X70.311 Y110.031 E8.0014
G1 X71.163 Y109.936 E8.02991
G1 X71.484 Y109.927 E8.04059
G1 X71.63 Y109.925 E8.04545
G1 X99.505 Y109.925 E8.97258
G1 X102.183 Y109.887 E9.06166
G1 X104.856 Y109.774 E9.15064
G1 X107.53 Y109.584 E9.2398
G1 X110.222 Y109.317 E9.32978
G1 X112.871 Y108.978 E9.4186
G1 X115.535 Y108.56 E9.50829
G1 X118.126 Y108.078 E9.59595
G1 X120.803 Y107.502 E9.68702
G1 X121.58 Y107.311 E9.71363
G1 X122.613 Y107.072 E9.7489
G1 X122.988 Y106.999 E9.76161
G1 X123.664 Y106.936 E9.78419
G1 X123.984 Y106.927 E9.79484
G1 X124.13 Y106.925 E9.79969
G1 X162.993 Y106.925 E11.09228
G1 X163.765 Y106.936 E11.11796
G1 X164.408 Y106.985 E11.13941
G1 X165.04 Y107.113 E11.16086
G1 X165.651 Y107.319 E11.1823
G1 X166.232 Y107.598 E11.20374
G1 X166.774 Y107.947 E11.22518
G1 X167.268 Y108.361 E11.24662
G1 X167.708 Y108.833 E11.26808
G1 X168.086 Y109.355 E11.28951
G1 X168.396 Y109.92 E11.31095
G1 X168.634 Y110.519 E11.33239
G1 X168.796 Y111.143 E11.35383
G1 X168.889 Y111.989 E11.38214
G1 X168.898 Y112.309 E11.39278
G1 X168.9 Y112.455 E11.39764
G1 X168.9 Y122.203 E11.72186
G1 X168.891 Y122.93 E11.74604
G1 X168.843 Y123.573 E11.76749
G1 X168.716 Y124.205 E11.78893
G1 X168.511 Y124.817 E11.8104
G1 X168.233 Y125.398 E11.83182
G1 X167.885 Y125.941 E11.85327
G1 X167.472 Y126.436 E11.87471
G1 X167.001 Y126.876 E11.89615
G1 X166.479 Y127.255 E11.9176
G1 X165.915 Y127.566 E11.93903
G1 X165.316 Y127.805 E11.96048
G1 X164.693 Y127.969 E11.9819
G1 X163.837 Y128.064 E12.01055
G1 X163.516 Y128.073 E12.02123
G1 X163.37 Y128.075 E12.02608
G1 X71.94 Y128.075 E15.06706
G1 X71.242 Y128.066 E15.09028
G1 X70.599 Y128.017 E15.11172
G1 X69.967 Y127.89 E15.13317
G1 X69.356 Y127.685 E15.1546
G1 X68.775 Y127.407 E15.17602
G1 X68.232 Y127.058 E15.19749
G1 X67.737 Y126.645 E15.21893
G1 X67.297 Y126.174 E15.24037
G1 X66.918 Y125.652 E15.26183
G1 X66.607 Y125.088 E15.28325
G1 X66.369 Y124.489 E15.30469
G1 X66.206 Y123.865 E15.32614
G1 X66.111 Y123.006 E15.35488
G1 X66.102 Y122.673 E15.36596
G1 X66.1 Y122.533 E15.37062
G1 X66.1 Y115.755 E15.59606
G1 X66.109 Y115.066 E15.61897
G1 X66.158 Y114.423 E15.64042
G1 X66.285 Y113.791 E15.66186
G1 X66.49 Y113.18 E15.6833
G1 X66.769 Y112.599 E15.70473
G1 X67.117 Y112.056 E15.72619
G1 X67.531 Y111.561 E15.74765
G1 X68.002 Y111.121 E15.76909
G1 X68.524 Y110.743 E15.79052
G1 F1500 E8.79052
G1 F300 Z0.55
;MESH:pcb-homing-block.stl
G0 F6000 X71.5 Y115.325 Z0.55
;TYPE:WALL-OUTER
G1 F300 Z0.2
G1 F1500 E15.79052
G1 F900 X124 Y115.325 E17.53668
G1 X124 Y112.325 E17.63646
G1 X163.5 Y112.325 E18.95023
G1 X163.5 Y122.675 E19.29448
G1 X71.5 Y122.675 E22.35441
G1 X71.5 Y115.325 E22.59887
G0 F6000 X71.9 Y115.325
G0 X71.94 Y115.765
G0 X71.9 Y115.725
;TYPE:WALL-INNER
G1 F900 X124.4 Y115.725 E24.34503
G1 X124.4 Y112.725 E24.44481
G1 X163.1 Y112.725 E25.73198
G1 X163.1 Y122.275 E26.04961
G1 X71.9 Y122.275 E29.08293
G1 X71.9 Y115.725 E29.30079
G0 F6000 X72.3 Y116.125
G1 F900 X124.8 Y116.125 E31.04695
G1 X124.8 Y113.125 E31.14673
G1 X162.7 Y113.125 E32.40729
G1 X162.7 Y121.875 E32.69831
G1 X72.3 Y121.875 E35.70503
G1 X72.3 Y116.125 E35.89627
G0 F6000 X72.69 Y116.515
;TYPE:SKIN
G1 F900 X125.19 Y116.515 E37.64243
G1 X125.19 Y113.515 E37.74221
G1 X162.31 Y113.515 E38.97683
G1 X162.31 Y121.485 E39.24191
G1 X72.69 Y121.485 E42.22268
G1 X72.69 Y116.515 E42.38799
G1 F1500 E35.38799
G1 F300 Z0.55
G0 F6000 X73.241 Y121.324 Z0.55
G1 F300 Z0.2
G1 F1500 E42.38799
G1 F900 X72.849 Y120.932 E42.40643
G0 F6000 X72.849 Y120.367
G1 F900 X73.807 Y121.324 E42.45146
G0 F6000 X74.372 Y121.324
G1 F900 X72.849 Y119.801 E42.5231
G0 F6000 X72.849 Y119.235
G1 F900 X74.938 Y121.324 E42.62136
G0 F6000 X75.504 Y121.324
G1 F900 X72.849 Y118.67 E42.74622
G0 F6000 X72.849 Y118.104
G1 F900 X76.069 Y121.324 E42.89768
G0 F6000 X76.635 Y121.324
G1 F900 X72.849 Y117.538 E43.07576
G0 F6000 X72.849 Y116.973
G1 F900 X77.201 Y121.324 E43.28044
G0 F6000 X77.766 Y121.324
G1 F900 X73.116 Y116.674 E43.49916
G0 F6000 X73.682 Y116.674
G1 F900 X78.332 Y121.324 E43.71789
G0 F6000 X78.898 Y121.324
G1 F900 X74.248 Y116.674 E43.93661
G0 F6000 X74.814 Y116.674
G1 F900 X79.463 Y121.324 E44.15531
G0 F6000 X80.029 Y121.324
G1 F900 X75.379 Y116.674 E44.37403
G0 F6000 X75.945 Y116.674
G1 F900 X80.595 Y121.324 E44.59275
G0 F6000 X81.161 Y121.324
G1 F900 X76.511 Y116.674 E44.81147
G0 F6000 X77.076 Y116.674
G1 F900 X81.726 Y121.324 E45.03019
G0 F6000 X82.292 Y121.324
G1 F900 X77.642 Y116.674 E45.24891
G0 F6000 X78.208 Y116.674
G1 F900 X82.858 Y121.324 E45.46764
G0 F6000 X83.423 Y121.324
G1 F900 X78.773 Y116.674 E45.68636
G0 F6000 X79.339 Y116.674
G1 F900 X83.989 Y121.324 E45.90508
G0 F6000 X84.555 Y121.324
G1 F900 X79.905 Y116.674 E46.1238
G0 F6000 X80.47 Y116.674
G1 F900 X85.12 Y121.324 E46.34252
G0 F6000 X85.686 Y121.324
G1 F900 X81.036 Y116.674 E46.56124
G0 F6000 X81.602 Y116.674
G1 F900 X86.252 Y121.324 E46.77997
G0 F6000 X86.817 Y121.324
G1 F900 X82.167 Y116.674 E46.99869
G0 F6000 X82.733 Y116.674
G1 F900 X87.383 Y121.324 E47.21741
G0 F6000 X87.949 Y121.324
G1 F900 X83.299 Y116.674 E47.43613
G0 F6000 X83.864 Y116.674
G1 F900 X88.514 Y121.324 E47.65485
G0 F6000 X89.08 Y121.324
G1 F900 X84.43 Y116.674 E47.87357
G0 F6000 X84.996 Y116.674
G1 F900 X89.646 Y121.324 E48.0923
G0 F6000 X90.211 Y121.324
G1 F900 X85.562 Y116.674 E48.31099
G0 F6000 X86.127 Y116.674
G1 F900 X90.777 Y121.324 E48.52972
G0 F6000 X91.343 Y121.324
G1 F900 X86.693 Y116.674 E48.74844
G0 F6000 X87.259 Y116.674
G1 F900 X91.909 Y121.324 E48.96716
G0 F6000 X92.474 Y121.324
G1 F900 X87.824 Y116.674 E49.18588
G0 F6000 X88.39 Y116.674
G1 F900 X93.04 Y121.324 E49.4046
G0 F6000 X93.606 Y121.324
G1 F900 X88.956 Y116.674 E49.62333
G0 F6000 X89.521 Y116.674
G1 F900 X94.171 Y121.324 E49.84205
G0 F6000 X94.737 Y121.324
G1 F900 X90.087 Y116.674 E50.06077
G0 F6000 X90.653 Y116.674
G1 F900 X95.303 Y121.324 E50.27949
G0 F6000 X95.868 Y121.324
G1 F900 X91.218 Y116.674 E50.49821
G0 F6000 X91.784 Y116.674
G1 F900 X96.434 Y121.324 E50.71693
G0 F6000 X97 Y121.324
G1 F900 X92.35 Y116.674 E50.93566
G0 F6000 X92.915 Y116.674
G1 F900 X97.565 Y121.324 E51.15438
G0 F6000 X98.131 Y121.324
G1 F900 X93.481 Y116.674 E51.3731
G0 F6000 X94.047 Y116.674
G1 F900 X98.697 Y121.324 E51.59182
G0 F6000 X99.262 Y121.324
G1 F900 X94.613 Y116.674 E51.81052
G0 F6000 X95.178 Y116.674
G1 F900 X99.828 Y121.324 E52.02924
G0 F6000 X100.394 Y121.324
G1 F900 X95.744 Y116.674 E52.24796
G0 F6000 X96.31 Y116.674
G1 F900 X100.959 Y121.324 E52.46666
G0 F6000 X101.525 Y121.324
G1 F900 X96.875 Y116.674 E52.68538
G0 F6000 X97.441 Y116.674
G1 F900 X102.091 Y121.324 E52.9041
G0 F6000 X102.657 Y121.324
G1 F900 X98.007 Y116.674 E53.12283
G0 F6000 X98.572 Y116.674
G1 F900 X103.222 Y121.324 E53.34155
G0 F6000 X103.788 Y121.324
G1 F900 X99.138 Y116.674 E53.56027
G0 F6000 X99.704 Y116.674
G1 F900 X104.354 Y121.324 E53.77899
G0 F6000 X104.919 Y121.324
G1 F900 X100.269 Y116.674 E53.99771
G0 F6000 X100.835 Y116.674
G1 F900 X105.485 Y121.324 E54.21643
G0 F6000 X106.051 Y121.324
G1 F900 X101.401 Y116.674 E54.43516
G0 F6000 X101.966 Y116.674
G1 F900 X106.616 Y121.324 E54.65388
G0 F6000 X107.182 Y121.324
G1 F900 X102.532 Y116.674 E54.8726
G0 F6000 X103.098 Y116.674
G1 F900 X107.748 Y121.324 E55.09132
G0 F6000 X108.313 Y121.324
G1 F900 X103.663 Y116.674 E55.31004
G0 F6000 X104.229 Y116.674
G1 F900 X108.879 Y121.324 E55.52877
G0 F6000 X109.445 Y121.324
G1 F900 X104.795 Y116.674 E55.74749
G0 F6000 X105.361 Y116.674
G1 F900 X110.01 Y121.324 E55.96619
G0 F6000 X110.576 Y121.324
G1 F900 X105.926 Y116.674 E56.18491
G0 F6000 X106.492 Y116.674
G1 F900 X111.142 Y121.324 E56.40363
G0 F6000 X111.708 Y121.324
G1 F900 X107.058 Y116.674 E56.62235
G0 F6000 X107.623 Y116.674
G1 F900 X112.273 Y121.324 E56.84107
G0 F6000 X112.839 Y121.324
G1 F900 X108.189 Y116.674 E57.05979
G0 F6000 X108.755 Y116.674
G1 F900 X113.405 Y121.324 E57.27852
G0 F6000 X113.97 Y121.324
G1 F900 X109.32 Y116.674 E57.49724
G0 F6000 X109.886 Y116.674
G1 F900 X114.536 Y121.324 E57.71596
G0 F6000 X115.102 Y121.324
G1 F900 X110.452 Y116.674 E57.93468
G0 F6000 X111.017 Y116.674
G1 F900 X115.667 Y121.324 E58.1534
G0 F6000 X116.233 Y121.324
G1 F900 X111.583 Y116.674 E58.37212
G0 F6000 X112.149 Y116.674
G1 F900 X116.799 Y121.324 E58.59085
G0 F6000 X117.364 Y121.324
G1 F900 X112.714 Y116.674 E58.80957
G0 F6000 X113.28 Y116.674
G1 F900 X117.93 Y121.324 E59.02829
G0 F6000 X118.496 Y121.324
G1 F900 X113.846 Y116.674 E59.24701
G0 F6000 X114.411 Y116.674
G1 F900 X119.061 Y121.324 E59.46573
G0 F6000 X119.627 Y121.324
G1 F900 X114.977 Y116.674 E59.68446
G0 F6000 X115.543 Y116.674
G1 F900 X120.193 Y121.324 E59.90318
G0 F6000 X120.758 Y121.324
G1 F900 X116.109 Y116.674 E60.12188
G0 F6000 X116.674 Y116.674
G1 F900 X121.324 Y121.324 E60.3406
G0 F6000 X121.89 Y121.324
G1 F900 X117.24 Y116.674 E60.55932
G0 F6000 X117.806 Y116.674
G1 F900 X122.456 Y121.324 E60.77804
G0 F6000 X123.021 Y121.324
G1 F900 X118.371 Y116.674 E60.99676
G0 F6000 X118.937 Y116.674
G1 F900 X123.587 Y121.324 E61.21548
G0 F6000 X124.153 Y121.324
G1 F900 X119.503 Y116.674 E61.43421
G0 F6000 X120.068 Y116.674
G1 F900 X124.718 Y121.324 E61.65293
G0 F6000 X125.284 Y121.324
G1 F900 X120.634 Y116.674 E61.87165
G0 F6000 X121.2 Y116.674
G1 F900 X125.85 Y121.324 E62.09037
G0 F6000 X126.415 Y121.324
G1 F900 X121.765 Y116.674 E62.30909
G0 F6000 X122.331 Y116.674
G1 F900 X126.981 Y121.324 E62.52781
G0 F6000 X127.547 Y121.324
G1 F900 X122.897 Y116.674 E62.74654
G0 F6000 X123.462 Y116.674
G1 F900 X128.112 Y121.324 E62.96526
G0 F6000 X128.678 Y121.324
G1 F900 X124.028 Y116.674 E63.18398
G0 F6000 X124.594 Y116.674
G1 F900 X129.244 Y121.324 E63.4027
G0 F6000 X129.809 Y121.324
G1 F900 X125.16 Y116.674 E63.6214
G0 F6000 X125.349 Y116.298
G1 F900 X130.375 Y121.324 E63.85781
G0 F6000 X130.941 Y121.324
G1 F900 X125.349 Y115.732 E64.12084
G0 F6000 X125.349 Y115.167
G1 F900 X131.507 Y121.324 E64.41047
G0 F6000 X132.072 Y121.324
G1 F900 X125.349 Y114.601 E64.7267
G0 F6000 X125.349 Y114.035
G1 F900 X132.638 Y121.324 E65.06955
G0 F6000 X133.204 Y121.324
G1 F900 X125.554 Y113.675 E65.42936
G0 F6000 X126.12 Y113.675
G1 F900 X133.769 Y121.324 E65.78914
G0 F6000 X134.335 Y121.324
G1 F900 X126.685 Y113.675 E66.14895
G0 F6000 X127.251 Y113.675
G1 F900 X134.901 Y121.324 E66.50876
G0 F6000 X135.466 Y121.324
G1 F900 X127.817 Y113.675 E66.86855
G0 F6000 X128.383 Y113.675
G1 F900 X136.032 Y121.324 E67.22833
G0 F6000 X136.598 Y121.324
G1 F900 X128.948 Y113.675 E67.58814
G0 F6000 X129.514 Y113.675
G1 F900 X137.163 Y121.324 E67.94793
G0 F6000 X137.729 Y121.324
G1 F900 X130.08 Y113.675 E68.30771
G0 F6000 X130.645 Y113.675
G1 F900 X138.295 Y121.324 E68.66752
G0 F6000 X138.86 Y121.324
G1 F900 X131.211 Y113.675 E69.02731
G0 F6000 X131.777 Y113.675
G1 F900 X139.426 Y121.324 E69.38709
G0 F6000 X139.992 Y121.324
G1 F900 X132.342 Y113.675 E69.7469
G0 F6000 X132.908 Y113.675
G1 F900 X140.557 Y121.324 E70.10669
G0 F6000 X141.123 Y121.324
G1 F900 X133.474 Y113.675 E70.46647
G0 F6000 X134.039 Y113.675
G1 F900 X141.689 Y121.324 E70.82628
G0 F6000 X142.255 Y121.324
G1 F900 X134.605 Y113.675 E71.18609
G0 F6000 X135.171 Y113.675
G1 F900 X142.82 Y121.324 E71.54588
G0 F6000 X143.386 Y121.324
G1 F900 X135.736 Y113.675 E71.90569
G0 F6000 X136.302 Y113.675
G1 F900 X143.952 Y121.324 E72.26549
G0 F6000 X144.517 Y121.324
G1 F900 X136.868 Y113.675 E72.62528
G0 F6000 X137.433 Y113.675
G1 F900 X145.083 Y121.324 E72.98509
G0 F6000 X145.649 Y121.324
G1 F900 X137.999 Y113.675 E73.3449
G0 F6000 X138.565 Y113.675
G1 F900 X146.214 Y121.324 E73.70468
G0 F6000 X146.78 Y121.324
G1 F900 X139.131 Y113.675 E74.06447
G0 F6000 X139.696 Y113.675
G1 F900 X147.346 Y121.324 E74.42428
G0 F6000 X147.911 Y121.324
G1 F900 X140.262 Y113.675 E74.78406
G0 F6000 X140.828 Y113.675
G1 F900 X148.477 Y121.324 E75.14385
G0 F6000 X149.043 Y121.324
G1 F900 X141.393 Y113.675 E75.50366
G0 F6000 X141.959 Y113.675
G1 F900 X149.608 Y121.324 E75.86344
G0 F6000 X150.174 Y121.324
