;FLAVOR:Marlin
;TIME:9011
;Filament used: 7.73247m
;Layer height: 0.2
;MINX:58.45
;MINY:93.687
;MINZ:0.3
;MAXX:176.55
;MAXY:141.294
;MAXZ:10.25
;Generated with Cura_SteamEngine 4.7.0
M140 S60
M105
M190 S60
M104 S205
M105
M109 S205
M82 ;absolute extrusion mode
M201 X500.00 Y500.00 Z100.00 E5000.00 ;Setup machine max acceleration
M203 X500.00 Y500.00 Z10.00 E75.00 ;Setup machine max feedrate
M204 P500.00 R1000.00 T500.00 ;Setup Print/Retract/Travel acceleration
M205 X8.00 Y8.00 Z0.40 E5.00 ;Setup Jerk
M220 S100 ;Reset Feedrate
M221 S100 ;Reset Flowrate

G21 ; (metric values)
G90 ; (absolute positioning)
M82 ; (set extruder to absolute mode)
G28 ; (home all axis)
G29 ; (Auto Level)

G92 E0 ;Reset Extruder
G1 Z2.0 F3000 ;Move Z Axis up
G1 X1.1 Y50 Z0.28 F5000.0 ;Move to start position
G1 X1.1 Y200.0 Z0.28 F1500.0 E15 ;Draw the first line
G1 X1.4 Y200.0 Z0.28 F5000.0 ;Move to side a little
G1 X1.4 Y100 Z0.28 F1500.0 E30 ;Draw the second line
G92 E0 ;Reset Extruder
G1 Z2.0 F3000 ;Move Z Axis up
G92 E0
G92 E0
G1 F1500 E-7
;LAYER_COUNT:49
;LAYER:0
M107
G1 F300 Z0.65
G0 F6000 X60.883 Y94.499 Z0.65
;TYPE:SKIRT
G1 F300 Z0.3
G1 F1500 E0
G1 F900 X61.449 Y94.19 E0.03217
G1 X62.048 Y93.952 E0.06433
G1 X62.672 Y93.791 E0.09648
G1 X63.514 Y93.698 E0.13874
G1 X63.834 Y93.689 E0.15471
G1 X63.98 Y93.687 E0.162
G1 X170.643 Y93.687 E5.48344
G1 X171.415 Y93.698 E5.52196
G1 X172.058 Y93.747 E5.55413
G1 X172.69 Y93.875 E5.5863
G1 X173.301 Y94.081 E5.61847
G1 X173.882 Y94.36 E5.65062
G1 X174.424 Y94.709 E5.68278
G1 X174.918 Y95.123 E5.71494
G1 X175.358 Y95.595 E5.74713
G1 X175.736 Y96.117 E5.77929
G1 X176.046 Y96.682 E5.81144
G1 X176.284 Y97.281 E5.8436
G1 X176.446 Y97.905 E5.87576
G1 X176.539 Y98.751 E5.91822
G1 X176.548 Y99.071 E5.93419
G1 X176.55 Y99.217 E5.94148
G1 X176.55 Y135.439 E7.7486
G1 X176.541 Y136.159 E7.78452
G1 X176.493 Y136.802 E7.81669
G1 X176.365 Y137.434 E7.84886
G1 X176.161 Y138.045 E7.881
G1 X175.883 Y138.627 E7.91318
G1 X175.534 Y139.169 E7.94534
G1 X175.121 Y139.664 E7.9775
G1 X174.651 Y140.105 E8.00966
G1 X174.129 Y140.483 E8.04181
G1 X173.564 Y140.795 E8.07401
G1 X172.966 Y141.034 E8.10614
G1 X172.342 Y141.197 E8.13832
G1 X171.703 Y141.281 E8.17047
G1 X171.323 Y141.294 E8.18944
G1 X170.343 Y141.29 E8.23833
G1 X65.017 Y139.12 E13.49418
G1 X64.147 Y139.101 E13.5376
G1 X63.507 Y139.079 E13.56955
G1 X62.866 Y139.017 E13.60168
G1 X62.237 Y138.876 E13.63384
G1 X61.63 Y138.658 E13.66601
G1 X61.055 Y138.367 E13.69816
G1 X60.52 Y138.007 E13.73034
G1 X60.034 Y137.584 E13.76248
G1 X59.604 Y137.103 E13.79467
G1 X59.237 Y136.573 E13.82683
G1 X58.938 Y136.002 E13.85899
G1 X58.712 Y135.398 E13.89116
G1 X58.576 Y134.844 E13.91962
G1 X58.544 Y134.674 E13.92825
G1 X58.454 Y133.762 E13.97397
G1 X58.45 Y133.342 E13.99493
G1 X58.451 Y99.483 E15.68416
G1 X58.461 Y98.818 E15.71734
G1 X58.51 Y98.175 E15.74951
G1 X58.639 Y97.543 E15.78169
G1 X58.845 Y96.932 E15.81386
G1 X59.125 Y96.352 E15.84599
G1 X59.475 Y95.81 E15.87818
G1 X59.889 Y95.316 E15.91034
G1 X60.361 Y94.877 E15.9425
G1 X60.452 Y94.811 E15.94811
G0 F810 X60.883 Y94.499
G1 F1500 E8.94811
G1 F300 Z0.65
;MESH:verbindung.stl
G0 F6000 X66.765 Y106.878 Z0.65
;TYPE:WALL-INNER
G1 F300 Z0.3
G1 F1500 E15.94811
G1 F900 X66.484 Y107.287 E15.97286
G1 X66.268 Y107.743 E15.99804
G1 X66.14 Y108.234 E16.02335
G1 X66.093 Y108.737 E16.04855
G1 X66.14 Y109.241 E16.07381
G1 X66.269 Y109.73 E16.09904
G1 X66.485 Y110.19 E16.12439
G1 X66.776 Y110.608 E16.1498
G1 X67.146 Y110.972 E16.1757
G1 X67.548 Y111.251 E16.20011
G1 X68.004 Y111.467 E16.22528
G1 X68.495 Y111.598 E16.25064
G1 X69 Y111.644 E16.27594
G1 X69.505 Y111.598 E16.30123
G1 X69.996 Y111.467 E16.32659
G1 X70.455 Y111.251 E16.3519
G1 X70.867 Y110.963 E16.37697
G1 X71.235 Y110.597 E16.40287
G1 X71.516 Y110.187 E16.42767
G1 X71.731 Y109.731 E16.45282
G1 X71.86 Y109.241 E16.4781
G1 X71.907 Y108.737 E16.50335
G1 X71.86 Y108.235 E16.52851
G1 X71.733 Y107.744 E16.55381
G1 X71.514 Y107.281 E16.57936
G1 X71.226 Y106.87 E16.6044
G1 X70.861 Y106.504 E16.63019
G1 X70.45 Y106.219 E16.65514
G1 X69.991 Y106.005 E16.68041
G1 X69.505 Y105.877 E16.70548
G1 X69 Y105.83 E16.73078
G1 X68.495 Y105.877 E16.75609
G1 X68.006 Y106.007 E16.78133
G1 X67.547 Y106.222 E16.80662
G1 X67.143 Y106.504 E16.8312
G0 F810 X67.133 Y106.511
G0 X66.765 Y106.878
G0 F6000 X67.074 Y107.135
G1 F900 X66.832 Y107.487 E16.85251
G1 X66.646 Y107.88 E16.8742
G1 X66.535 Y108.304 E16.89607
G1 X66.495 Y108.737 E16.91776
G1 X66.535 Y109.171 E16.9395
G1 X66.646 Y109.593 E16.96127
G1 X66.833 Y109.989 E16.98312
G1 X67.083 Y110.349 E17.00499
G1 X67.402 Y110.663 E17.02732
G1 X67.749 Y110.904 E17.0484
G1 X68.142 Y111.09 E17.07009
G1 X68.565 Y111.203 E17.09193
G1 X69 Y111.242 E17.11372
G1 X69.435 Y111.203 E17.13551
G1 X69.858 Y111.09 E17.15736
G1 X70.254 Y110.904 E17.17918
G1 X70.609 Y110.655 E17.20082
G1 X70.926 Y110.34 E17.22311
G1 X71.168 Y109.987 E17.24447
G1 X71.354 Y109.594 E17.26616
G1 X71.465 Y109.171 E17.28798
G1 X71.505 Y108.737 E17.30972
G1 X71.465 Y108.304 E17.33141
G1 X71.355 Y107.881 E17.35322
G1 X71.167 Y107.483 E17.37518
G1 X70.918 Y107.128 E17.39681
G1 X70.603 Y106.812 E17.41907
G1 X70.25 Y106.567 E17.44051
G1 X69.854 Y106.383 E17.4623
G1 X69.435 Y106.272 E17.48392
G1 X69 Y106.232 E17.50571
G1 X68.565 Y106.272 E17.52751
G1 X68.144 Y106.384 E17.54924
G1 X67.748 Y106.57 E17.57107
G1 X67.46 Y106.771 E17.58859
G0 F810 X67.391 Y106.819
G0 X67.074 Y107.135
G0 F6000 X67.383 Y107.392
;TYPE:WALL-OUTER
G1 F900 X67.18 Y107.687 E17.60646
G1 X67.023 Y108.018 E17.62473
G1 X66.93 Y108.373 E17.64304
G1 X66.897 Y108.737 E17.66128
G1 X66.93 Y109.102 E17.67956
G1 X67.023 Y109.456 E17.69782
G1 X67.18 Y109.788 E17.71614
G1 X67.39 Y110.09 E17.7345
G1 X67.658 Y110.354 E17.75326
G1 X67.95 Y110.557 E17.77101
G1 X68.28 Y110.713 E17.78922
G1 X68.635 Y110.808 E17.80755
G1 X69 Y110.84 E17.82583
G1 X69.365 Y110.808 E17.84411
G1 X69.72 Y110.713 E17.86244
G1 X70.052 Y110.557 E17.88075
G1 X70.351 Y110.347 E17.89897
G1 X70.617 Y110.083 E17.91767
G1 X70.82 Y109.787 E17.93558
G1 X70.977 Y109.456 E17.95386
G1 X71.07 Y109.102 E17.97212
G1 X71.103 Y108.737 E17.9904
G1 X71.07 Y108.373 E18.00863
G1 X70.977 Y108.018 E18.02694
G1 X70.82 Y107.685 E18.04531
G1 X70.61 Y107.386 E18.06354
G1 X70.345 Y107.12 E18.08227
G1 X70.05 Y106.915 E18.10019
G1 X69.717 Y106.761 E18.1185
G1 X69.365 Y106.667 E18.13668
G1 X69 Y106.634 E18.15496
G1 X68.635 Y106.667 E18.17324
G1 X68.281 Y106.761 E18.19152
G1 X67.949 Y106.917 E18.20982
G1 X67.777 Y107.037 E18.22028
G0 F810 X67.649 Y107.127
G0 X67.383 Y107.392
G0 F6000 X67.18 Y107.687
G0 X67.162 Y107.724
G0 X66.766 Y107.536
G1 F1500 E11.22028
G1 F300 Z0.65
G0 F6000 X69.505 Y126.877 Z0.65
;TYPE:WALL-INNER
G1 F300 Z0.3
G1 F1500 E18.22028
G1 F900 X69 Y126.83 E18.24558
G1 X68.495 Y126.877 E18.27089
G1 X68.006 Y127.007 E18.29613
G1 X67.547 Y127.222 E18.32142
G1 X67.133 Y127.511 E18.34661
G1 X66.765 Y127.878 E18.37254
G1 X66.484 Y128.287 E18.39729
G1 X66.268 Y128.743 E18.42247
G1 X66.14 Y129.234 E18.44778
G1 X66.093 Y129.737 E18.47299
G1 X66.14 Y130.241 E18.49824
G1 X66.269 Y130.73 E18.52347
G1 X66.485 Y131.19 E18.54882
G1 X66.776 Y131.608 E18.57423
G1 X67.146 Y131.972 E18.60013
G1 X67.548 Y132.251 E18.62454
G1 X68.004 Y132.467 E18.64971
G1 X68.495 Y132.598 E18.67507
G1 X69 Y132.644 E18.70037
G1 X69.505 Y132.598 E18.72567
G1 X69.996 Y132.467 E18.75102
G1 X70.455 Y132.251 E18.77633
G1 X70.867 Y131.963 E18.80141
G1 X71.235 Y131.597 E18.8273
G1 X71.516 Y131.187 E18.8521
G1 X71.731 Y130.731 E18.87725
G1 X71.86 Y130.241 E18.90253
G1 X71.907 Y129.737 E18.92778
G1 X71.86 Y129.235 E18.95294
G1 X71.733 Y128.744 E18.97824
G1 X71.514 Y128.281 E19.00379
G1 X71.226 Y127.87 E19.02883
G1 X70.861 Y127.504 E19.05462
G1 X70.45 Y127.219 E19.07957
G1 X70.018 Y127.017 E19.10336
G0 F810 X69.991 Y127.005
G0 X69.505 Y126.877
G0 F6000 X69.435 Y127.272
G1 F900 X69 Y127.232 E19.12516
G1 X68.565 Y127.272 E19.14695
G1 X68.144 Y127.384 E19.16868
G1 X67.748 Y127.57 E19.19051
G1 X67.391 Y127.819 E19.21223
G1 X67.074 Y128.135 E19.23456
G1 X66.832 Y128.487 E19.25587
G1 X66.646 Y128.88 E19.27756
G1 X66.535 Y129.304 E19.29943
G1 X66.495 Y129.737 E19.32112
G1 X66.535 Y130.171 E19.34287
G1 X66.646 Y130.593 E19.36464
G1 X66.833 Y130.989 E19.38648
G1 X67.083 Y131.349 E19.40835
G1 X67.402 Y131.663 E19.43068
G1 X67.749 Y131.904 E19.45176
G1 X68.142 Y132.09 E19.47345
G1 X68.565 Y132.203 E19.4953
G1 X69 Y132.242 E19.51708
G1 X69.435 Y132.203 E19.53887
G1 X69.858 Y132.09 E19.56072
G1 X70.254 Y131.904 E19.58254
G1 X70.609 Y131.655 E19.60418
G1 X70.926 Y131.34 E19.62647
G1 X71.168 Y130.987 E19.64783
G1 X71.354 Y130.594 E19.66952
G1 X71.465 Y130.171 E19.69134
G1 X71.505 Y129.737 E19.71308
G1 X71.465 Y129.304 E19.73477
G1 X71.355 Y128.881 E19.75658
G1 X71.167 Y128.483 E19.77854
G1 X70.918 Y128.128 E19.80017
G1 X70.603 Y127.812 E19.82243
G1 X70.25 Y127.567 E19.84387
G1 X69.943 Y127.424 E19.86077
G0 F810 X69.854 Y127.383
G0 X69.435 Y127.272
G0 F6000 X69.365 Y127.667
;TYPE:WALL-OUTER
G1 F900 X69 Y127.634 E19.87905
G1 X68.635 Y127.667 E19.89734
G1 X68.281 Y127.761 E19.91561
G1 X67.949 Y127.917 E19.93391
G1 X67.649 Y128.127 E19.95218
G1 X67.383 Y128.392 E19.97091
G1 X67.18 Y128.687 E19.98878
G1 X67.023 Y129.018 E20.00705
G1 X66.93 Y129.373 E20.02536
G1 X66.897 Y129.737 E20.0436
G1 X66.93 Y130.102 E20.06188
G1 X67.023 Y130.456 E20.08014
G1 X67.18 Y130.788 E20.09846
G1 X67.39 Y131.09 E20.11682
G1 X67.658 Y131.354 E20.13558
G1 X67.95 Y131.557 E20.15333
G1 X68.28 Y131.713 E20.17154
G1 X68.635 Y131.808 E20.18987
G1 X69 Y131.84 E20.20815
G1 X69.365 Y131.808 E20.22643
G1 X69.72 Y131.713 E20.24477
G1 X70.052 Y131.557 E20.26307
G1 X70.351 Y131.347 E20.2813
G1 X70.617 Y131.083 E20.29999
G1 X70.82 Y130.787 E20.3179
G1 X70.977 Y130.456 E20.33618
G1 X71.07 Y130.102 E20.35444
G1 X71.103 Y129.737 E20.37272
G1 X71.07 Y129.373 E20.39096
G1 X70.977 Y129.018 E20.40926
G1 X70.82 Y128.685 E20.42763
G1 X70.61 Y128.386 E20.44586
G1 X70.345 Y128.12 E20.46459
G1 X70.05 Y127.915 E20.48252
G1 X69.869 Y127.831 E20.49247
G0 F810 X69.717 Y127.761
G0 X69.365 Y127.667
G0 F6000 X69 Y127.634
G0 X68.967 Y127.637
G0 X68.928 Y127.198
G1 F1500 E13.49247
G1 F300 Z0.65
G0 F6000 X166 Y128.83 Z0.65
;TYPE:WALL-INNER
G1 F300 Z0.3
G1 F1500 E20.49247
G1 F900 X165.498 Y128.877 E20.51763
G1 X165.007 Y129.004 E20.54293
G1 X164.544 Y129.223 E20.56848
G1 X164.133 Y129.511 E20.59352
G1 X163.767 Y129.876 E20.61931
G1 X163.48 Y130.289 E20.6444
G1 X163.271 Y130.746 E20.66947
G1 X163.14 Y131.229 E20.69444
G1 X163.093 Y131.737 E20.71989
G1 X163.14 Y132.242 E20.74519
G1 X163.27 Y132.731 E20.77044
G1 X163.485 Y133.19 E20.79572
G1 X163.774 Y133.604 E20.82091
G1 X164.139 Y133.97 E20.8467
G1 X164.55 Y134.255 E20.87165
G1 X165.009 Y134.469 E20.89692
G1 X165.495 Y134.597 E20.92199
G1 X166 Y134.644 E20.9473
G1 X166.507 Y134.597 E20.9727
G1 X166.993 Y134.466 E20.99781
G1 X167.451 Y134.254 E21.02299
G1 X167.867 Y133.963 E21.04832
G1 X168.235 Y133.596 E21.07425
G1 X168.516 Y133.187 E21.099
G1 X168.732 Y132.731 E21.12418
G1 X168.86 Y132.24 E21.14949
G1 X168.907 Y131.737 E21.1747
G1 X168.86 Y131.234 E21.1999
G1 X168.733 Y130.744 E21.22515
G1 X168.514 Y130.281 E21.25071
G1 X168.226 Y129.87 E21.27574
G1 X167.859 Y129.502 E21.30167
G1 X167.45 Y129.221 E21.32643
G1 X166.994 Y129.006 E21.35158
G1 X166.529 Y128.883 E21.37558
G0 F810 X166.504 Y128.877
G0 X166 Y128.83
G0 F6000 X166 Y129.232
G1 F900 X165.567 Y129.272 E21.39727
G1 X165.144 Y129.382 E21.41908
G1 X164.746 Y129.57 E21.44104
G1 X164.391 Y129.819 E21.46267
G1 X164.075 Y130.134 E21.48493
G1 X163.829 Y130.488 E21.50644
G1 X163.648 Y130.883 E21.52812
G1 X163.535 Y131.3 E21.54967
G1 X163.495 Y131.737 E21.57156
G1 X163.535 Y132.172 E21.59336
G1 X163.647 Y132.593 E21.61509
G1 X163.833 Y132.989 E21.63692
G1 X164.082 Y133.346 E21.65863
G1 X164.397 Y133.662 E21.68089
G1 X164.75 Y133.907 E21.70233
G1 X165.146 Y134.091 E21.72412
G1 X165.565 Y134.202 E21.74574
G1 X166 Y134.242 E21.76754
G1 X166.436 Y134.202 E21.78938
G1 X166.856 Y134.089 E21.81108
G1 X167.251 Y133.906 E21.8328
G1 X167.609 Y133.655 E21.85461
G1 X167.926 Y133.339 E21.87694
G1 X168.168 Y132.987 E21.89825
G1 X168.354 Y132.594 E21.91994
G1 X168.465 Y132.17 E21.94181
G1 X168.505 Y131.737 E21.96351
G1 X168.465 Y131.303 E21.98525
G1 X168.355 Y130.881 E22.00701
G1 X168.167 Y130.483 E22.02897
G1 X167.918 Y130.128 E22.0506
G1 X167.602 Y129.811 E22.07293
G1 X167.25 Y129.569 E22.09424
G1 X166.857 Y129.383 E22.11593
G1 X166.527 Y129.296 E22.13296
G0 F810 X166.434 Y129.272
G0 X166 Y129.232
G0 F6000 X166 Y129.634
;TYPE:WALL-OUTER
G1 F900 X165.636 Y129.667 E22.15119
G1 X165.281 Y129.76 E22.1695
G1 X164.948 Y129.917 E22.18787
G1 X164.649 Y130.127 E22.2061
G1 X164.383 Y130.392 E22.22483
G1 X164.178 Y130.687 E22.24275
G1 X164.025 Y131.02 E22.26104
G1 X163.93 Y131.371 E22.27918
G1 X163.897 Y131.737 E22.29751
G1 X163.93 Y132.102 E22.3158
G1 X164.024 Y132.456 E22.33407
G1 X164.18 Y132.788 E22.35237
G1 X164.39 Y133.088 E22.37064
G1 X164.655 Y133.354 E22.38937
G1 X164.95 Y133.559 E22.4073
G1 X165.283 Y133.713 E22.4256
G1 X165.635 Y133.807 E22.44378
G1 X166 Y133.84 E22.46206
G1 X166.366 Y133.807 E22.48039
G1 X166.719 Y133.712 E22.49863
G1 X167.05 Y133.558 E22.51685
G1 X167.351 Y133.347 E22.53519
G1 X167.617 Y133.082 E22.55392
G1 X167.82 Y132.787 E22.57178
G1 X167.977 Y132.456 E22.59006
G1 X168.07 Y132.101 E22.60837
G1 X168.103 Y131.737 E22.6266
G1 X168.07 Y131.372 E22.64489
G1 X167.977 Y131.018 E22.66315
G1 X167.82 Y130.685 E22.68152
G1 X167.61 Y130.386 E22.69974
G1 X167.345 Y130.12 E22.71848
G1 X167.05 Y129.917 E22.73634
G1 X166.719 Y129.76 E22.75462
G1 X166.525 Y129.709 E22.76463
G0 F810 X166.365 Y129.667
G0 X166 Y129.634
G0 F6000 X165.636 Y129.667
G0 X165.603 Y129.675
G0 X165.493 Y129.249
G1 F1500 E15.76463
G1 F300 Z0.65
G0 F6000 X166 Y111.644 Z0.65
;TYPE:WALL-INNER
G1 F300 Z0.3
G1 F1500 E22.76463
G1 F900 X166.507 Y111.597 E22.79003
G1 X166.993 Y111.466 E22.81514
G1 X167.451 Y111.254 E22.84032
G1 X167.867 Y110.963 E22.86565
G1 X168.235 Y110.596 E22.89158
G1 X168.516 Y110.187 E22.91633
G1 X168.732 Y109.731 E22.94151
G1 X168.86 Y109.24 E22.96682
G1 X168.907 Y108.737 E22.99203
G1 X168.86 Y108.234 E23.01723
G1 X168.733 Y107.744 E23.04248
G1 X168.514 Y107.281 E23.06804
G1 X168.226 Y106.87 E23.09308
G1 X167.859 Y106.502 E23.119
G1 X167.45 Y106.221 E23.14376
G1 X166.994 Y106.006 E23.16891
G1 X166.504 Y105.877 E23.19419
G1 X166 Y105.83 E23.21945
G1 X165.498 Y105.877 E23.2446
G1 X165.007 Y106.004 E23.2699
G1 X164.544 Y106.223 E23.29546
G1 X164.133 Y106.511 E23.32049
G1 X163.767 Y106.876 E23.34628
G1 X163.48 Y107.289 E23.37137
G1 X163.271 Y107.746 E23.39644
G1 X163.14 Y108.229 E23.42141
G1 X163.093 Y108.737 E23.44686
G1 X163.14 Y109.242 E23.47217
G1 X163.27 Y109.731 E23.49741
G1 X163.485 Y110.19 E23.5227
G1 X163.774 Y110.604 E23.54789
G1 X164.139 Y110.97 E23.57368
G1 X164.55 Y111.255 E23.59863
G1 X165.009 Y111.469 E23.62389
G1 X165.471 Y111.591 E23.64773
G0 F810 X165.495 Y111.597
G0 X166 Y111.644
G0 F6000 X166 Y111.242
G1 F900 X166.436 Y111.202 E23.66958
G1 X166.856 Y111.089 E23.69128
G1 X167.251 Y110.906 E23.713
G1 X167.609 Y110.655 E23.73481
G1 X167.926 Y110.339 E23.75714
G1 X168.168 Y109.987 E23.77845
G1 X168.354 Y109.594 E23.80014
G1 X168.465 Y109.17 E23.82201
G1 X168.505 Y108.737 E23.8437
G1 X168.465 Y108.303 E23.86545
G1 X168.355 Y107.881 E23.8872
G1 X168.167 Y107.483 E23.90916
G1 X167.918 Y107.128 E23.9308
G1 X167.602 Y106.811 E23.95313
G1 X167.25 Y106.569 E23.97444
G1 X166.857 Y106.383 E23.99613
G1 X166.434 Y106.272 E24.01795
G1 X166 Y106.232 E24.03969
G1 X165.567 Y106.272 E24.06139
