;FLAVOR:Marlin
;TIME:13184
;Filament used: 8.25585m
;Layer height: 0.2
;MINX:78.55
;MINY:63.215
;MINZ:0.2
;MAXX:156.45
;MAXY:171.785
;MAXZ:40
;Generated with Cura_SteamEngine 4.7.0
M140 S60
M105
M190 S60
M104 S205
M105
M109 S205
M82 ;absolute extrusion mode
M201 X500.00 Y500.00 Z100.00 E5000.00 ;Setup machine max acceleration
M203 X500.00 Y500.00 Z10.00 E75.00 ;Setup machine max feedrate
M204 P500.00 R1000.00 T500.00 ;Setup Print/Retract/Travel acceleration
M205 X8.00 Y8.00 Z0.40 E5.00 ;Setup Jerk
M220 S100 ;Reset Feedrate
M221 S100 ;Reset Flowrate

G21 ; (metric values)
G90 ; (absolute positioning)
M82 ; (set extruder to absolute mode)
G28 ; (home all axis)
G29 ; (Auto Level)

G92 E0 ;Reset Extruder
G1 Z2.0 F3000 ;Move Z Axis up
G1 X1.1 Y50 Z0.28 F5000.0 ;Move to start position
G1 X1.1 Y200.0 Z0.28 F1500.0 E15 ;Draw the first line
G1 X1.4 Y200.0 Z0.28 F5000.0 ;Move to side a little
G1 X1.4 Y100 Z0.28 F1500.0 E30 ;Draw the second line
G92 E0 ;Reset Extruder
G1 Z2.0 F3000 ;Move Z Axis up
G92 E0
G92 E0
G1 F1500 E-7
;LAYER_COUNT:200
;LAYER:0
M107
G1 F300 Z0.55
G0 F6000 X79.569 Y65.344 Z0.55
;TYPE:SKIRT
G1 F300 Z0.2
G1 F1500 E0
G1 F900 X79.982 Y64.85 E0.02142
G1 X80.453 Y64.41 E0.04285
G1 X80.976 Y64.032 E0.06432
G1 X81.54 Y63.721 E0.08574
G1 X82.139 Y63.483 E0.10718
G1 X82.763 Y63.32 E0.12863
G1 X83.613 Y63.226 E0.15707
G1 X83.934 Y63.217 E0.16775
G1 X84.08 Y63.215 E0.17261
G1 X150.543 Y63.215 E2.38318
G1 X151.315 Y63.226 E2.40886
G1 X151.958 Y63.275 E2.4303
G1 X152.59 Y63.403 E2.45175
G1 X153.201 Y63.609 E2.4732
G1 X153.782 Y63.888 E2.49463
G1 X154.324 Y64.237 E2.51607
G1 X154.818 Y64.651 E2.53751
G1 X155.258 Y65.123 E2.55897
G1 X155.636 Y65.645 E2.58041
G1 X155.946 Y66.21 E2.60184
G1 X156.184 Y66.809 E2.62328
G1 X156.346 Y67.433 E2.64472
G1 X156.439 Y68.279 E2.67303
G1 X156.448 Y68.599 E2.68368
G1 X156.45 Y68.745 E2.68854
G1 X156.449 Y115.207 E4.23387
G1 X156.438 Y115.936 E4.25812
G1 X156.376 Y116.662 E4.28235
G1 X156.31 Y117.084 E4.29656
G1 X155.919 Y119.829 E4.38878
G1 X155.617 Y122.471 E4.47723
G1 X155.391 Y125.122 E4.56572
G1 X155.237 Y127.836 E4.65613
G1 X155.16 Y130.522 E4.7455
G1 X155.15 Y131.908 E4.7916
G1 X155.149 Y165.928 E5.92311
G1 X155.138 Y166.655 E5.9473
G1 X155.089 Y167.297 E5.96871
G1 X154.96 Y167.929 E5.99017
G1 X154.754 Y168.54 E6.01161
G1 X154.474 Y169.121 E6.03306
G1 X154.124 Y169.662 E6.05449
G1 X153.71 Y170.156 E6.07593
G1 X153.238 Y170.595 E6.09737
G1 X152.715 Y170.973 E6.11883
G1 X152.15 Y171.283 E6.14027
G1 X151.551 Y171.52 E6.16169
G1 X150.927 Y171.681 E6.18313
G1 X150.086 Y171.774 E6.21127
G1 X149.767 Y171.783 E6.22188
G1 X149.62 Y171.785 E6.22677
G1 X85.69 Y171.785 E8.35309
G1 X84.992 Y171.776 E8.37631
G1 X84.349 Y171.727 E8.39776
G1 X83.717 Y171.6 E8.4192
G1 X83.106 Y171.395 E8.44064
G1 X82.525 Y171.117 E8.46206
G1 X81.982 Y170.768 E8.48353
G1 X81.487 Y170.355 E8.50497
G1 X81.047 Y169.884 E8.52641
G1 X80.668 Y169.362 E8.54786
G1 X80.357 Y168.798 E8.56928
G1 X80.119 Y168.199 E8.59072
G1 X79.956 Y167.575 E8.61217
G1 X79.861 Y166.716 E8.64092
G1 X79.852 Y166.383 E8.652
G1 X79.85 Y166.243 E8.65665
G1 X79.85 Y131.894 E9.79911
G1 X79.812 Y129.219 E9.88809
G1 X79.699 Y126.546 E9.97707
G1 X79.509 Y123.871 E10.06626
G1 X79.242 Y121.18 E10.15621
G1 X78.905 Y118.541 E10.24469
G1 X78.758 Y117.608 E10.27611
G1 X78.611 Y116.581 E10.31061
G1 X78.561 Y115.991 E10.33031
G1 X78.552 Y115.672 E10.34092
G1 X78.55 Y115.525 E10.34581
G1 X78.55 Y69.019 E11.89261
G1 X78.559 Y68.354 E11.91473
G1 X78.608 Y67.711 E11.93618
G1 X78.736 Y67.079 E11.95762
G1 X78.941 Y66.468 E11.97906
G1 X79.22 Y65.887 E12.00049
G1 X79.569 Y65.344 E12.02196
G1 F1500 E5.02196
G1 F300 Z0.55
;MESH:lackdeckel.stl
G0 F6000 X83.95 Y68.615 Z0.55
;TYPE:WALL-OUTER
G1 F300 Z0.2
G1 F1500 E12.02196
G1 F900 X151.05 Y68.615 E14.25372
G1 X151.05 Y115.655 E15.81828
G1 X83.95 Y115.655 E18.05003
G1 X83.95 Y68.615 E19.61459
G0 F6000 X84.35 Y68.615
G0 X84.39 Y69.055
G0 X84.345 Y69.01
;TYPE:WALL-INNER
G1 F900 X150.655 Y69.01 E21.76493
G1 X150.655 Y115.26 E23.26475
G1 X84.345 Y115.26 E25.4151
G1 X84.345 Y69.01 E26.91492
G0 F6000 X84.735 Y69.4
G1 F900 X150.265 Y69.4 E29.03997
G1 X150.265 Y114.87 E30.5145
G1 X84.735 Y114.87 E32.63955
G1 X84.735 Y69.4 E34.11408
G0 F6000 X85.12 Y69.785
;TYPE:SKIN
G1 F900 X149.88 Y69.785 E36.268
G1 X149.88 Y114.485 E37.75473
G1 X85.12 Y114.485 E39.90866
G1 X85.12 Y69.785 E41.39539
G1 F1500 E34.39539
G1 F300 Z0.55
G0 F6000 X85.474 Y114.324 Z0.55
G1 F300 Z0.2
G1 F1500 E41.39539
G1 F900 X85.279 Y114.129 E41.40456
G0 F6000 X85.279 Y113.564
G1 F900 X86.04 Y114.324 E41.44033
G0 F6000 X86.605 Y114.324
G1 F900 X85.279 Y112.998 E41.5027
G0 F6000 X85.279 Y112.432
G1 F900 X87.171 Y114.324 E41.59169
G0 F6000 X87.737 Y114.324
G1 F900 X85.279 Y111.867 E41.70729
G0 F6000 X85.279 Y111.301
G1 F900 X88.302 Y114.324 E41.84948
G0 F6000 X88.868 Y114.324
G1 F900 X85.279 Y110.735 E42.0183
G0 F6000 X85.279 Y110.17
G1 F900 X89.434 Y114.324 E42.21371
G0 F6000 X89.999 Y114.324
G1 F900 X85.279 Y109.604 E42.43573
G0 F6000 X85.279 Y109.038
G1 F900 X90.565 Y114.324 E42.68436
G0 F6000 X91.131 Y114.324
G1 F900 X85.279 Y108.473 E42.9596
G0 F6000 X85.279 Y107.907
G1 F900 X91.696 Y114.324 E43.26144
G0 F6000 X92.262 Y114.324
G1 F900 X85.279 Y107.341 E43.58989
G0 F6000 X85.279 Y106.775
G1 F900 X92.828 Y114.324 E43.94498
G0 F6000 X93.393 Y114.324
G1 F900 X85.279 Y106.21 E44.32663
G0 F6000 X85.279 Y105.644
G1 F900 X93.959 Y114.324 E44.73491
G0 F6000 X94.525 Y114.324
G1 F900 X85.279 Y105.078 E45.16982
G0 F6000 X85.279 Y104.513
G1 F900 X95.091 Y114.324 E45.63132
G0 F6000 X95.656 Y114.324
G1 F900 X85.279 Y103.947 E46.11942
G0 F6000 X85.279 Y103.381
G1 F900 X96.222 Y114.324 E46.63415
G0 F6000 X96.788 Y114.324
G1 F900 X85.279 Y102.816 E47.17547
G0 F6000 X85.279 Y102.25
G1 F900 X97.353 Y114.324 E47.7434
G0 F6000 X97.919 Y114.324
G1 F900 X85.279 Y101.684 E48.33794
G0 F6000 X85.279 Y101.119
G1 F900 X98.485 Y114.324 E48.95909
G0 F6000 X99.05 Y114.324
G1 F900 X85.279 Y100.553 E49.60684
G0 F6000 X85.279 Y99.987
G1 F900 X99.616 Y114.324 E50.2812
G0 F6000 X100.182 Y114.324
G1 F900 X85.279 Y99.422 E50.98217
G0 F6000 X85.279 Y98.856
G1 F900 X100.747 Y114.324 E51.70974
G0 F6000 X101.313 Y114.324
G1 F900 X85.279 Y98.29 E52.46393
G0 F6000 X85.279 Y97.724
G1 F900 X101.879 Y114.324 E53.24474
G0 F6000 X102.444 Y114.324
G1 F900 X85.279 Y97.159 E54.05213
G0 F6000 X85.279 Y96.593
G1 F900 X103.01 Y114.324 E54.88614
G0 F6000 X103.576 Y114.324
G1 F900 X85.279 Y96.027 E55.74678
G0 F6000 X85.279 Y95.462
G1 F900 X104.141 Y114.324 E56.63399
G0 F6000 X104.707 Y114.324
G1 F900 X85.279 Y94.896 E57.54782
G0 F6000 X85.279 Y94.33
G1 F900 X105.273 Y114.324 E58.48828
G0 F6000 X105.839 Y114.324
G1 F900 X85.279 Y93.765 E59.45533
G0 F6000 X85.279 Y93.199
G1 F900 X106.404 Y114.324 E60.44899
G0 F6000 X106.97 Y114.324
G1 F900 X85.279 Y92.633 E61.46927
G0 F6000 X85.279 Y92.067
G1 F900 X107.536 Y114.324 E62.51617
G0 F6000 X108.101 Y114.324
G1 F900 X85.279 Y91.501 E63.58967
G0 F6000 X85.279 Y90.936
G1 F900 X108.667 Y114.324 E64.68977
G0 F6000 X109.233 Y114.324
G1 F900 X85.279 Y90.37 E65.81649
G0 F6000 X85.279 Y89.804
G1 F900 X109.798 Y114.324 E66.96981
G0 F6000 X110.364 Y114.324
G1 F900 X85.279 Y89.238 E68.14976
G0 F6000 X85.279 Y88.673
G1 F900 X110.93 Y114.324 E69.3563
G0 F6000 X111.495 Y114.324
G1 F900 X85.279 Y88.107 E70.58945
G0 F6000 X85.279 Y87.541
G1 F900 X112.061 Y114.324 E71.84921
G0 F6000 X112.627 Y114.324
G1 F900 X85.279 Y86.976 E73.13558
G0 F6000 X85.279 Y86.41
G1 F900 X113.192 Y114.324 E74.44855
G0 F6000 X113.758 Y114.324
G1 F900 X85.279 Y85.844 E75.78813
G0 F6000 X85.279 Y85.279
G1 F900 X114.324 Y114.324 E77.15432
G0 F6000 X114.89 Y114.324
G1 F900 X85.279 Y84.713 E78.54713
G0 F6000 X85.279 Y84.147
G1 F900 X115.455 Y114.324 E79.96654
G0 F6000 X116.021 Y114.324
G1 F900 X85.279 Y83.582 E81.41255
G0 F6000 X85.279 Y83.016
G1 F900 X116.587 Y114.324 E82.88518
G0 F6000 X117.152 Y114.324
G1 F900 X85.279 Y82.45 E84.38442
G0 F6000 X85.279 Y81.885
G1 F900 X117.718 Y114.324 E85.91025
G0 F6000 X118.284 Y114.324
G1 F900 X85.279 Y81.319 E87.4627
G0 F6000 X85.279 Y80.753
G1 F900 X118.849 Y114.324 E89.04175
G0 F6000 X119.415 Y114.324
G1 F900 X85.279 Y80.188 E90.64741
G0 F6000 X85.279 Y79.622
G1 F900 X119.981 Y114.324 E92.27968
G0 F6000 X120.546 Y114.324
G1 F900 X85.279 Y79.056 E93.93856
G0 F6000 X85.279 Y78.49
G1 F900 X121.112 Y114.324 E95.62406
G0 F6000 X121.678 Y114.324
G1 F900 X85.279 Y77.925 E97.33615
G0 F6000 X85.279 Y77.359
G1 F900 X122.243 Y114.324 E99.07485
G0 F6000 X122.809 Y114.324
G1 F900 X85.279 Y76.793 E100.84017
G0 F6000 X85.279 Y76.228
G1 F900 X123.375 Y114.324 E102.63209
G0 F6000 X123.94 Y114.324
G1 F900 X85.279 Y75.662 E104.45061
G0 F6000 X85.279 Y75.096
G1 F900 X124.506 Y114.324 E106.29575
G0 F6000 X125.072 Y114.324
G1 F900 X85.279 Y74.531 E108.16749
G0 F6000 X85.279 Y73.965
G1 F900 X125.638 Y114.324 E110.06585
G0 F6000 X126.203 Y114.324
G1 F900 X85.279 Y73.399 E111.99082
G0 F6000 X85.279 Y72.834
G1 F900 X126.769 Y114.324 E113.94238
G0 F6000 X127.335 Y114.324
G1 F900 X85.279 Y72.268 E115.92056
G0 F6000 X85.279 Y71.702
G1 F900 X127.9 Y114.324 E117.92535
G0 F6000 X128.466 Y114.324
G1 F900 X85.279 Y71.137 E119.95673
G0 F6000 X85.279 Y70.571
G1 F900 X129.032 Y114.324 E122.01474
G0 F6000 X129.597 Y114.324
G1 F900 X85.279 Y70.005 E124.09935
G0 F6000 X85.784 Y69.944
G1 F900 X130.163 Y114.324 E126.18682
G0 F6000 X130.729 Y114.324
G1 F900 X86.349 Y69.944 E128.27432
G0 F6000 X86.915 Y69.944
G1 F900 X131.294 Y114.324 E130.3618
G0 F6000 X131.86 Y114.324
G1 F900 X87.481 Y69.944 E132.44927
G0 F6000 X88.046 Y69.944
G1 F900 X132.426 Y114.324 E134.53677
G0 F6000 X132.991 Y114.324
G1 F900 X88.612 Y69.944 E136.62425
G0 F6000 X89.178 Y69.944
G1 F900 X133.557 Y114.324 E138.71172
G0 F6000 X134.123 Y114.324
G1 F900 X89.743 Y69.944 E140.79922
G0 F6000 X90.309 Y69.944
G1 F900 X134.688 Y114.324 E142.8867
G0 F6000 X135.254 Y114.324
G1 F900 X90.875 Y69.944 E144.97417
G0 F6000 X91.44 Y69.944
G1 F900 X135.82 Y114.324 E147.06167
G0 F6000 X136.386 Y114.324
G1 F900 X92.006 Y69.944 E149.14917
G0 F6000 X92.572 Y69.944
G1 F900 X136.951 Y114.324 E151.23665
G0 F6000 X137.517 Y114.324
G1 F900 X93.137 Y69.944 E153.32414
G0 F6000 X93.703 Y69.944
G1 F900 X138.083 Y114.324 E155.41164
G0 F6000 X138.648 Y114.324
G1 F900 X94.269 Y69.944 E157.49912
G0 F6000 X94.835 Y69.944
G1 F900 X139.214 Y114.324 E159.5866
G0 F6000 X139.78 Y114.324
G1 F900 X95.4 Y69.944 E161.67409
G0 F6000 X95.966 Y69.944
G1 F900 X140.345 Y114.324 E163.76157
G0 F6000 X140.911 Y114.324
G1 F900 X96.532 Y69.944 E165.84905
G0 F6000 X97.097 Y69.944
G1 F900 X141.477 Y114.324 E167.93654
G0 F6000 X142.042 Y114.324
G1 F900 X97.663 Y69.944 E170.02402
G0 F6000 X98.229 Y69.944
G1 F900 X142.608 Y114.324 E172.1115
G0 F6000 X143.174 Y114.324
G1 F900 X98.794 Y69.944 E174.199
G0 F6000 X99.36 Y69.944
G1 F900 X143.739 Y114.324 E176.28647
G0 F6000 X144.305 Y114.324
G1 F900 X99.926 Y69.944 E178.37395
G0 F6000 X100.491 Y69.944
G1 F900 X144.871 Y114.324 E180.46145
G0 F6000 X145.437 Y114.324
G1 F900 X101.057 Y69.944 E182.54894
G0 F6000 X101.623 Y69.944
G1 F900 X146.002 Y114.324 E184.63642
G0 F6000 X146.568 Y114.324
G1 F900 X102.188 Y69.944 E186.72392
G0 F6000 X102.754 Y69.944
G1 F900 X147.134 Y114.324 E188.81142
G0 F6000 X147.699 Y114.324
G1 F900 X103.32 Y69.944 E190.89889
G0 F6000 X103.886 Y69.944
G1 F900 X148.265 Y114.324 E192.98637
G0 F6000 X148.831 Y114.324
G1 F900 X104.451 Y69.944 E195.07387
G0 F6000 X105.017 Y69.944
G1 F900 X149.396 Y114.324 E197.16134
G0 F6000 X149.719 Y114.081
G1 F900 X105.583 Y69.944 E199.23739
G0 F6000 X106.148 Y69.944
G1 F900 X149.719 Y113.516 E201.28686
G0 F6000 X149.719 Y112.95
G1 F900 X106.714 Y69.944 E203.30971
G0 F6000 X107.28 Y69.944
G1 F900 X149.719 Y112.384 E205.30593
G0 F6000 X149.719 Y111.819
G1 F900 X107.845 Y69.944 E207.27558
G0 F6000 X108.411 Y69.944
G1 F900 X149.719 Y111.253 E209.2186
G0 F6000 X149.719 Y110.687
G1 F900 X108.977 Y69.944 E211.13501
G0 F6000 X109.542 Y69.944
G1 F900 X149.719 Y110.121 E213.02481
G0 F6000 X149.719 Y109.556
G1 F900 X110.108 Y69.944 E214.88801
G0 F6000 X110.674 Y69.944
G1 F900 X149.719 Y108.99 E216.72459
G0 F6000 X149.719 Y108.424
G1 F900 X111.239 Y69.944 E218.53457
G0 F6000 X111.805 Y69.944
G1 F900 X149.719 Y107.859 E220.31796
G0 F6000 X149.719 Y107.293
G1 F900 X112.371 Y69.944 E222.07472
G0 F6000 X112.936 Y69.944
G1 F900 X149.719 Y106.727 E223.80487
G0 F6000 X149.719 Y106.162
G1 F900 X113.502 Y69.944 E225.50843
G0 F6000 X114.068 Y69.944
G1 F900 X149.719 Y105.596 E227.18537
G0 F6000 X149.719 Y105.03
G1 F900 X114.634 Y69.944 E228.83569
G0 F6000 X115.199 Y69.944
G1 F900 X149.719 Y104.465 E230.45943
G0 F6000 X149.719 Y103.899
G1 F900 X115.765 Y69.944 E232.05654
G0 F6000 X116.331 Y69.944
G1 F900 X149.719 Y103.333 E233.62703
G0 F6000 X149.719 Y102.768
G1 F900 X116.896 Y69.944 E235.17095
G0 F6000 X117.462 Y69.944
G1 F900 X149.719 Y102.202 E236.68824
G0 F6000 X149.719 Y101.636
G1 F900 X118.028 Y69.944 E238.17891
G0 F6000 X118.593 Y69.944
G1 F900 X149.719 Y101.071 E239.64301
G0 F6000 X149.719 Y100.505
G1 F900 X119.159 Y69.944 E241.08048
G0 F6000 X119.725 Y69.944
G1 F900 X149.719 Y99.939 E242.49133
G0 F6000 X149.719 Y99.373
G1 F900 X120.29 Y69.944 E243.87558
G0 F6000 X120.856 Y69.944
G1 F900 X149.719 Y98.808 E245.23323
G0 F6000 X149.719 Y98.242
G1 F900 X121.422 Y69.944 E246.56426
G0 F6000 X121.987 Y69.944
G1 F900 X149.719 Y97.676 E247.86869
G0 F6000 X149.719 Y97.111
G1 F900 X122.553 Y69.944 E249.14652
G0 F6000 X123.119 Y69.944
G1 F900 X149.719 Y96.545 E250.39772
G0 F6000 X149.719 Y95.979
G1 F900 X123.684 Y69.944 E251.62233
G0 F6000 X124.25 Y69.944
G1 F900 X149.719 Y95.414 E252.82034
G0 F6000 X149.719 Y94.848
G1 F900 X124.816 Y69.944 E253.99172
G0 F6000 X125.382 Y69.944
G1 F900 X149.719 Y94.282 E255.13648
G0 F6000 X149.719 Y93.717
G1 F900 X125.947 Y69.944 E256.25467
G0 F6000 X126.513 Y69.944
G1 F900 X149.719 Y93.151 E257.34623
G0 F6000 X149.719 Y92.585
G1 F900 X127.079 Y69.944 E258.41117
G0 F6000 X127.644 Y69.944
G1 F900 X149.719 Y92.02 E259.44953
G0 F6000 X149.719 Y91.454
G1 F900 X128.21 Y69.944 E260.46127
G0 F6000 X128.776 Y69.944
G1 F900 X149.719 Y90.888 E261.44639
G0 F6000 X149.719 Y90.322
G1 F900 X129.341 Y69.944 E262.40491
G0 F6000 X129.907 Y69.944
G1 F900 X149.719 Y89.757 E263.33683
G0 F6000 X149.719 Y89.191
G1 F900 X130.473 Y69.944 E264.24213
G0 F6000 X131.038 Y69.944
G1 F900 X149.719 Y88.625 E265.12082
G0 F6000 X149.719 Y88.06
G1 F900 X131.604 Y69.944 E265.97292
G0 F6000 X132.17 Y69.944
G1 F900 X149.719 Y87.494 E266.7984
G0 F6000 X149.719 Y86.928
G1 F900 X132.735 Y69.944 E267.59727
G0 F6000 X133.301 Y69.944
G1 F900 X149.719 Y86.363 E268.36955
G0 F6000 X149.719 Y85.797
G1 F900 X133.867 Y69.944 E269.1152
G0 F6000 X134.433 Y69.944
G1 F900 X149.719 Y85.231 E269.83423
G0 F6000 X149.719 Y84.666
G1 F900 X134.998 Y69.944 E270.52668
G0 F6000 X135.564 Y69.944
G1 F900 X149.719 Y84.1 E271.19252
G0 F6000 X149.719 Y83.534
G1 F900 X136.13 Y69.944 E271.83172
G0 F6000 X136.695 Y69.944
G1 F900 X149.719 Y82.969 E272.44436
G0 F6000 X149.719 Y82.403
G1 F900 X137.261 Y69.944 E273.03037
G0 F6000 X137.827 Y69.944
G1 F900 X149.719 Y81.837 E273.58975
G0 F6000 X149.719 Y81.272
G1 F900 X138.392 Y69.944 E274.12256
G0 F6000 X138.958 Y69.944
G1 F900 X149.719 Y80.706 E274.62875
G0 F6000 X149.719 Y80.14
G1 F900 X139.524 Y69.944 E275.10832
G0 F6000 X140.089 Y69.944
G1 F900 X149.719 Y79.574 E275.56128
G0 F6000 X149.719 Y79.009
G1 F900 X140.655 Y69.944 E275.98765
G0 F6000 X141.221 Y69.944
G1 F900 X149.719 Y78.443 E276.38739
G0 F6000 X149.719 Y77.877
G1 F900 X141.786 Y69.944 E276.76054
G0 F6000 X142.352 Y69.944
