;FLAVOR:Marlin
;TIME:3511
;Filament used: 1.90629m
;Layer height: 0.2
;MINX:51.852
;MINY:103.95
;MINZ:0.2
;MAXX:181.268
;MAXY:131.05
;MAXZ:30.35
;Generated with Cura_SteamEngine 4.7.0
M140 S60
M105
M190 S60
M104 S205
M105
M109 S205
M82 ;absolute extrusion mode
M201 X500.00 Y500.00 Z100.00 E5000.00 ;Setup machine max acceleration
M203 X500.00 Y500.00 Z10.00 E75.00 ;Setup machine max feedrate
M204 P500.00 R1000.00 T500.00 ;Setup Print/Retract/Travel acceleration
M205 X8.00 Y8.00 Z0.40 E5.00 ;Setup Jerk
M220 S100 ;Reset Feedrate
M221 S100 ;Reset Flowrate

G21 ; (metric values)
G90 ; (absolute positioning)
M82 ; (set extruder to absolute mode)
G28 ; (home all axis)
G29 ; (Auto Level)

G92 E0 ;Reset Extruder
G1 Z2.0 F3000 ;Move Z Axis up
G1 X1.1 Y50 Z0.28 F5000.0 ;Move to start position
G1 X1.1 Y200.0 Z0.28 F1500.0 E15 ;Draw the first line
G1 X1.4 Y200.0 Z0.28 F5000.0 ;Move to side a little
G1 X1.4 Y100 Z0.28 F1500.0 E30 ;Draw the second line
G92 E0 ;Reset Extruder
G1 Z2.0 F3000 ;Move Z Axis up
G92 E0
G92 E0
G1 F1500 E-7
;LAYER_COUNT:150
;LAYER:0
M107
G1 F300 Z0.55
G0 F6000 X55.909 Y110.58 Z0.55
;TYPE:SKIRT
G1 F300 Z0.2
G1 F1500 E0
G1 F900 X56.704 Y110.194 E0.02939
G1 X57.023 Y110.069 E0.04079
G1 X57.543 Y109.894 E0.05904
G1 X57.635 Y109.868 E0.06222
G1 X58.022 Y109.773 E0.07547
G1 X58.22 Y109.732 E0.0822
G1 X58.879 Y109.636 E0.10435
G1 X59.744 Y109.562 E0.13322
G1 X62.325 Y109.381 E0.21928
G1 X122.83 Y104.087 E2.23937
G1 X123.533 Y104.027 E2.26284
G1 X124.189 Y103.978 E2.28472
G1 X124.522 Y103.963 E2.2958
G1 X125.409 Y103.95 E2.32531
G1 X174.96 Y103.95 E3.97338
G1 X175.738 Y103.961 E3.99926
G1 X176.405 Y104.01 E4.0215
G1 X177.062 Y104.139 E4.04377
G1 X177.698 Y104.345 E4.06601
G1 X178.306 Y104.626 E4.08829
G1 X178.875 Y104.976 E4.1105
G1 X179.399 Y105.393 E4.13278
G1 X179.869 Y105.869 E4.15503
G1 X180.279 Y106.397 E4.17726
G1 X180.624 Y106.971 E4.19954
G1 X180.897 Y107.582 E4.22179
G1 X181.095 Y108.221 E4.24404
G1 X181.216 Y108.879 E4.2663
G1 X181.256 Y109.403 E4.28378
G1 X181.265 Y109.723 E4.29442
G1 X181.267 Y109.88 E4.29964
G1 X181.266 Y111.823 E4.36427
G1 X181.256 Y112.523 E4.38755
G1 X181.252 Y112.681 E4.39281
G1 X181.221 Y113.403 E4.41685
G1 X181.142 Y116.16 E4.50858
G1 X181.142 Y118.816 E4.59692
G1 X181.217 Y121.504 E4.68636
G1 X181.248 Y122.135 E4.70737
G1 X181.265 Y122.722 E4.7269
G1 X181.267 Y122.881 E4.73219
G1 X181.268 Y124.815 E4.79652
G1 X181.26 Y125.505 E4.81947
G1 X181.212 Y126.172 E4.84171
G1 X181.085 Y126.829 E4.86397
G1 X180.881 Y127.466 E4.88621
G1 X180.602 Y128.074 E4.90846
G1 X180.252 Y128.645 E4.93074
G1 X179.837 Y129.17 E4.953
G1 X179.363 Y129.641 E4.97522
G1 X178.835 Y130.053 E4.9975
G1 X178.263 Y130.399 E5.01973
G1 X177.653 Y130.673 E5.04197
G1 X177.014 Y130.874 E5.06425
G1 X176.357 Y130.997 E5.08648
G1 X175.834 Y131.037 E5.10393
G1 X175.513 Y131.047 E5.11461
G1 X175.339 Y131.05 E5.1204
G1 X125.272 Y131.049 E6.78564
G1 X124.609 Y131.04 E6.80769
G1 X124.281 Y131.026 E6.81861
G1 X123.395 Y130.962 E6.84815
G1 X62.538 Y125.638 E8.88
G1 X59.807 Y125.439 E8.97107
G1 X59.325 Y125.409 E8.98713
G1 X58.962 Y125.378 E8.99925
G1 X58.301 Y125.281 E9.02147
G1 X57.959 Y125.21 E9.03309
G1 X57.159 Y124.981 E9.06076
G1 X56.858 Y124.87 E9.07144
G1 X56.182 Y124.568 E9.09606
G1 X55.949 Y124.445 E9.10482
G1 X55.416 Y124.125 E9.1255
G1 X55.204 Y123.981 E9.13402
G1 X54.922 Y123.776 E9.14562
G1 X54.82 Y123.697 E9.14991
G1 X54.321 Y123.261 E9.17195
G1 X54.067 Y123.011 E9.18381
G1 X53.506 Y122.368 E9.21219
G1 X53.33 Y122.132 E9.22198
G1 X52.927 Y121.51 E9.24663
G1 X52.776 Y121.239 E9.25695
G1 X52.448 Y120.54 E9.28263
G1 X52.316 Y120.2 E9.29476
G1 X52.1 Y119.519 E9.31852
G1 X52.075 Y119.418 E9.32198
G1 X52.026 Y119.201 E9.32938
G1 X51.983 Y118.992 E9.33648
G1 X51.89 Y118.364 E9.35759
G1 X51.882 Y118.275 E9.36057
G1 X51.861 Y117.888 E9.37346
G1 X51.852 Y117.445 E9.38819
G1 X51.873 Y116.841 E9.40829
G1 X51.889 Y116.659 E9.41437
G1 X51.977 Y116.046 E9.43497
G1 X52.021 Y115.827 E9.4424
G1 X52.07 Y115.603 E9.45002
G1 X52.09 Y115.521 E9.45283
G1 X52.256 Y114.967 E9.47207
G1 X52.343 Y114.723 E9.48068
G1 X52.436 Y114.479 E9.48937
G1 X52.698 Y113.911 E9.51017
G1 X52.822 Y113.677 E9.51898
G1 X53.122 Y113.176 E9.5384
G1 X53.251 Y112.984 E9.5461
G1 X53.548 Y112.581 E9.56275
G1 X53.689 Y112.407 E9.5702
G1 X54.08 Y111.973 E9.58963
G1 X54.257 Y111.796 E9.59795
G1 X54.8 Y111.319 E9.62199
G1 X55 Y111.165 E9.63039
G1 X55.579 Y110.774 E9.65362
G1 X55.909 Y110.58 E9.66636
G0 F6000 X56.112 Y110.925
G1 F900 X56.85 Y110.566 E9.69365
G1 X57.169 Y110.441 E9.70505
G1 X57.652 Y110.279 E9.72199
G1 X57.744 Y110.253 E9.72517
G1 X58.104 Y110.165 E9.7375
G1 X58.302 Y110.124 E9.74422
G1 X58.913 Y110.035 E9.76476
G1 X59.857 Y109.955 E9.79627
G1 X62.388 Y109.777 E9.88066
G1 X122.865 Y104.486 E11.89981
G1 X123.563 Y104.425 E11.92312
G1 X124.219 Y104.376 E11.945
G1 X124.528 Y104.363 E11.95528
G1 X125.409 Y104.35 E11.98459
G1 X174.96 Y104.35 E13.63266
G1 X175.732 Y104.361 E13.65834
G1 X176.375 Y104.41 E13.67979
G1 X177.007 Y104.538 E13.70124
G1 X177.618 Y104.744 E13.72268
G1 X178.199 Y105.023 E13.74412
G1 X178.741 Y105.372 E13.76556
G1 X179.235 Y105.786 E13.787
G1 X179.675 Y106.258 E13.80846
G1 X180.053 Y106.78 E13.8299
G1 X180.363 Y107.345 E13.85133
G1 X180.601 Y107.944 E13.87277
G1 X180.763 Y108.568 E13.89421
G1 X180.856 Y109.414 E13.92252
G1 X180.865 Y109.734 E13.93317
G1 X180.867 Y109.88 E13.93802
G1 X180.866 Y111.817 E14.00245
G1 X180.856 Y112.517 E14.02573
G1 X180.852 Y112.664 E14.03062
G1 X180.821 Y113.392 E14.05486
G1 X180.742 Y116.149 E14.14659
G1 X180.742 Y118.827 E14.23567
G1 X180.818 Y121.535 E14.32577
G1 X180.848 Y122.146 E14.34612
G1 X180.865 Y122.733 E14.36565
G1 X180.867 Y122.881 E14.37057
G1 X180.868 Y124.81 E14.43473
G1 X180.86 Y125.5 E14.45768
G1 X180.812 Y126.143 E14.47913
G1 X180.686 Y126.775 E14.50056
G1 X180.482 Y127.387 E14.52202
G1 X180.204 Y127.969 E14.54347
G1 X179.856 Y128.511 E14.56489
G1 X179.444 Y129.007 E14.58634
G1 X178.973 Y129.448 E14.6078
G1 X178.452 Y129.827 E14.62923
G1 X177.888 Y130.139 E14.65066
G1 X177.289 Y130.378 E14.67211
G1 X176.666 Y130.542 E14.69354
G1 X175.822 Y130.637 E14.72179
G1 X175.501 Y130.647 E14.73247
G1 X175.339 Y130.65 E14.73786
G1 X125.277 Y130.65 E16.40293
G1 X124.614 Y130.641 E16.42498
G1 X124.31 Y130.627 E16.43511
G1 X123.43 Y130.563 E16.46445
G1 X62.603 Y125.242 E18.49529
G1 X59.861 Y125.041 E18.58674
G1 X59.497 Y125.02 E18.59886
G1 X59.36 Y125.01 E18.60343
G1 X58.997 Y124.979 E18.61555
G1 X58.382 Y124.889 E18.63622
G1 X58.04 Y124.818 E18.64784
G1 X57.298 Y124.606 E18.67351
G1 X56.997 Y124.495 E18.68418
G1 X56.368 Y124.215 E18.70708
G1 X56.135 Y124.092 E18.71584
G1 X55.641 Y123.795 E18.73501
G1 X55.429 Y123.651 E18.74353
G1 X55.167 Y123.46 E18.75432
G1 X55.065 Y123.381 E18.75861
G1 X54.601 Y122.976 E18.77909
G1 X54.347 Y122.726 E18.79095
G1 X53.827 Y122.129 E18.81728
G1 X53.651 Y121.893 E18.82707
G1 X53.277 Y121.315 E18.84997
G1 X53.126 Y121.044 E18.86029
G1 X52.821 Y120.395 E18.88414
G1 X52.689 Y120.055 E18.89627
G1 X52.488 Y119.422 E18.91836
G1 X52.463 Y119.321 E18.92182
G1 X52.418 Y119.12 E18.92867
G1 X52.375 Y118.911 E18.93577
G1 X52.289 Y118.329 E18.95533
G1 X52.281 Y118.24 E18.95831
G1 X52.261 Y117.88 E18.9703
G1 X52.252 Y117.437 E18.98504
G1 X52.271 Y116.876 E19.00371
G1 X52.287 Y116.694 E19.00978
G1 X52.369 Y116.125 E19.0289
G1 X52.413 Y115.906 E19.03633
G1 X52.459 Y115.698 E19.04342
G1 X52.479 Y115.616 E19.04623
G1 X52.633 Y115.102 E19.06407
G1 X52.72 Y114.858 E19.07269
G1 X52.809 Y114.625 E19.08098
G1 X53.051 Y114.098 E19.10027
G1 X53.175 Y113.864 E19.10908
G1 X53.454 Y113.399 E19.12712
G1 X53.583 Y113.207 E19.13481
G1 X53.859 Y112.833 E19.15027
G1 X54 Y112.659 E19.15772
G1 X54.363 Y112.256 E19.17576
G1 X54.54 Y112.079 E19.18408
G1 X55.045 Y111.636 E19.20643
G1 X55.245 Y111.482 E19.21482
G1 X55.782 Y111.119 E19.23638
G1 X56.112 Y110.925 E19.24911
G1 F1500 E12.24911
G1 F300 Z0.55
;MESH:90grad-pinzette.stl
G0 F6000 X58.599 Y115.705 Z0.55
;TYPE:WALL-OUTER
G1 F300 Z0.2
G1 F1500 E19.24911
G1 F900 X58.857 Y115.563 E19.25891
G1 X59.144 Y115.457 E19.26908
G1 X59.43 Y115.394 E19.27882
G1 X59.762 Y115.372 E19.28989
G1 X60.394 Y115.372 E19.31091
G1 X123.372 Y109.862 E21.41357
G1 X124.647 Y109.75 E21.45614
G1 X175.467 Y109.75 E23.14642
G1 X175.467 Y112.25 E23.22957
G1 X124.757 Y112.25 E24.91619
G1 X68.74 Y117.15 E26.78644
G1 X67.367 Y117.271 E26.83228
G1 X67.367 Y117.729 E26.84751
G1 X123.603 Y122.648 E28.72507
G1 X124.757 Y122.75 E28.7636
G1 X175.467 Y122.75 E30.45023
G1 X175.468 Y125.25 E30.53338
G1 X124.647 Y125.25 E32.22369
G1 X61.69 Y119.742 E34.32565
G1 X60.394 Y119.628 E34.36892
G1 X59.73 Y119.628 E34.391
G1 X59.429 Y119.606 E34.40104
G1 X59.137 Y119.541 E34.41099
G1 X58.853 Y119.435 E34.42107
G1 X58.599 Y119.295 E34.43072
G1 X58.355 Y119.112 E34.44086
G1 X58.14 Y118.895 E34.45102
G1 X57.966 Y118.662 E34.4607
G1 X57.823 Y118.402 E34.47057
G1 X57.718 Y118.118 E34.48064
G1 X57.655 Y117.829 E34.49047
G1 X57.633 Y117.513 E34.50101
G1 X57.633 Y117.469 E34.50247
G1 X57.655 Y117.171 E34.51241
G1 X57.719 Y116.878 E34.52239
G1 X57.826 Y116.593 E34.53251
G1 X57.968 Y116.336 E34.54228
G1 X58.156 Y116.086 E34.55268
G1 X58.357 Y115.885 E34.56214
G1 X58.599 Y115.705 E34.57217
G0 F6000 X58.857 Y115.563
G0 X58.956 Y115.527
G0 X59.107 Y115.941
G0 X59.022 Y115.928
;TYPE:WALL-INNER
G1 F900 X59.254 Y115.843 E34.58039
G1 X59.49 Y115.791 E34.58842
G1 X59.773 Y115.772 E34.59786
G1 X60.411 Y115.772 E34.61908
G1 X123.407 Y110.26 E36.72234
G1 X124.636 Y110.153 E36.76337
G1 X124.659 Y110.15 E36.76414
G1 X175.067 Y110.15 E38.44072
G1 X175.067 Y111.85 E38.49726
G1 X124.74 Y111.85 E40.17114
G1 X68.705 Y116.752 E42.04199
G1 X66.967 Y116.904 E42.10002
G1 X66.967 Y118.096 E42.13966
G1 X123.568 Y123.046 E44.02941
G1 X124.74 Y123.15 E44.06854
G1 X175.067 Y123.15 E45.74242
G1 X175.068 Y124.651 E45.79235
G1 X175.068 Y124.85 E45.79897
G1 X174.869 Y124.85 E45.80325
G1 X124.659 Y124.85 E47.47324
G1 X61.725 Y119.344 E49.57443
G1 X60.411 Y119.228 E49.6183
G1 X59.745 Y119.228 E49.64045
G1 X59.484 Y119.209 E49.64916
G1 X59.256 Y119.158 E49.65693
G1 X59.017 Y119.069 E49.66541
G1 X58.818 Y118.96 E49.67296
G1 X58.62 Y118.811 E49.6812
G1 X58.595 Y118.785 E49.6824
G1 X58.44 Y118.629 E49.68971
G1 X58.304 Y118.447 E49.69727
G1 X58.188 Y118.237 E49.70525
G1 X58.179 Y118.211 E49.70616
G1 X58.103 Y118.007 E49.7134
G1 X58.052 Y117.771 E49.72144
G1 X58.051 Y117.742 E49.7224
G1 X58.033 Y117.484 E49.731
G1 X58.052 Y117.229 E49.73951
G1 X58.104 Y116.989 E49.74768
G1 X58.19 Y116.761 E49.75578
G1 X58.303 Y116.556 E49.76357
G1 X58.458 Y116.35 E49.77214
G1 X58.619 Y116.189 E49.77971
G1 X58.819 Y116.04 E49.78801
G1 X58.99 Y115.946 E49.7945
G1 X59.022 Y115.928 E49.79572
G0 F6000 X59.183 Y116.295
G1 F900 X59.368 Y116.228 E49.80226
G1 X59.55 Y116.188 E49.80846
G1 X59.785 Y116.172 E49.8163
G1 X60.428 Y116.172 E49.83768
G1 X123.442 Y110.658 E51.94154
G1 X124.671 Y110.55 E51.98258
G1 X174.667 Y110.55 E53.64545
G1 X174.667 Y111.45 E53.67539
G1 X124.723 Y111.45 E55.33653
G1 X68.67 Y116.354 E57.20798
G1 X66.567 Y116.537 E57.27819
G1 X66.567 Y118.463 E57.34225
G1 X123.533 Y123.444 E59.24418
G1 X124.723 Y123.55 E59.28391
G1 X174.667 Y123.55 E60.94506
G1 X174.668 Y124.251 E60.96837
G1 X174.668 Y124.45 E60.97499
G1 X174.469 Y124.45 E60.97927
G1 X124.671 Y124.45 E62.63556
G1 X61.76 Y118.946 E64.73598
G1 X60.428 Y118.828 E64.78046
G1 X59.76 Y118.828 E64.80268
G1 X59.539 Y118.812 E64.81005
G1 X59.375 Y118.775 E64.81564
G1 X59.183 Y118.704 E64.82245
G1 X59.039 Y118.625 E64.82791
G1 X58.878 Y118.504 E64.83461
G1 X58.743 Y118.367 E64.84101
G1 X58.642 Y118.232 E64.84661
G1 X58.553 Y118.072 E64.8527
G1 X58.488 Y117.895 E64.85898
G1 X58.449 Y117.715 E64.8651
G1 X58.434 Y117.484 E64.8728
G1 X58.449 Y117.287 E64.87937
G1 X58.489 Y117.1 E64.88573
G1 X58.554 Y116.929 E64.89182
G1 X58.638 Y116.776 E64.89762
G1 X58.76 Y116.614 E64.90437
G1 X58.882 Y116.492 E64.91011
G1 X59.039 Y116.375 E64.91662
G1 X59.183 Y116.295 E64.9221
G0 F6000 X59.347 Y116.65
;TYPE:SKIN
G1 F900 X59.483 Y116.601 E64.9269
G1 X59.594 Y116.576 E64.93069
G1 X59.812 Y116.562 E64.93795
G1 X60.445 Y116.562 E64.95901
G1 X123.476 Y111.046 E67.06344
G1 X124.683 Y110.94 E67.10374
G1 X174.277 Y110.94 E68.75324
G1 X174.277 Y111.06 E68.75723
G1 X124.706 Y111.06 E70.40597
G1 X68.636 Y115.966 E72.27799
G1 X66.177 Y116.18 E72.36009
G1 X66.177 Y118.82 E72.4479
G1 X123.499 Y123.832 E74.36171
G1 X124.706 Y123.94 E74.40201
G1 X174.277 Y123.94 E76.05075
G1 X174.278 Y124.06 E76.05474
G1 X124.683 Y124.06 E77.70428
G1 X61.794 Y118.558 E79.80396
G1 X60.445 Y118.438 E79.84901
G1 X59.76 Y118.438 E79.87179
G1 X59.605 Y118.426 E79.87696
G1 X59.484 Y118.4 E79.88108
G1 X59.341 Y118.347 E79.88615
G1 X59.255 Y118.299 E79.88943
G1 X59.134 Y118.208 E79.89446
G1 X59.039 Y118.112 E79.89896
G1 X58.974 Y118.025 E79.90257
G1 X58.908 Y117.907 E79.90706
G1 X58.863 Y117.785 E79.91139
G1 X58.837 Y117.667 E79.91541
G1 X58.826 Y117.479 E79.92167
G1 X58.835 Y117.347 E79.92607
G1 X58.866 Y117.204 E79.93094
G1 X58.909 Y117.091 E79.93496
G1 X58.964 Y116.992 E79.93873
G1 X59.06 Y116.864 E79.94405
G1 X59.135 Y116.789 E79.94758
G1 X59.245 Y116.707 E79.95214
G1 X59.347 Y116.65 E79.95603
G0 F6000 X59.114 Y117.945
G1 F900 X59.303 Y118.134 E79.96492
G0 F6000 X60.011 Y118.277
G1 F900 X59.013 Y117.278 E80.01188
G0 F6000 X59.224 Y116.924
G1 F900 X60.589 Y118.289 E80.07609
G0 F6000 X61.209 Y118.344
G1 F900 X59.602 Y116.736 E80.1517
G0 F6000 X60.152 Y116.721
G1 F900 X61.83 Y118.399 E80.23063
G0 F6000 X62.45 Y118.453
G1 F900 X60.697 Y116.7 E80.31308
G0 F6000 X61.217 Y116.654
G1 F900 X63.071 Y118.508 E80.40029
G0 F6000 X63.691 Y118.562
G1 F900 X61.737 Y116.608 E80.4922
G0 F6000 X62.257 Y116.563
G1 F900 X64.31 Y118.616 E80.58877
G0 F6000 X64.93 Y118.67
M104 S200
G1 F900 X62.778 Y116.518 E80.68999
G0 F6000 X63.298 Y116.472
G1 F900 X65.55 Y118.725 E80.79594
G0 F6000 X66.017 Y118.626
G1 F900 X63.818 Y116.427 E80.89938
G0 F6000 X64.338 Y116.381
G1 F900 X66.017 Y118.06 E80.97835
G0 F6000 X66.017 Y117.494
G1 F900 X64.858 Y116.336 E81.03284
G0 F6000 X65.379 Y116.29
G1 F900 X66.017 Y116.929 E81.06288
G0 F6000 X66.017 Y116.363
G1 F900 X65.898 Y116.244 E81.06847
G1 F1500 E74.06847
G1 F300 Z0.55
;MESH:NONMESH
G0 F6000 X58.839 Y115.516 Z0.55
;TIME_ELAPSED:169.360003
;LAYER:1
M140 S45
;MESH:90grad-pinzette.stl
G0 F7500 X58.839 Y115.516 Z0.75
;TYPE:WALL-OUTER
G1 F300 Z0.4
G1 F1500 E81.06847
G1 F1200 X59.127 Y115.409 E81.07869
G1 X59.421 Y115.344 E81.08871
G1 X59.747 Y115.322 E81.09957
G1 X60.392 Y115.322 E81.12103
G1 X120.798 Y110.037 E83.13781
G1 X124.643 Y109.7 E83.26619
G1 X175.717 Y109.7 E84.96492
G1 X175.717 Y112.3 E85.05139
G1 X124.759 Y112.3 E86.74626
G1 X71.03 Y117 E88.54012
G1 X67.417 Y117.317 E88.66075
G1 X67.417 Y117.683 E88.67293
G1 X121.321 Y122.398 E90.47263
G1 X124.759 Y122.7 E90.58741
G1 X175.717 Y122.7 E92.28228
G1 X175.718 Y125.3 E92.36876
G1 X124.643 Y125.3 E94.06752
G1 X64.256 Y120.017 E96.08367
G1 X60.392 Y119.678 E96.21268
G1 X59.727 Y119.677 E96.2348
G1 X59.421 Y119.656 E96.245
G1 X59.127 Y119.591 E96.25502
G1 X58.839 Y119.484 E96.26524
G1 X58.573 Y119.338 E96.27533
G1 X58.326 Y119.154 E96.28557
G1 X58.108 Y118.935 E96.29585
G1 X57.923 Y118.688 E96.30611
G1 X57.777 Y118.422 E96.31621
G1 X57.67 Y118.133 E96.32646
G1 X57.605 Y117.835 E96.3366
G1 X57.583 Y117.528 E96.34684
G1 X57.584 Y117.455 E96.34927
G1 X57.605 Y117.165 E96.35894
G1 X57.67 Y116.867 E96.36908
G1 X57.777 Y116.578 E96.37933
G1 X57.923 Y116.312 E96.38942
G1 X58.108 Y116.065 E96.39969
G1 X58.326 Y115.846 E96.40997
G1 X58.573 Y115.662 E96.42021
