;FLAVOR:Marlin
;TIME:2712
;Filament used: 1.16753m
;Layer height: 0.12
;MINX:97.55
;MINY:106.55
;MINZ:0.2
;MAXX:137.45
;MAXY:144.45
;MAXZ:7.27
;Generated with Cura_SteamEngine 4.7.0
M140 S60
M105
M190 S60
M104 S205
M105
M109 S205
M82 ;absolute extrusion mode
M201 X500.00 Y500.00 Z100.00 E5000.00 ;Setup machine max acceleration
M203 X500.00 Y500.00 Z10.00 E75.00 ;Setup machine max feedrate
M204 P500.00 R1000.00 T500.00 ;Setup Print/Retract/Travel acceleration
M205 X8.00 Y8.00 Z0.40 E5.00 ;Setup Jerk
M220 S100 ;Reset Feedrate
M221 S100 ;Reset Flowrate

G21 ; (metric values)
G90 ; (absolute positioning)
M82 ; (set extruder to absolute mode)
G28 ; (home all axis)
G29 ; (Auto Level)

G92 E0 ;Reset Extruder
G1 Z2.0 F3000 ;Move Z Axis up
G1 X1.1 Y50 Z0.28 F5000.0 ;Move to start position
G1 X1.1 Y200.0 Z0.28 F1500.0 E15 ;Draw the first line
G1 X1.4 Y200.0 Z0.28 F5000.0 ;Move to side a little
G1 X1.4 Y100 Z0.28 F1500.0 E30 ;Draw the second line
G92 E0 ;Reset Extruder
G1 Z2.0 F3000 ;Move Z Axis up
G92 E0
G92 E0
G1 F1500 E-7
;LAYER_COUNT:57
;LAYER:0
M107
G1 F300 Z0.55
G0 F6000 X99.474 Y108.164 Z0.55
;TYPE:SKIRT
G1 F300 Z0.2
G1 F1500 E0
G1 F900 X100.008 Y107.723 E0.02303
G1 X100.589 Y107.346 E0.04607
G1 X101.209 Y107.038 E0.0691
G1 X101.861 Y106.804 E0.09214
G1 X102.535 Y106.647 E0.11515
G1 X103.391 Y106.561 E0.14377
G1 X103.712 Y106.552 E0.15445
G1 X103.88 Y106.55 E0.16004
G1 X130.743 Y106.55 E1.0535
G1 X131.527 Y106.561 E1.07958
G1 X132.218 Y106.61 E1.10262
G1 X132.898 Y106.74 E1.12565
G1 X133.559 Y106.946 E1.14868
G1 X134.192 Y107.228 E1.17173
G1 X134.788 Y107.58 E1.19475
G1 X135.339 Y107.999 E1.21777
G1 X135.839 Y108.479 E1.24082
G1 X136.28 Y109.013 E1.26386
G1 X136.657 Y109.594 E1.28689
G1 X136.964 Y110.215 E1.30993
G1 X137.197 Y110.867 E1.33296
G1 X137.354 Y111.541 E1.35598
G1 X137.439 Y112.391 E1.38439
G1 X137.448 Y112.711 E1.39504
G1 X137.45 Y112.896 E1.40119
G1 X137.444 Y115.141 E1.47586
G1 X137.45 Y116.109 E1.50806
G1 X137.444 Y117.944 E1.56909
G1 X137.45 Y118.912 E1.60129
G1 X137.444 Y120.745 E1.66225
G1 X137.45 Y121.507 E1.6876
G1 X137.449 Y121.807 E1.69758
G1 X137.421 Y123.83 E1.76487
G1 X137.407 Y124.344 E1.78197
G1 X137.439 Y128.421 E1.91758
G1 X137.447 Y128.704 E1.92699
G1 X137.45 Y128.879 E1.93281
G1 X137.45 Y129.295 E1.94665
G1 X137.444 Y131.144 E2.00815
G1 X137.45 Y132.109 E2.04025
G1 X137.444 Y133.944 E2.10128
G1 X137.45 Y134.912 E2.13348
G1 X137.444 Y136.679 E2.19225
G1 X137.45 Y137.469 E2.21852
G1 X137.45 Y137.788 E2.22913
G1 X137.441 Y138.515 E2.25331
G1 X137.392 Y139.206 E2.27635
G1 X137.264 Y139.887 E2.2994
G1 X137.059 Y140.548 E2.32242
G1 X136.779 Y141.181 E2.34544
G1 X136.427 Y141.778 E2.36849
G1 X136.01 Y142.331 E2.39153
G1 X135.531 Y142.831 E2.41456
G1 X134.998 Y143.273 E2.43759
G1 X134.417 Y143.651 E2.46064
G1 X133.797 Y143.959 E2.48367
G1 X133.146 Y144.194 E2.50669
G1 X132.471 Y144.352 E2.52974
G1 X131.609 Y144.439 E2.55856
G1 X131.288 Y144.448 E2.56924
G1 X131.12 Y144.45 E2.57483
G1 X104.18 Y144.45 E3.47086
G1 X103.482 Y144.441 E3.49408
G1 X102.791 Y144.392 E3.51712
G1 X102.11 Y144.263 E3.54017
G1 X101.449 Y144.058 E3.56319
G1 X100.816 Y143.777 E3.58622
G1 X100.219 Y143.426 E3.60926
G1 X99.667 Y143.008 E3.63228
G1 X99.167 Y142.529 E3.65531
G1 X98.725 Y141.995 E3.67837
G1 X98.348 Y141.415 E3.70138
G1 X98.04 Y140.794 E3.72443
G1 X97.805 Y140.143 E3.74745
G1 X97.648 Y139.468 E3.7705
G1 X97.561 Y138.603 E3.79942
G1 X97.552 Y138.27 E3.8105
G1 X97.55 Y138.108 E3.81589
G1 X97.55 Y137.542 E3.83471
G1 X97.556 Y135.854 E3.89086
G1 X97.55 Y134.891 E3.92289
G1 X97.556 Y133.056 E3.98392
G1 X97.55 Y132.088 E4.01612
G1 X97.556 Y130.255 E4.07708
G1 X97.55 Y129.493 E4.10243
G1 X97.551 Y129.173 E4.11307
G1 X97.579 Y127.17 E4.1797
G1 X97.593 Y126.656 E4.1968
G1 X97.561 Y122.579 E4.3324
G1 X97.553 Y122.296 E4.34182
G1 X97.55 Y122.121 E4.34764
G1 X97.55 Y121.69 E4.36198
G1 X97.556 Y119.855 E4.42301
G1 X97.55 Y118.891 E4.45507
G1 X97.556 Y117.056 E4.51611
G1 X97.55 Y116.088 E4.5483
G1 X97.556 Y114.255 E4.60927
G1 X97.55 Y113.442 E4.63631
G1 X97.551 Y113.143 E4.64625
G1 X97.56 Y112.478 E4.66837
G1 X97.609 Y111.787 E4.69141
G1 X97.737 Y111.107 E4.71443
G1 X97.944 Y110.445 E4.7375
G1 X98.225 Y109.812 E4.76053
G1 X98.577 Y109.216 E4.78356
G1 X98.995 Y108.664 E4.80658
G1 X99.474 Y108.164 E4.82961
G0 F6000 X99.864 Y108.351
G1 F900 X100.393 Y107.94 E4.8519
G1 X100.966 Y107.595 E4.87414
G1 X101.577 Y107.322 E4.8964
G1 X102.215 Y107.123 E4.91863
G1 X102.873 Y107.001 E4.94089
G1 X103.402 Y106.961 E4.95853
G1 X103.723 Y106.952 E4.96921
G1 X103.88 Y106.95 E4.97443
G1 X130.743 Y106.95 E5.8679
G1 X131.521 Y106.961 E5.89378
G1 X132.188 Y107.01 E5.91602
G1 X132.845 Y107.139 E5.93829
G1 X133.481 Y107.345 E5.96053
G1 X134.089 Y107.626 E5.98281
G1 X134.658 Y107.976 E6.00502
G1 X135.182 Y108.393 E6.0273
G1 X135.652 Y108.869 E6.04955
G1 X136.062 Y109.397 E6.07178
G1 X136.407 Y109.971 E6.09406
G1 X136.68 Y110.582 E6.11631
G1 X136.878 Y111.221 E6.13856
G1 X136.999 Y111.879 E6.16082
G1 X137.039 Y112.403 E6.1783
G1 X137.048 Y112.723 E6.18894
G1 X137.05 Y112.895 E6.19466
G1 X137.044 Y115.14 E6.26933
G1 X137.05 Y116.107 E6.3015
G1 X137.044 Y117.942 E6.36253
G1 X137.05 Y118.91 E6.39473
G1 X137.044 Y120.743 E6.45569
G1 X137.05 Y121.51 E6.4812
G1 X137.049 Y121.802 E6.49091
G1 X137.021 Y123.819 E6.55801
G1 X137.007 Y124.337 E6.57524
G1 X137.038 Y128.389 E6.71002
G1 X137.048 Y128.716 E6.7209
G1 X137.05 Y128.879 E6.72632
G1 X137.05 Y129.294 E6.74012
G1 X137.044 Y131.143 E6.80162
G1 X137.05 Y132.107 E6.83368
G1 X137.044 Y133.942 E6.89472
G1 X137.05 Y134.91 E6.92691
G1 X137.044 Y136.743 E6.98788
G1 X137.05 Y137.472 E7.01213
G1 X137.05 Y137.783 E7.02247
G1 X137.041 Y138.51 E7.04665
G1 X136.992 Y139.178 E7.06893
G1 X136.865 Y139.834 E7.09115
G1 X136.66 Y140.471 E7.11341
G1 X136.381 Y141.079 E7.13566
G1 X136.031 Y141.649 E7.15791
G1 X135.615 Y142.174 E7.18019
G1 X135.14 Y142.645 E7.20243
G1 X134.613 Y143.056 E7.22466
G1 X134.04 Y143.402 E7.24693
G1 X133.43 Y143.676 E7.26917
G1 X132.791 Y143.876 E7.29144
G1 X132.133 Y143.998 E7.3137
G1 X131.598 Y144.039 E7.33154
G1 X131.277 Y144.048 E7.34222
G1 X131.12 Y144.05 E7.34744
G1 X104.185 Y144.05 E8.24331
G1 X103.487 Y144.041 E8.26652
G1 X102.82 Y143.992 E8.28877
G1 X102.163 Y143.864 E8.31103
G1 X101.526 Y143.659 E8.33329
G1 X100.918 Y143.379 E8.35555
G1 X100.348 Y143.029 E8.3778
G1 X99.824 Y142.613 E8.40005
G1 X99.353 Y142.138 E8.4223
G1 X98.942 Y141.61 E8.44455
G1 X98.597 Y141.037 E8.4668
G1 X98.323 Y140.427 E8.48904
G1 X98.123 Y139.788 E8.51131
G1 X98.002 Y139.13 E8.53356
G1 X97.961 Y138.592 E8.55151
G1 X97.952 Y138.259 E8.56259
G1 X97.95 Y138.108 E8.56761
G1 X97.95 Y137.543 E8.5864
G1 X97.956 Y135.855 E8.64255
G1 X97.95 Y134.893 E8.67454
G1 X97.956 Y133.058 E8.73558
G1 X97.95 Y132.09 E8.76777
G1 X97.956 Y130.257 E8.82874
G1 X97.95 Y129.49 E8.85425
G1 X97.951 Y129.178 E8.86463
G1 X97.979 Y127.181 E8.93106
G1 X97.993 Y126.663 E8.94829
G1 X97.962 Y122.611 E9.08306
G1 X97.952 Y122.284 E9.09395
G1 X97.95 Y122.121 E9.09937
G1 X97.95 Y121.692 E9.11364
G1 X97.956 Y119.857 E9.17467
G1 X97.95 Y118.893 E9.20673
G1 X97.956 Y117.058 E9.26776
G1 X97.95 Y116.09 E9.29996
G1 X97.956 Y114.257 E9.36093
G1 X97.95 Y113.439 E9.38813
G1 X97.951 Y113.148 E9.39781
G1 X97.96 Y112.483 E9.41993
G1 X98.009 Y111.816 E9.44218
G1 X98.137 Y111.159 E9.46444
G1 X98.342 Y110.523 E9.48667
G1 X98.622 Y109.915 E9.50893
G1 X98.973 Y109.345 E9.53119
G1 X99.389 Y108.821 E9.55345
G1 X99.864 Y108.351 E9.57567
G0 F6000 X100.253 Y108.545
G1 F900 X100.776 Y108.167 E9.59713
G1 X101.34 Y107.856 E9.61856
G1 X101.939 Y107.618 E9.63999
G1 X102.563 Y107.455 E9.66144
G1 X103.413 Y107.361 E9.68989
G1 X103.734 Y107.352 E9.70057
G1 X103.88 Y107.35 E9.70543
G1 X130.743 Y107.35 E10.59889
G1 X131.515 Y107.361 E10.62457
G1 X132.158 Y107.41 E10.64602
G1 X132.79 Y107.538 E10.66747
G1 X133.401 Y107.744 E10.68891
G1 X133.982 Y108.023 E10.71035
G1 X134.524 Y108.372 E10.73179
G1 X135.018 Y108.786 E10.75323
G1 X135.458 Y109.258 E10.77469
G1 X135.836 Y109.78 E10.79613
G1 X136.146 Y110.345 E10.81756
G1 X136.384 Y110.944 E10.839
G1 X136.546 Y111.568 E10.86044
G1 X136.639 Y112.414 E10.88875
G1 X136.648 Y112.734 E10.8994
G1 X136.65 Y112.894 E10.90472
G1 X136.644 Y115.139 E10.97939
G1 X136.65 Y116.106 E11.01155
G1 X136.644 Y117.941 E11.07258
G1 X136.65 Y118.909 E11.10478
G1 X136.644 Y120.742 E11.16575
G1 X136.65 Y121.513 E11.19139
G1 X136.649 Y121.796 E11.2008
G1 X136.621 Y123.808 E11.26773
G1 X136.607 Y124.329 E11.28506
G1 X136.639 Y128.403 E11.42057
G1 X136.648 Y128.727 E11.43135
G1 X136.65 Y128.879 E11.43641
G1 X136.65 Y129.293 E11.45018
G1 X136.644 Y131.142 E11.51167
G1 X136.65 Y132.106 E11.54374
G1 X136.644 Y133.941 E11.60477
G1 X136.65 Y134.909 E11.63697
G1 X136.644 Y136.742 E11.69793
G1 X136.65 Y137.476 E11.72235
G1 X136.65 Y137.778 E11.73239
G1 X136.641 Y138.505 E11.75657
G1 X136.593 Y139.148 E11.77802
G1 X136.466 Y139.78 E11.79946
G1 X136.261 Y140.392 E11.82093
G1 X135.983 Y140.973 E11.84235
G1 X135.635 Y141.516 E11.8638
G1 X135.222 Y142.011 E11.88524
G1 X134.751 Y142.451 E11.90668
G1 X134.229 Y142.83 E11.92813
G1 X133.665 Y143.141 E11.94956
G1 X133.066 Y143.38 E11.97101
G1 X132.443 Y143.544 E11.99243
G1 X131.587 Y143.639 E12.02108
G1 X131.266 Y143.648 E12.03176
G1 X131.12 Y143.65 E12.03662
G1 X104.19 Y143.65 E12.93231
G1 X103.492 Y143.641 E12.95553
G1 X102.849 Y143.592 E12.97698
G1 X102.217 Y143.465 E12.99842
G1 X101.606 Y143.26 E13.01985
G1 X101.025 Y142.982 E13.04127
G1 X100.482 Y142.633 E13.06274
G1 X99.987 Y142.22 E13.08419
G1 X99.547 Y141.749 E13.10562
G1 X99.168 Y141.227 E13.12708
G1 X98.857 Y140.663 E13.1485
G1 X98.619 Y140.064 E13.16994
G1 X98.456 Y139.44 E13.19139
G1 X98.361 Y138.581 E13.22013
G1 X98.352 Y138.248 E13.23121
G1 X98.35 Y138.108 E13.23587
G1 X98.35 Y137.545 E13.2546
G1 X98.356 Y135.857 E13.31074
G1 X98.35 Y134.894 E13.34277
G1 X98.356 Y133.059 E13.4038
G1 X98.35 Y132.091 E13.436
G1 X98.356 Y130.258 E13.49696
G1 X98.35 Y129.487 E13.52261
G1 X98.351 Y129.184 E13.53269
G1 X98.379 Y127.192 E13.59895
G1 X98.393 Y126.671 E13.61628
G1 X98.361 Y122.597 E13.75179
G1 X98.352 Y122.273 E13.76257
G1 X98.35 Y122.121 E13.76762
G1 X98.35 Y121.693 E13.78186
G1 X98.356 Y119.858 E13.84289
G1 X98.35 Y118.894 E13.87496
G1 X98.356 Y117.059 E13.93599
G1 X98.35 Y116.091 E13.96818
G1 X98.356 Y114.258 E14.02915
G1 X98.35 Y113.437 E14.05646
G1 X98.35 Y113.154 E14.06587
G1 X98.359 Y112.489 E14.08799
G1 X98.408 Y111.846 E14.10944
G1 X98.536 Y111.214 E14.13089
G1 X98.741 Y110.603 E14.15232
G1 X99.02 Y110.022 E14.17376
G1 X99.369 Y109.479 E14.19523
G1 X99.782 Y108.985 E14.21664
G1 X100.253 Y108.545 E14.23808
G1 F1500 E7.23808
G1 F300 Z0.55
;MESH:pcb vice insert.stl
G0 F6000 X103.75 Y112.75 Z0.55
;TYPE:WALL-OUTER
G1 F300 Z0.2
G1 F1500 E14.23808
G1 F900 X131.25 Y112.75 E15.15273
G1 X131.25 Y113.563 E15.17978
G1 X103.75 Y113.562 E16.09443
G1 X103.75 Y112.75 E16.12144
G0 F6000 X104.15 Y112.75
G0 X104.15 Y113.15
;TYPE:WALL-INNER
G1 F900 X130.85 Y113.15 E17.00948
G1 X130.85 Y113.163 E17.00991
G1 X104.15 Y113.162 E17.89796
G1 X104.15 Y113.15 E17.89836
G1 F1500 E10.89836
G1 F300 Z0.55
G0 F6000 X103.75 Y115.838 Z0.55
;TYPE:WALL-OUTER
G1 F300 Z0.2
G1 F1500 E17.89836
G1 F900 X131.25 Y115.838 E18.81301
G1 X131.25 Y116.362 E18.83044
G1 X103.75 Y116.362 E19.74509
G1 X103.75 Y115.838 E19.76252
G0 F6000 X104.15 Y115.838
G0 X104.219 Y116.099
;TYPE:SKIN
G1 F900 X104.502 Y116.099 E19.76664
G1 X130.806 Y116.099 E20.14951
G1 X131.038 Y116.047 E20.15297
G1 F1500 E13.15297
G1 F300 Z0.55
G0 F6000 X104.023 Y116.186 Z0.55
G1 F300 Z0.2
G1 F1500 E20.15297
G1 F900 X103.924 Y116.087 E20.1553
G1 F1500 E13.1553
G1 F300 Z0.55
G0 F6000 X103.75 Y118.638 Z0.55
;TYPE:WALL-OUTER
G1 F300 Z0.2
G1 F1500 E20.1553
G1 F900 X131.25 Y118.638 E21.06996
G1 X131.25 Y119.162 E21.08738
G1 X103.75 Y119.162 E22.00204
G1 X103.75 Y118.638 E22.01947
G0 F6000 X104.15 Y118.638
G0 X104.191 Y118.899
;TYPE:SKIN
G1 F900 X104.474 Y118.899 E22.02357
G1 X130.778 Y118.899 E22.40542
G1 X131.024 Y118.862 E22.40903
G1 F1500 E15.40903
G1 F300 Z0.55
G0 F6000 X103.995 Y118.986 Z0.55
G1 F300 Z0.2
G1 F1500 E22.40903
G1 F900 X103.924 Y118.915 E22.4107
G1 F1500 E15.4107
G1 F300 Z0.55
G0 F6000 X103.75 Y121.437 Z0.55
;TYPE:WALL-OUTER
G1 F300 Z0.2
G1 F1500 E22.4107
G1 F900 X131.25 Y121.438 E23.32536
G1 X131.25 Y122.25 E23.35236
G1 X103.75 Y122.25 E24.26702
G1 X103.75 Y121.437 E24.29406
G0 F6000 X104.15 Y121.437
G0 X104.15 Y121.837
;TYPE:WALL-INNER
G1 F900 X130.85 Y121.838 E25.1821
G1 X130.85 Y121.85 E25.1825
G1 X104.15 Y121.85 E26.07055
G1 X104.15 Y121.837 E26.07098
G1 F1500 E19.07098
G1 F300 Z0.55
;MESH:pcb vice insert.stl(1)
G0 F6000 X103.75 Y128.75 Z0.55
;TYPE:WALL-OUTER
G1 F300 Z0.2
G1 F1500 E26.07098
G1 F900 X131.25 Y128.75 E26.98564
G1 X131.25 Y129.563 E27.01268
G1 X103.75 Y129.562 E27.92733
G1 X103.75 Y128.75 E27.95434
G0 F6000 X104.15 Y128.75
G0 X104.15 Y129.15
;TYPE:WALL-INNER
G1 F900 X130.85 Y129.15 E28.84238
G1 X130.85 Y129.163 E28.84282
G1 X104.15 Y129.162 E29.73086
G1 X104.15 Y129.15 E29.73126
G1 F1500 E22.73126
G1 F300 Z0.55
G0 F6000 X103.75 Y131.838 Z0.55
;TYPE:WALL-OUTER
G1 F300 Z0.2
G1 F1500 E29.73126
G1 F900 X131.25 Y131.838 E30.64591
G1 X131.25 Y132.362 E30.66334
G1 X103.75 Y132.362 E31.578
G1 X103.75 Y131.838 E31.59542
G0 F6000 X104.15 Y131.838
G0 X104.098 Y132.099
;TYPE:SKIN
G1 F900 X104.38 Y132.099 E31.59956
G1 X130.968 Y132.099 E31.98943
G1 F1500 E24.98943
G1 F300 Z0.55
G0 F6000 X131.25 Y134.638 Z0.55
;TYPE:WALL-OUTER
G1 F300 Z0.2
G1 F1500 E31.98943
G1 F900 X131.25 Y135.162 E32.00686
G1 X103.75 Y135.162 E32.92151
G1 X103.75 Y134.638 E32.93894
G1 X131.25 Y134.638 E33.8536
G0 F6000 X131.25 Y135.038
G0 X130.939 Y134.899
;TYPE:SKIN
G1 F900 X130.657 Y134.899 E33.85773
G1 X104.069 Y134.899 E34.24762
G1 F1500 E27.24762
G1 F300 Z0.55
G0 F6000 X103.75 Y137.437 Z0.55
;TYPE:WALL-OUTER
G1 F300 Z0.2
G1 F1500 E34.24762
G1 F900 X131.25 Y137.438 E35.16227
G1 X131.25 Y138.25 E35.18928
G1 X103.75 Y138.25 E36.10393
G1 X103.75 Y137.437 E36.13097
G0 F6000 X104.15 Y137.437
G0 X104.15 Y137.837
M104 S200
;TYPE:WALL-INNER
G1 F900 X130.85 Y137.838 E37.01902
G1 X130.85 Y137.85 E37.01942
G1 X104.15 Y137.85 E37.90746
G1 X104.15 Y137.837 E37.9079
G1 F1500 E30.9079
G1 F300 Z0.55
;MESH:NONMESH
G0 F6000 X103.7 Y112.7 Z0.55
;TIME_ELAPSED:92.104207
;LAYER:1
M140 S45
;MESH:pcb vice insert.stl
G0 F7500 X103.7 Y112.7 Z0.67
;TYPE:WALL-OUTER
G1 F300 Z0.32
G1 F1500 E37.9079
G1 F1200 X131.3 Y112.7 E38.45868
G1 X131.3 Y113.633 E38.4773
G1 X103.7 Y113.632 E39.02809
G1 X103.7 Y112.7 E39.04669
G0 F7500 X104.1 Y112.7
G0 X104.14 Y113.14
G0 X104.1 Y113.1
;TYPE:WALL-INNER
G1 F1200 X130.9 Y113.1 E39.58151
G1 X130.9 Y113.233 E39.58417
G1 X104.1 Y113.232 E40.11899
G1 X104.1 Y113.1 E40.12163
G1 F1500 E33.12163
G1 F300 Z0.67
G0 F7500 X103.7 Y115.768 Z0.67
;TYPE:WALL-OUTER
G1 F300 Z0.32
G1 F1500 E40.12163
G1 F1200 X131.3 Y115.768 E40.67241
G1 X131.3 Y116.432 E40.68566
G1 X103.7 Y116.432 E41.23645
G1 X103.7 Y115.768 E41.2497
G0 F7500 X104.1 Y115.768
G0 X103.991 Y116.059
;TYPE:SKIN
G1 F1200 X104.234 Y116.099 E41.25358
G1 X130.821 Y116.099 E41.67209
G1 X131.035 Y116.168 E41.67563
G1 F1500 E34.67563
G1 F300 Z0.67
G0 F7500 X131.3 Y118.568 Z0.67
;TYPE:WALL-OUTER
G1 F300 Z0.32
G1 F1500 E41.67563
G1 F1200 X131.3 Y119.232 E41.68888
G1 X103.7 Y119.232 E42.23967
G1 X103.7 Y118.568 E42.25292
G1 X131.3 Y118.568 E42.80371
G0 F7500 X131.3 Y118.968
G0 X131.049 Y118.982
;TYPE:SKIN
G1 F1200 X130.85 Y118.899 E42.80711
G1 X104.262 Y118.899 E43.22715
G1 X104.005 Y118.873 E43.23123
G1 F1500 E36.23123
G1 F300 Z0.67
