;FLAVOR:Marlin
;TIME:23804
;Filament used: 43.3664m
;Layer height: 0.3
;MINX:32.2
;MINY:97.2
;MINZ:0.3
;MAXX:202.8
;MAXY:143.625
;MAXZ:55.2
;Generated with Cura_SteamEngine 4.7.0
M140 S60
M105
M190 S60
M104 S205
M105
M109 S205
M82 ;absolute extrusion mode
M201 X500.00 Y500.00 Z100.00 E5000.00 ;Setup machine max acceleration
M203 X500.00 Y500.00 Z10.00 E75.00 ;Setup machine max feedrate
M204 P500.00 R1000.00 T500.00 ;Setup Print/Retract/Travel acceleration
M205 X8.00 Y8.00 Z0.40 E5.00 ;Setup Jerk
M220 S100 ;Reset Feedrate
M221 S100 ;Reset Flowrate

G21 ; (metric values)
G90 ; (absolute positioning)
M82 ; (set extruder to absolute mode)
G28 ; (home all axis)
G29 ; (Auto Level)

G92 E0 ;Reset Extruder
G1 Z2.0 F3000 ;Move Z Axis up
G1 X1.1 Y50 Z0.28 F5000.0 ;Move to start position
G1 X1.1 Y200.0 Z0.28 F1500.0 E15 ;Draw the first line
G1 X1.4 Y200.0 Z0.28 F5000.0 ;Move to side a little
G1 X1.4 Y100 Z0.28 F1500.0 E30 ;Draw the second line
G92 E0 ;Reset Extruder
G1 Z2.0 F3000 ;Move Z Axis up
G92 E0
G92 E0
G1 F1500 E-7
;LAYER_COUNT:183
;LAYER:0
M107
G1 F300 Z0.6
G0 F6000 X35.799 Y97.492 Z0.6
;TYPE:SKIRT
G1 F300 Z0.3
G1 F1500 E0
G1 F900 X36.427 Y97.321 E0.04968
G1 X37.36 Y97.211 E0.12139
G1 X37.681 Y97.202 E0.14591
G1 X37.83 Y97.2 E0.15728
G1 X196.793 Y97.2 E12.29124
G1 X197.567 Y97.211 E12.35033
G1 X198.216 Y97.26 E12.40001
G1 X198.854 Y97.388 E12.44968
G1 X199.471 Y97.594 E12.49934
G1 X200.059 Y97.874 E12.54905
G1 X200.608 Y98.223 E12.5987
G1 X201.11 Y98.638 E12.64842
G1 X201.557 Y99.111 E12.6981
G1 X201.943 Y99.635 E12.74778
G1 X202.262 Y100.202 E12.79744
G1 X202.509 Y100.804 E12.84711
G1 X202.68 Y101.432 E12.89679
G1 X202.789 Y102.361 E12.96819
G1 X202.798 Y102.681 E12.99262
G1 X202.8 Y102.83 E13.004
G1 X202.799 Y111.848 E13.69236
G1 X202.781 Y113.132 E13.79038
G1 X202.781 Y115.895 E14.00128
G1 X202.798 Y116.717 E14.06404
G1 X202.8 Y116.94 E14.08107
G1 X202.8 Y137.655 E15.66228
G1 X202.791 Y138.382 E15.71778
G1 X202.743 Y139.031 E15.76746
G1 X202.615 Y139.669 E15.81713
G1 X202.411 Y140.287 E15.8668
G1 X202.132 Y140.875 E15.91648
G1 X201.784 Y141.425 E15.96616
G1 X201.37 Y141.927 E16.01583
G1 X200.898 Y142.376 E16.06556
G1 X200.375 Y142.763 E16.11522
G1 X199.808 Y143.083 E16.16492
G1 X199.207 Y143.331 E16.21455
G1 X198.579 Y143.503 E16.26425
G1 X197.64 Y143.614 E16.33642
G1 X197.319 Y143.623 E16.36093
G1 X197.17 Y143.625 E16.37231
G1 X38.139 Y143.625 E28.51146
G1 X37.441 Y143.616 E28.56475
G1 X36.792 Y143.567 E28.61443
G1 X36.153 Y143.44 E28.66416
G1 X35.536 Y143.235 E28.71379
G1 X34.948 Y142.956 E28.76347
G1 X34.398 Y142.607 E28.81319
G1 X33.896 Y142.193 E28.86286
G1 X33.448 Y141.721 E28.91253
G1 X33.061 Y141.198 E28.96219
G1 X32.741 Y140.631 E29.01189
G1 X32.493 Y140.029 E29.06159
G1 X32.321 Y139.401 E29.11129
G1 X32.211 Y138.459 E29.18368
G1 X32.202 Y138.126 E29.20911
G1 X32.2 Y137.983 E29.22003
G1 X32.201 Y117.31 E30.79804
G1 X32.219 Y116.043 E30.89476
G1 X32.219 Y113.28 E31.10567
G1 X32.202 Y112.458 E31.16843
G1 X32.2 Y112.235 E31.18545
G1 X32.2 Y103.102 E31.88259
G1 X32.209 Y102.437 E31.93336
G1 X32.258 Y101.788 E31.98304
G1 X32.386 Y101.15 E32.03271
G1 X32.591 Y100.532 E32.08241
G1 X32.871 Y99.945 E32.13205
G1 X33.22 Y99.395 E32.18177
G1 X33.634 Y98.893 E32.23144
G1 X34.106 Y98.446 E32.28106
G1 X34.63 Y98.059 E32.33079
G1 X35.197 Y97.74 E32.38045
G1 X35.471 Y97.627 E32.40307
G0 F810 X35.799 Y97.492
G1 F1500 E25.40307
G1 F300 Z0.6
;MESH:10mm-spacer.stl
G0 F6000 X37.8 Y102.8 Z0.6
;TYPE:WALL-OUTER
G1 F300 Z0.3
G1 F1500 E32.40307
G1 F900 X197.2 Y102.8 E44.57039
G1 X197.2 Y112.2 E45.28791
G1 X37.8 Y112.2 E57.45523
G1 X37.8 Y103.155 E58.14566
G0 F810 X37.8 Y102.8
G0 F6000 X38 Y102.8
G0 X38.46 Y103.46
G0 X38.4 Y103.4
;TYPE:WALL-INNER
G1 F900 X196.6 Y103.4 E70.22138
G1 X196.6 Y111.6 E70.8473
G1 X38.4 Y111.6 E82.92303
G1 X38.4 Y103.755 E83.52185
G0 F810 X38.4 Y103.4
G0 F6000 X39 Y104
G1 F900 X196 Y104 E95.50598
G1 X196 Y111 E96.0403
G1 X39 Y111 E108.02443
G1 X39 Y104.355 E108.53165
G0 F810 X39 Y104
G0 F6000 X39.59 Y104.59
;TYPE:SKIN
G1 F900 X195.41 Y104.59 E120.42571
G1 X195.41 Y110.41 E120.86996
G1 X39.59 Y110.41 E132.76401
G1 X39.59 Y104.945 E133.18117
G0 F810 X39.59 Y104.59
G1 F1500 E126.18117
G1 F300 Z0.6
G0 F6000 X40.59 Y110.169 Z0.6
G1 F300 Z0.3
G1 F1500 E133.18117
G1 F900 X39.83 Y109.409 E133.26321
G0 F6000 X39.83 Y108.561
G1 F900 X41.438 Y110.169 E133.43679
G0 F6000 X42.287 Y110.169
G1 F900 X39.83 Y107.712 E133.70203
G0 F6000 X39.83 Y106.864
G1 F900 X43.135 Y110.169 E134.0588
G0 F6000 X43.984 Y110.169
G1 F900 X39.83 Y106.015 E134.50722
G0 F6000 X39.83 Y105.167
G1 F900 X44.832 Y110.169 E135.04719
G0 F6000 X45.681 Y110.169
G1 F900 X40.341 Y104.829 E135.62364
G0 F6000 X41.19 Y104.829
G1 F900 X46.529 Y110.169 E136.20004
G0 F6000 X47.378 Y110.169
G1 F900 X42.038 Y104.829 E136.77649
G0 F6000 X42.887 Y104.829
G1 F900 X48.226 Y110.169 E137.35289
G0 F6000 X49.075 Y110.169
G1 F900 X43.735 Y104.829 E137.92934
G0 F6000 X44.584 Y104.829
G1 F900 X49.923 Y110.169 E138.50574
G0 F6000 X50.772 Y110.169
G1 F900 X45.433 Y104.829 E139.08213
G0 F6000 X46.281 Y104.829
G1 F900 X51.62 Y110.169 E139.65853
G0 F6000 X52.469 Y110.169
G1 F900 X47.13 Y104.829 E140.23493
G0 F6000 X47.978 Y104.829
G1 F900 X53.317 Y110.169 E140.81133
G0 F6000 X54.166 Y110.169
G1 F900 X48.827 Y104.829 E141.38773
G0 F6000 X49.675 Y104.829
G1 F900 X55.015 Y110.169 E141.96418
G0 F6000 X55.863 Y110.169
G1 F900 X50.524 Y104.829 E142.54058
G0 F6000 X51.372 Y104.829
G1 F900 X56.712 Y110.169 E143.11703
G0 F6000 X57.56 Y110.169
G1 F900 X52.221 Y104.829 E143.69342
G0 F6000 X53.069 Y104.829
G1 F900 X58.409 Y110.169 E144.26988
G0 F6000 X59.257 Y110.169
G1 F900 X53.918 Y104.829 E144.84627
G0 F6000 X54.766 Y104.829
G1 F900 X60.106 Y110.169 E145.42273
G0 F6000 X60.954 Y110.169
G1 F900 X55.615 Y104.829 E145.99912
G0 F6000 X56.463 Y104.829
G1 F900 X61.803 Y110.169 E146.57558
G0 F6000 X62.651 Y110.169
G1 F900 X57.312 Y104.829 E147.15197
G0 F6000 X58.16 Y104.829
G1 F900 X63.5 Y110.169 E147.72842
G0 F6000 X64.348 Y110.169
G1 F900 X59.009 Y104.829 E148.30482
G0 F6000 X59.858 Y104.829
G1 F900 X65.197 Y110.169 E148.88122
G0 F6000 X66.045 Y110.169
G1 F900 X60.706 Y104.829 E149.45762
G0 F6000 X61.555 Y104.829
G1 F900 X66.894 Y110.169 E150.03402
G0 F6000 X67.742 Y110.169
G1 F900 X62.403 Y104.829 E150.61041
G0 F6000 X63.252 Y104.829
G1 F900 X68.591 Y110.169 E151.18681
G0 F6000 X69.44 Y110.169
G1 F900 X64.1 Y104.829 E151.76326
G0 F6000 X64.949 Y104.829
G1 F900 X70.288 Y110.169 E152.33966
G0 F6000 X71.137 Y110.169
G1 F900 X65.797 Y104.829 E152.91611
G0 F6000 X66.646 Y104.829
G1 F900 X71.985 Y110.169 E153.49251
G0 F6000 X72.834 Y110.169
G1 F900 X67.494 Y104.829 E154.06896
G0 F6000 X68.343 Y104.829
G1 F900 X73.682 Y110.169 E154.64536
G0 F6000 X74.531 Y110.169
G1 F900 X69.191 Y104.829 E155.22181
G0 F6000 X70.04 Y104.829
G1 F900 X75.379 Y110.169 E155.79821
G0 F6000 X76.228 Y110.169
G1 F900 X70.888 Y104.829 E156.37466
G0 F6000 X71.737 Y104.829
G1 F900 X77.076 Y110.169 E156.95106
G0 F6000 X77.925 Y110.169
G1 F900 X72.585 Y104.829 E157.52751
G0 F6000 X73.434 Y104.829
G1 F900 X78.773 Y110.169 E158.10391
G0 F6000 X79.622 Y110.169
G1 F900 X74.282 Y104.829 E158.68036
G0 F6000 X75.131 Y104.829
G1 F900 X80.47 Y110.169 E159.25676
G0 F6000 X81.319 Y110.169
G1 F900 X75.98 Y104.829 E159.83316
G0 F6000 X76.828 Y104.829
G1 F900 X82.167 Y110.169 E160.40955
G0 F6000 X83.016 Y110.169
G1 F900 X77.677 Y104.829 E160.98595
G0 F6000 X78.525 Y104.829
G1 F900 X83.864 Y110.169 E161.56235
G0 F6000 X84.713 Y110.169
G1 F900 X79.374 Y104.829 E162.13875
G0 F6000 X80.222 Y104.829
G1 F900 X85.562 Y110.169 E162.7152
G0 F6000 X86.41 Y110.169
G1 F900 X81.071 Y104.829 E163.2916
G0 F6000 X81.919 Y104.829
G1 F900 X87.259 Y110.169 E163.86805
G0 F6000 X88.107 Y110.169
G1 F900 X82.768 Y104.829 E164.44445
G0 F6000 X83.616 Y104.829
G1 F900 X88.956 Y110.169 E165.0209
G0 F6000 X89.804 Y110.169
G1 F900 X84.465 Y104.829 E165.5973
G0 F6000 X85.313 Y104.829
G1 F900 X90.653 Y110.169 E166.17375
G0 F6000 X91.501 Y110.169
G1 F900 X86.162 Y104.829 E166.75014
G0 F6000 X87.01 Y104.829
G1 F900 X92.35 Y110.169 E167.3266
G0 F6000 X93.198 Y110.169
G1 F900 X87.859 Y104.829 E167.90299
G0 F6000 X88.707 Y104.829
G1 F900 X94.047 Y110.169 E168.47945
G0 F6000 X94.895 Y110.169
G1 F900 X89.556 Y104.829 E169.05584
G0 F6000 X90.405 Y104.829
G1 F900 X95.744 Y110.169 E169.63224
G0 F6000 X96.592 Y110.169
G1 F900 X91.253 Y104.829 E170.20864
G0 F6000 X92.102 Y104.829
G1 F900 X97.441 Y110.169 E170.78504
G0 F6000 X98.289 Y110.169
G1 F900 X92.95 Y104.829 E171.36144
G0 F6000 X93.799 Y104.829
G1 F900 X99.138 Y110.169 E171.93783
G0 F6000 X99.987 Y110.169
G1 F900 X94.647 Y104.829 E172.51428
G0 F6000 X95.496 Y104.829
G1 F900 X100.835 Y110.169 E173.09068
G0 F6000 X101.684 Y110.169
G1 F900 X96.344 Y104.829 E173.66713
G0 F6000 X97.193 Y104.829
G1 F900 X102.532 Y110.169 E174.24353
G0 F6000 X103.381 Y110.169
G1 F900 X98.041 Y104.829 E174.81998
G0 F6000 X98.89 Y104.829
G1 F900 X104.229 Y110.169 E175.39638
G0 F6000 X105.078 Y110.169
G1 F900 X99.738 Y104.829 E175.97283
G0 F6000 X100.587 Y104.829
G1 F900 X105.926 Y110.169 E176.54923
G0 F6000 X106.775 Y110.169
G1 F900 X101.435 Y104.829 E177.12568
G0 F6000 X102.284 Y104.829
G1 F900 X107.623 Y110.169 E177.70208
G0 F6000 X108.472 Y110.169
G1 F900 X103.132 Y104.829 E178.27853
G0 F6000 X103.981 Y104.829
G1 F900 X109.32 Y110.169 E178.85493
G0 F6000 X110.169 Y110.169
G1 F900 X104.829 Y104.829 E179.43138
G0 F6000 X105.678 Y104.829
G1 F900 X111.017 Y110.169 E180.00778
G0 F6000 X111.866 Y110.169
G1 F900 X106.527 Y104.829 E180.58418
G0 F6000 X107.375 Y104.829
G1 F900 X112.714 Y110.169 E181.16057
G0 F6000 X113.563 Y110.169
G1 F900 X108.224 Y104.829 E181.73697
G0 F6000 X109.072 Y104.829
G1 F900 X114.411 Y110.169 E182.31337
G0 F6000 X115.26 Y110.169
G1 F900 X109.921 Y104.829 E182.88977
G0 F6000 X110.769 Y104.829
G1 F900 X116.109 Y110.169 E183.46622
G0 F6000 X116.957 Y110.169
G1 F900 X111.618 Y104.829 E184.04262
G0 F6000 X112.466 Y104.829
G1 F900 X117.806 Y110.169 E184.61907
G0 F6000 X118.654 Y110.169
G1 F900 X113.315 Y104.829 E185.19547
G0 F6000 X114.163 Y104.829
G1 F900 X119.503 Y110.169 E185.77192
G0 F6000 X120.351 Y110.169
G1 F900 X115.012 Y104.829 E186.34832
G0 F6000 X115.86 Y104.829
G1 F900 X121.2 Y110.169 E186.92477
G0 F6000 X122.048 Y110.169
G1 F900 X116.709 Y104.829 E187.50117
G0 F6000 X117.557 Y104.829
G1 F900 X122.897 Y110.169 E188.07762
G0 F6000 X123.745 Y110.169
G1 F900 X118.406 Y104.829 E188.65402
G0 F6000 X119.254 Y104.829
G1 F900 X124.594 Y110.169 E189.23047
G0 F6000 X125.442 Y110.169
G1 F900 X120.103 Y104.829 E189.80687
G0 F6000 X120.952 Y104.829
G1 F900 X126.291 Y110.169 E190.38326
G0 F6000 X127.139 Y110.169
G1 F900 X121.8 Y104.829 E190.95966
G0 F6000 X122.649 Y104.829
G1 F900 X127.988 Y110.169 E191.53606
G0 F6000 X128.836 Y110.169
G1 F900 X123.497 Y104.829 E192.11246
G0 F6000 X124.346 Y104.829
G1 F900 X129.685 Y110.169 E192.68885
G0 F6000 X130.534 Y110.169
G1 F900 X125.194 Y104.829 E193.26531
G0 F6000 X126.043 Y104.829
G1 F900 X131.382 Y110.169 E193.8417
G0 F6000 X132.231 Y110.169
G1 F900 X126.891 Y104.829 E194.41816
G0 F6000 X127.74 Y104.829
G1 F900 X133.079 Y110.169 E194.99455
G0 F6000 X133.928 Y110.169
G1 F900 X128.588 Y104.829 E195.571
G0 F6000 X129.437 Y104.829
G1 F900 X134.776 Y110.169 E196.1474
G0 F6000 X135.625 Y110.169
G1 F900 X130.285 Y104.829 E196.72385
G0 F6000 X131.134 Y104.829
G1 F900 X136.473 Y110.169 E197.30025
G0 F6000 X137.322 Y110.169
G1 F900 X131.982 Y104.829 E197.8767
G0 F6000 X132.831 Y104.829
G1 F900 X138.17 Y110.169 E198.4531
G0 F6000 X139.019 Y110.169
G1 F900 X133.679 Y104.829 E199.02955
G0 F6000 X134.528 Y104.829
G1 F900 X139.867 Y110.169 E199.60595
G0 F6000 X140.716 Y110.169
G1 F900 X135.377 Y104.829 E200.18235
G0 F6000 X136.225 Y104.829
G1 F900 X141.564 Y110.169 E200.75875
G0 F6000 X142.413 Y110.169
G1 F900 X137.074 Y104.829 E201.33514
G0 F6000 X137.922 Y104.829
G1 F900 X143.261 Y110.169 E201.91154
G0 F6000 X144.11 Y110.169
G1 F900 X138.771 Y104.829 E202.48794
G0 F6000 X139.619 Y104.829
G1 F900 X144.959 Y110.169 E203.06439
G0 F6000 X145.807 Y110.169
G1 F900 X140.468 Y104.829 E203.64079
G0 F6000 X141.316 Y104.829
G1 F900 X146.656 Y110.169 E204.21724
G0 F6000 X147.504 Y110.169
G1 F900 X142.165 Y104.829 E204.79364
G0 F6000 X143.013 Y104.829
G1 F900 X148.353 Y110.169 E205.37009
G0 F6000 X149.201 Y110.169
G1 F900 X143.862 Y104.829 E205.94649
G0 F6000 X144.71 Y104.829
G1 F900 X150.05 Y110.169 E206.52294
G0 F6000 X150.898 Y110.169
G1 F900 X145.559 Y104.829 E207.09934
G0 F6000 X146.407 Y104.829
G1 F900 X151.747 Y110.169 E207.67579
G0 F6000 X152.595 Y110.169
G1 F900 X147.256 Y104.829 E208.25219
G0 F6000 X148.104 Y104.829
G1 F900 X153.444 Y110.169 E208.82864
G0 F6000 X154.292 Y110.169
G1 F900 X148.953 Y104.829 E209.40504
G0 F6000 X149.801 Y104.829
G1 F900 X155.141 Y110.169 E209.98149
G0 F6000 X155.989 Y110.169
G1 F900 X150.65 Y104.829 E210.55789
G0 F6000 X151.499 Y104.829
G1 F900 X156.838 Y110.169 E211.13428
G0 F6000 X157.686 Y110.169
G1 F900 X152.347 Y104.829 E211.71068
G0 F6000 X153.196 Y104.829
G1 F900 X158.535 Y110.169 E212.28708
G0 F6000 X159.383 Y110.169
G1 F900 X154.044 Y104.829 E212.86348
G0 F6000 X154.893 Y104.829
G1 F900 X160.232 Y110.169 E213.43988
G0 F6000 X161.081 Y110.169
G1 F900 X155.741 Y104.829 E214.01633
G0 F6000 X156.59 Y104.829
G1 F900 X161.929 Y110.169 E214.59272
G0 F6000 X162.778 Y110.169
G1 F900 X157.438 Y104.829 E215.16918
G0 F6000 X158.287 Y104.829
G1 F900 X163.626 Y110.169 E215.74557
G0 F6000 X164.475 Y110.169
G1 F900 X159.135 Y104.829 E216.32203
G0 F6000 X159.984 Y104.829
G1 F900 X165.323 Y110.169 E216.89842
G0 F6000 X166.172 Y110.169
G1 F900 X160.832 Y104.829 E217.47488
G0 F6000 X161.681 Y104.829
G1 F900 X167.02 Y110.169 E218.05127
G0 F6000 X167.869 Y110.169
G1 F900 X162.529 Y104.829 E218.62772
G0 F6000 X163.378 Y104.829
G1 F900 X168.717 Y110.169 E219.20412
G0 F6000 X169.566 Y110.169
G1 F900 X164.226 Y104.829 E219.78057
G0 F6000 X165.075 Y104.829
G1 F900 X170.414 Y110.169 E220.35697
G0 F6000 X171.263 Y110.169
G1 F900 X165.924 Y104.829 E220.93337
G0 F6000 X166.772 Y104.829
G1 F900 X172.111 Y110.169 E221.50977
G0 F6000 X172.96 Y110.169
G1 F900 X167.621 Y104.829 E222.08617
G0 F6000 X168.469 Y104.829
G1 F900 X173.808 Y110.169 E222.66256
G0 F6000 X174.657 Y110.169
G1 F900 X169.318 Y104.829 E223.23896
G0 F6000 X170.166 Y104.829
G1 F900 X175.506 Y110.169 E223.81541
G0 F6000 X176.354 Y110.169
G1 F900 X171.015 Y104.829 E224.39181
G0 F6000 X171.863 Y104.829
G1 F900 X177.203 Y110.169 E224.96826
G0 F6000 X178.051 Y110.169
G1 F900 X172.712 Y104.829 E225.54466
G0 F6000 X173.56 Y104.829
G1 F900 X178.9 Y110.169 E226.12111
G0 F6000 X179.748 Y110.169
G1 F900 X174.409 Y104.829 E226.69751
G0 F6000 X175.257 Y104.829
G1 F900 X180.597 Y110.169 E227.27396
G0 F6000 X181.445 Y110.169
G1 F900 X176.106 Y104.829 E227.85036
G0 F6000 X176.954 Y104.829
G1 F900 X182.294 Y110.169 E228.42681
G0 F6000 X183.142 Y110.169
G1 F900 X177.803 Y104.829 E229.00321
G0 F6000 X178.651 Y104.829
G1 F900 X183.991 Y110.169 E229.57966
G0 F6000 X184.839 Y110.169
G1 F900 X179.5 Y104.829 E230.15606
G0 F6000 X180.348 Y104.829
G1 F900 X185.688 Y110.169 E230.73251
G0 F6000 X186.536 Y110.169
G1 F900 X181.197 Y104.829 E231.30891
G0 F6000 X182.046 Y104.829
G1 F900 X187.385 Y110.169 E231.88531
G0 F6000 X188.233 Y110.169
G1 F900 X182.894 Y104.829 E232.4617
G0 F6000 X183.743 Y104.829
G1 F900 X189.082 Y110.169 E233.0381
G0 F6000 X189.931 Y110.169
G1 F900 X184.591 Y104.829 E233.61455
G0 F6000 X185.44 Y104.829
G1 F900 X190.779 Y110.169 E234.19095
G0 F6000 X191.628 Y110.169
G1 F900 X186.288 Y104.829 E234.7674
