;FLAVOR:Marlin
;TIME:17972
;Filament used: 62.5885m
;Layer height: 0.4
;MINX:50.61
;MINY:58.11
;MINZ:0.4
;MAXX:184.35
;MAXY:176.89
;MAXZ:74.06
;Generated with Cura_SteamEngine 4.7.0
M140 S60
M105
M190 S60
M104 S215
M105
M109 S215
M82 ;absolute extrusion mode
M201 X500.00 Y500.00 Z100.00 E5000.00 ;Setup machine max acceleration
M203 X500.00 Y500.00 Z10.00 E75.00 ;Setup machine max feedrate
M204 P500.00 R1000.00 T500.00 ;Setup Print/Retract/Travel acceleration
M205 X8.00 Y8.00 Z0.40 E5.00 ;Setup Jerk
M220 S100 ;Reset Feedrate
M221 S100 ;Reset Flowrate

G21 ; (metric values)
G90 ; (absolute positioning)
M82 ; (set extruder to absolute mode)
G28 ; (home all axis)
G29 ; (Auto Level)

G92 E0 ;Reset Extruder
G1 Z2.0 F3000 ;Move Z Axis up
G1 X1.1 Y50 Z0.28 F5000.0 ;Move to start position
G1 X1.1 Y200.0 Z0.28 F1500.0 E15 ;Draw the first line
G1 X1.4 Y200.0 Z0.28 F5000.0 ;Move to side a little
G1 X1.4 Y100 Z0.28 F1500.0 E30 ;Draw the second line
G92 E0 ;Reset Extruder
G1 Z2.0 F3000 ;Move Z Axis up
G92 E0
G92 E0
G1 F1500 E-7
;LAYER_COUNT:134
;LAYER:0
M107
G1 F300 Z0.8
G0 F6000 X169.51 Y73.44 Z0.8
;TYPE:SKIRT
G1 F300 Z0.4
G1 F1500 E0
G1 F900 X169.59 Y73.498 E0.01207
G1 X170.316 Y74.086 E0.12617
G1 X171.477 Y75.112 E0.3154
G1 X172.384 Y76.023 E0.4724
G1 X173.232 Y76.965 E0.6272
G1 X173.583 Y77.402 E0.69565
G1 X173.979 Y77.882 E0.77165
G1 X174.702 Y78.866 E0.92078
G1 X175.403 Y79.936 E1.07701
G1 X176.01 Y80.964 E1.22281
G1 X176.522 Y81.948 E1.35828
G1 X176.589 Y82.073 E1.37561
G1 X176.855 Y82.652 E1.45342
G1 X177.539 Y84.295 E1.67078
G1 X177.87 Y85.272 E1.79676
G1 X177.937 Y85.461 E1.82126
G1 X178.164 Y86.266 E1.9234
G1 X178.574 Y87.909 E2.13022
G1 X178.785 Y89.119 E2.28023
G1 X178.923 Y90.21 E2.41454
G1 X179.046 Y91.866 E2.61734
G1 X179.06 Y92.414 E2.68429
G1 X179.059 Y142.254 E8.77131
G1 X179.027 Y143.251 E8.89314
G1 X179.024 Y143.5 E8.92355
G1 X178.934 Y144.641 E9.06334
G1 X178.75 Y146.066 E9.23882
G1 X178.572 Y147.053 E9.36131
G1 X178.541 Y147.244 E9.38494
G1 X178.288 Y148.328 E9.52089
G1 X177.942 Y149.528 E9.67341
G1 X177.528 Y150.737 E9.82949
G1 X177.07 Y151.884 E9.98033
G1 X176.612 Y152.874 E10.11355
G1 X176.525 Y153.026 E10.13494
G1 X176.012 Y154.027 E10.27231
G1 X175.374 Y155.113 E10.42614
G1 X174.655 Y156.203 E10.58562
G1 X174.266 Y156.73 E10.66562
G1 X173.165 Y158.114 E10.88161
G1 X172.309 Y159.06 E11.03742
G1 X171.566 Y159.807 E11.1661
G1 X170.534 Y160.733 E11.33544
G1 X170.045 Y161.124 E11.41191
G1 X169.589 Y161.504 E11.4844
G1 X169.51 Y161.562 E11.49637
G1 X169.51 Y73.662 E22.2317
G0 F810 X169.51 Y73.44
G0 F6000 X170.04 Y72.936
G1 F900 X170.76 Y73.519 E22.34485
G1 X171.979 Y74.596 E22.54351
G1 X172.921 Y75.542 E22.70656
G1 X173.778 Y76.494 E22.863
G1 X174.138 Y76.943 E22.93329
G1 X174.547 Y77.439 E23.0118
G1 X175.295 Y78.456 E23.16599
G1 X176.011 Y79.55 E23.32567
G1 X176.636 Y80.608 E23.47575
G1 X177.156 Y81.607 E23.6133
G1 X177.234 Y81.753 E23.63351
G1 X177.51 Y82.351 E23.71395
G1 X178.216 Y84.05 E23.93865
G1 X178.549 Y85.031 E24.06518
G1 X178.622 Y85.237 E24.09187
G1 X178.853 Y86.055 E24.19568
G1 X179.279 Y87.763 E24.41067
G1 X179.501 Y89.034 E24.56825
G1 X179.639 Y90.125 E24.70256
G1 X179.766 Y91.836 E24.9121
G1 X179.78 Y92.395 E24.98039
G1 X179.779 Y142.277 E31.07254
G1 X179.745 Y143.356 E31.20438
G1 X179.744 Y143.534 E31.22612
G1 X179.651 Y144.708 E31.36996
G1 X179.461 Y146.187 E31.55207
G1 X179.281 Y147.181 E31.67545
G1 X179.252 Y147.367 E31.69844
G1 X178.983 Y148.518 E31.8428
G1 X178.632 Y149.733 E31.99725
G1 X178.202 Y150.993 E32.15985
G1 X177.732 Y152.17 E32.31464
G1 X177.26 Y153.189 E32.45179
G1 X177.166 Y153.354 E32.47499
G1 X176.642 Y154.378 E32.61547
G1 X175.991 Y155.484 E32.77221
G1 X175.249 Y156.61 E32.9369
G1 X174.836 Y157.169 E33.02179
G1 X173.709 Y158.586 E33.24291
G1 X172.833 Y159.553 E33.40227
G1 X172.058 Y160.333 E33.53656
G1 X170.994 Y161.288 E33.71117
G1 X170.443 Y161.729 E33.79736
G1 X170.03 Y162.074 E33.86309
G1 X169.064 Y162.785 E34.00958
G1 X168.79 Y162.965 E34.04962
G1 X168.79 Y72.034 E45.15513
G1 X169.006 Y72.177 E45.18677
G1 X169.861 Y72.805 E45.31633
G0 F810 X170.04 Y72.936
G0 F6000 X170.455 Y72.346
G1 F900 X171.242 Y72.984 E45.44006
G1 X172.465 Y74.064 E45.63933
G1 X173.438 Y75.041 E45.80774
G1 X174.324 Y76.025 E45.96945
G1 X174.693 Y76.485 E46.04147
G1 X175.116 Y76.997 E46.12258
G1 X175.885 Y78.043 E46.28114
G1 X176.628 Y79.179 E46.44692
G1 X177.265 Y80.257 E46.59985
G1 X177.791 Y81.267 E46.73893
G1 X177.877 Y81.426 E46.761
G1 X178.17 Y82.064 E46.84675
G1 X178.891 Y83.797 E47.07599
G1 X179.227 Y84.789 E47.2039
G1 X179.31 Y85.023 E47.23423
G1 X179.551 Y85.875 E47.34237
G1 X179.982 Y87.606 E47.56023
G1 X180.213 Y88.927 E47.72401
G1 X180.356 Y90.058 E47.86324
G1 X180.486 Y91.805 E48.0772
G1 X180.5 Y92.377 E48.14708
G1 X180.499 Y142.269 E54.24045
G1 X180.465 Y143.361 E54.37388
G1 X180.464 Y143.568 E54.39916
G1 X180.367 Y144.793 E54.54924
G1 X180.176 Y146.272 E54.73137
G1 X179.989 Y147.309 E54.86006
G1 X179.96 Y147.5 E54.88366
G1 X179.677 Y148.711 E55.03554
G1 X179.325 Y149.931 E55.19062
G1 X178.878 Y151.242 E55.35979
G1 X178.397 Y152.447 E55.51825
G1 X177.903 Y153.513 E55.66174
G1 X177.807 Y153.682 E55.68548
G1 X177.277 Y154.716 E55.82738
G1 X176.594 Y155.879 E55.99211
G1 X175.842 Y157.018 E56.1588
G1 X175.404 Y157.613 E56.24903
G1 X174.254 Y159.058 E56.47458
G1 X173.422 Y159.975 E56.6258
G1 X173.366 Y160.039 E56.63619
G1 X172.55 Y160.86 E56.77756
G1 X171.465 Y161.832 E56.95547
G1 X170.904 Y162.282 E57.0433
G1 X170.481 Y162.635 E57.11059
G1 X169.47 Y163.38 E57.26397
G1 X168.483 Y164.027 E57.4081
G1 X168.391 Y164.089 E57.42165
G1 X168.284 Y164.149 E57.43663
G1 X168.07 Y164.275 E57.46696
G1 X168.07 Y70.72 E68.89295
G1 X168.422 Y70.928 E68.94288
G1 X169.446 Y71.605 E69.09281
G1 X170.276 Y72.215 E69.21861
G0 F810 X170.455 Y72.346
G0 F6000 X170.905 Y71.784
G1 F900 X171.698 Y72.426 E69.34322
G1 X172.968 Y73.548 E69.55019
G1 X173.956 Y74.54 E69.72118
G1 X174.878 Y75.565 E69.88956
G1 X175.249 Y76.027 E69.96192
G1 X175.683 Y76.553 E70.04521
G1 X176.484 Y77.642 E70.21031
G1 X177.23 Y78.782 E70.3767
G1 X177.847 Y79.828 E70.52502
G1 X177.895 Y79.907 E70.53631
G1 X178.425 Y80.926 E70.67659
G1 X178.522 Y81.106 E70.70156
G1 X178.834 Y81.786 E70.79294
G1 X179.563 Y83.538 E71.02469
G1 X179.905 Y84.548 E71.15493
G1 X179.998 Y84.809 E71.18877
G1 X180.242 Y85.673 E71.29841
G1 X180.691 Y87.472 E71.52487
G1 X180.921 Y88.796 E71.68899
G1 X181.073 Y89.991 E71.83611
G1 X181.205 Y91.775 E72.05459
G1 X181.22 Y92.354 E72.12533
G1 X181.219 Y142.292 E78.22432
G1 X181.185 Y143.366 E78.35555
G1 X181.183 Y143.603 E78.3845
G1 X181.084 Y144.86 E78.53849
G1 X180.887 Y146.393 E78.72726
G1 X180.689 Y147.491 E78.86352
G1 X180.667 Y147.636 E78.88143
G1 X180.372 Y148.9 E79.03996
G1 X180.01 Y150.155 E79.19948
G1 X179.609 Y151.327 E79.35076
G1 X179.55 Y151.497 E79.37274
G1 X179.057 Y152.733 E79.53526
G1 X178.54 Y153.851 E79.6857
G1 X178.527 Y153.871 E79.68861
G1 X178.448 Y154.01 E79.70814
G1 X177.907 Y155.067 E79.85316
G1 X177.211 Y156.25 E80.02079
G1 X176.428 Y157.438 E80.19456
G1 X175.987 Y158.035 E80.28521
G1 X174.798 Y159.53 E80.5185
G1 X173.961 Y160.452 E80.67058
G1 X173.89 Y160.532 E80.68365
G1 X173.042 Y161.386 E80.83063
G1 X171.937 Y162.377 E81.01191
G1 X171.365 Y162.835 E81.1014
G1 X170.922 Y163.205 E81.1719
G1 X169.891 Y163.965 E81.32833
G1 X168.909 Y164.608 E81.47168
G1 X168.774 Y164.701 E81.4917
G1 X168.65 Y164.769 E81.50898
G1 X167.577 Y165.402 E81.66113
G1 X167.35 Y165.52 E81.69237
G1 X167.35 Y69.479 E93.42198
G1 X167.657 Y69.641 E93.46437
G1 X168.789 Y70.308 E93.62484
G1 X169.851 Y71.01 E93.78032
G1 X170.726 Y71.653 E93.91293
G0 F810 X170.905 Y71.784
G0 F6000 X171.361 Y71.226
G1 F900 X172.168 Y71.879 E94.03972
G1 X173.454 Y73.017 E94.24944
G1 X174.482 Y74.048 E94.42726
G1 X175.426 Y75.096 E94.59952
G1 X175.804 Y75.568 E94.67338
G1 X176.245 Y76.102 E94.75796
G1 X177.073 Y77.229 E94.92876
G1 X177.847 Y78.411 E95.10131
G1 X178.521 Y79.551 E95.26305
G1 X179.059 Y80.586 E95.40552
G1 X179.17 Y80.793 E95.4342
G1 X179.495 Y81.498 E95.52901
G1 X180.238 Y83.285 E95.76538
G1 X180.584 Y84.306 E95.89704
G1 X180.682 Y84.581 E95.93269
G1 X180.941 Y85.499 E96.04919
G1 X181.393 Y87.313 E96.27751
G1 X181.638 Y88.714 E96.45121
G1 X181.789 Y89.904 E96.59771
G1 X181.923 Y91.724 E96.82059
G1 X181.94 Y92.381 E96.90086
G1 X181.939 Y142.319 E102.99985
G1 X181.905 Y143.371 E103.1284
G1 X181.903 Y143.623 E103.15917
G1 X181.798 Y144.947 E103.32138
G1 X181.599 Y146.494 E103.51188
G1 X181.401 Y147.598 E103.64886
G1 X181.375 Y147.771 E103.67023
G1 X181.073 Y149.066 E103.83263
G1 X180.692 Y150.385 E104.00031
G1 X180.226 Y151.747 E104.17612
G1 X179.719 Y153.019 E104.34335
G1 X179.175 Y154.193 E104.50138
G1 X179.136 Y154.255 E104.51033
G1 X179.089 Y154.339 E104.52208
G1 X178.54 Y155.411 E104.66918
G1 X177.829 Y156.621 E104.84058
G1 X177.015 Y157.855 E105.02113
G1 X176.544 Y158.493 E105.11798
G1 X175.363 Y159.977 E105.34961
G1 X174.5 Y160.929 E105.50654
G1 X174.406 Y161.035 E105.52384
G1 X173.543 Y161.904 E105.67342
G1 X172.375 Y162.95 E105.86491
G1 X171.826 Y163.388 E105.95069
G1 X171.363 Y163.774 E106.02431
G1 X170.293 Y164.563 E106.18667
G1 X169.29 Y165.22 E106.33311
G1 X169.14 Y165.322 E106.35527
G1 X169.016 Y165.39 E106.37254
G1 X167.946 Y166.021 E106.52425
G1 X166.63 Y166.707 E106.7055
G1 X166.63 Y68.292 E118.72504
G1 X166.715 Y68.331 E118.73646
G1 X168.004 Y69.01 E118.9144
G1 X169.178 Y69.701 E119.08077
G1 X170.243 Y70.405 E119.23669
G1 X171.183 Y71.095 E119.3791
G0 F810 X171.361 Y71.226
G0 F6000 X171.78 Y70.64
G1 F900 X172.633 Y71.33 E119.5131
G1 X173.949 Y72.493 E119.72759
G1 X175 Y73.548 E119.90947
G1 X175.98 Y74.637 E120.08839
G1 X176.359 Y75.11 E120.16242
G1 X176.822 Y75.671 E120.25125
G1 X177.666 Y76.819 E120.42527
G1 X178.453 Y78.022 E120.60085
G1 X179.077 Y79.078 E120.75065
G1 X179.148 Y79.194 E120.76726
G1 X179.694 Y80.245 E120.91191
G1 X179.808 Y80.457 E120.94131
G1 X180.155 Y81.211 E121.04268
G1 X180.91 Y83.026 E121.28276
G1 X181.262 Y84.065 E121.41674
G1 X181.37 Y84.367 E121.45591
G1 X181.64 Y85.325 E121.57747
G1 X182.096 Y87.153 E121.80757
G1 X182.349 Y88.604 E121.98745
G1 X182.505 Y89.83 E122.13839
G1 X182.643 Y91.687 E122.36581
G1 X182.66 Y92.354 E122.4473
G1 X182.659 Y142.307 E128.54812
G1 X182.625 Y143.376 E128.67875
G1 X182.623 Y143.657 E128.71307
G1 X182.516 Y145.015 E128.87944
G1 X182.31 Y146.615 E129.07646
G1 X182.113 Y147.704 E129.21162
G1 X182.083 Y147.904 E129.23632
G1 X181.767 Y149.259 E129.40625
G1 X181.385 Y150.583 E129.57454
G1 X180.899 Y152.004 E129.75796
G1 X180.382 Y153.299 E129.92826
G1 X179.809 Y154.538 E130.09498
G1 X179.745 Y154.639 E130.10958
G1 X179.169 Y155.762 E130.26372
G1 X178.437 Y157.007 E130.44011
G1 X177.619 Y158.248 E130.62164
G1 X177.115 Y158.931 E130.72531
G1 X175.907 Y160.449 E130.96224
G1 X175.039 Y161.406 E131.12004
G1 X174.931 Y161.528 E131.13994
G1 X174.035 Y162.43 E131.29521
G1 X172.977 Y163.379 E131.46879
G1 X172.856 Y163.486 E131.48852
G1 X172.287 Y163.941 E131.5775
G1 X171.816 Y164.334 E131.65242
G1 X170.712 Y165.149 E131.82001
G1 X169.694 Y165.816 E131.96865
G1 X169.515 Y165.937 E131.99504
G1 X169.381 Y166.01 E132.01367
G1 X168.277 Y166.661 E132.1702
G1 X166.959 Y167.348 E132.35173
G1 X166.532 Y167.544 E132.40911
G1 X165.91 Y167.805 E132.49149
G1 X165.91 Y67.172 E144.78192
G1 X167.037 Y67.687 E144.93325
G1 X168.357 Y68.382 E145.11545
G1 X169.565 Y69.094 E145.2867
G1 X170.662 Y69.819 E145.44729
G1 X171.602 Y70.509 E145.58971
G0 F810 X171.78 Y70.64
G1 F1500 E138.58971
G1 F300 Z0.8
G0 F6000 X170.23 Y74.971 Z0.8
;TYPE:SUPPORT
G1 F300 Z0.4
G1 F1500 E145.58971
G1 F900 X170.99 Y75.643 E145.71361
G1 X171.858 Y76.515 E145.86387
G1 X172.687 Y77.436 E146.01521
G1 X173.007 Y77.834 E146.07758
G1 X173.42 Y78.336 E146.15698
G1 X174.113 Y79.278 E146.2998
G1 X174.784 Y80.305 E146.44963
G1 X175.388 Y81.328 E146.59472
G1 X175.873 Y82.261 E146.72315
G1 X175.945 Y82.396 E146.74183
G1 X176.191 Y82.93 E146.81364
G1 X176.866 Y84.553 E147.02832
G1 X177.18 Y85.479 E147.14773
G1 X177.245 Y85.661 E147.17134
G1 X177.467 Y86.446 E147.27097
G1 X177.867 Y88.049 E147.47275
G1 X178.075 Y89.243 E147.62077
G1 X178.206 Y90.273 E147.74758
G1 X178.326 Y91.889 E147.94549
G1 X178.34 Y92.423 E148.01073
G1 X178.339 Y142.23 E154.09372
G1 X178.305 Y143.287 E154.22288
G1 X178.304 Y143.483 E154.24681
G1 X178.22 Y144.552 E154.37777
G1 X178.038 Y145.964 E154.55165
G1 X177.851 Y146.995 E154.67962
G1 X177.836 Y147.094 E154.69185
G1 X177.584 Y148.175 E154.82742
G1 X177.264 Y149.284 E154.96838
G1 X176.85 Y150.493 E155.12446
G1 X176.415 Y151.585 E155.26802
G1 X176.002 Y152.477 E155.38807
G1 X175.98 Y152.512 E155.39312
G1 X175.383 Y153.678 E155.5531
G1 X174.767 Y154.725 E155.70146
G1 X174.069 Y155.783 E155.85627
G1 X173.694 Y156.293 E155.93358
G1 X172.612 Y157.651 E156.14564
G1 X171.8 Y158.548 E156.29341
G1 X171.051 Y159.303 E156.4233
G1 X170.23 Y160.04 E156.55804
G1 X170.23 Y75.193 E166.92051
G0 F810 X170.23 Y74.971
G1 F1500 E159.92051
G1 F300 Z0.8
G0 F6000 X170.95 Y76.623 Z0.8
G1 F300 Z0.4
G1 F1500 E166.92051
G1 F900 X171.331 Y77.006 E166.98649
G1 X172.142 Y77.907 E167.13454
G1 X172.448 Y78.288 E167.19422
G1 X172.846 Y78.771 E167.27066
G1 X173.52 Y79.688 E167.40965
G1 X174.181 Y80.699 E167.55717
G1 X174.757 Y81.675 E167.69558
G1 X175.236 Y82.596 E167.82237
G1 X175.299 Y82.714 E167.83871
G1 X175.531 Y83.218 E167.90647
G1 X176.192 Y84.806 E168.11655
G1 X176.5 Y85.716 E168.23388
G1 X176.558 Y85.877 E168.25478
G1 X176.768 Y86.62 E168.34908
G1 X177.164 Y88.206 E168.54872
G1 X177.363 Y89.35 E168.69054
G1 X177.489 Y90.342 E168.81267
G1 X177.606 Y91.919 E169.0058
G1 X177.62 Y92.423 E169.06738
G1 X177.619 Y142.207 E175.14756
G1 X177.585 Y143.274 E175.27794
G1 X177.584 Y143.451 E175.29955
G1 X177.503 Y144.483 E175.42598
G1 X177.325 Y145.862 E175.5958
G1 X177.141 Y146.877 E175.72178
G1 X177.128 Y146.962 E175.73228
G1 X176.892 Y147.975 E175.85931
G1 X176.574 Y149.078 E175.99951
G1 X176.176 Y150.24 E176.14952
G1 X175.753 Y151.302 E176.28913
G1 X175.368 Y152.134 E176.4011
G1 X175.354 Y152.156 E176.40428
G1 X174.754 Y153.327 E176.56498
G1 X174.15 Y154.354 E176.71049
G1 X173.484 Y155.363 E176.85815
G1 X173.12 Y155.857 E176.93309
G1 X172.062 Y157.186 E177.14056
G1 X171.274 Y158.056 E177.28392
G1 X170.95 Y158.383 E177.34014
G1 X170.95 Y76.845 E187.29847
G0 F810 X170.95 Y76.623
G1 F1500 E180.29847
G1 F300 Z0.8
G0 F6000 X170.91 Y80 Z0.8
G1 F300 Z0.4
G1 F1500 E187.29847
G1 F900 X173.773 Y80 E187.64813
G1 F1500 E180.64813
G1 F300 Z0.8
G0 F6000 X176 Y84.241 Z0.8
G1 F300 Z0.4
G1 F1500 E187.64813
G1 F900 X176 Y150.792 E195.77609
G1 F1500 E188.77609
G1 F300 Z0.8
G0 F6000 X177.581 Y144 Z0.8
G1 F300 Z0.4
G1 F1500 E195.77609
G1 F900 X170.91 Y144 E196.59082
G1 F1500 E189.59082
G1 F300 Z0.8
G0 F6000 X170.91 Y128 Z0.8
G1 F300 Z0.4
G1 F1500 E196.59082
G1 F900 X177.659 Y128 E197.41509
G1 F1500 E190.41509
G1 F300 Z0.8
G0 F6000 X177.659 Y112 Z0.8
G1 F300 Z0.4
G1 F1500 E197.41509
G1 F900 X170.91 Y112 E198.23935
G1 F1500 E191.23935
G1 F300 Z0.8
G0 F6000 X170.91 Y96 Z0.8
G1 F300 Z0.4
G1 F1500 E198.23935
G1 F900 X177.659 Y96 E199.06362
G1 F1500 E192.06362
G1 F300 Z0.8
;MESH:trenner.stl
G0 F6000 X164.39 Y58.11 Z0.8
;TYPE:WALL-OUTER
G1 F300 Z0.4
G1 F1500 E199.06362
G1 F900 X164.39 Y176.89 E213.57036
G1 X152.61 Y176.89 E215.00907
G1 X152.61 Y58.11 E229.51581
G1 X164.168 Y58.11 E230.92741
G0 F810 X164.39 Y58.11
G0 F6000 X164.39 Y58.31
G0 X163.598 Y58.902
G0 X163.67 Y58.83
;TYPE:WALL-INNER
G1 F900 X163.67 Y176.17 E245.25828
G1 X153.33 Y176.17 E246.52112
G1 X153.33 Y58.83 E260.852
G1 X163.448 Y58.83 E262.08772
