;FLAVOR:Marlin
;TIME:7820
;Filament used: 12.75m
;Layer height: 0.3
;MINX:71.168
;MINY:82.84
;MINZ:0.4
;MAXX:164.025
;MAXY:152.16
;MAXZ:80
;Generated with Cura_SteamEngine 4.7.0
M140 S60
M105
M190 S60
M104 S215
M105
M109 S215
M82 ;absolute extrusion mode
M201 X500.00 Y500.00 Z100.00 E5000.00 ;Setup machine max acceleration
M203 X500.00 Y500.00 Z10.00 E75.00 ;Setup machine max feedrate
M204 P500.00 R1000.00 T500.00 ;Setup Print/Retract/Travel acceleration
M205 X8.00 Y8.00 Z0.40 E5.00 ;Setup Jerk
M220 S100 ;Reset Feedrate
M221 S100 ;Reset Flowrate

G21 ; (metric values)
G90 ; (absolute positioning)
M82 ; (set extruder to absolute mode)
G28 ; (home all axis)
G29 ; (Auto Level)

G92 E0 ;Reset Extruder
G1 Z2.0 F3000 ;Move Z Axis up
G1 X1.1 Y50 Z0.28 F5000.0 ;Move to start position
G1 X1.1 Y200.0 Z0.28 F1500.0 E15 ;Draw the first line
G1 X1.4 Y200.0 Z0.28 F5000.0 ;Move to side a little
G1 X1.4 Y100 Z0.28 F1500.0 E30 ;Draw the second line
G92 E0 ;Reset Extruder
G1 Z2.0 F3000 ;Move Z Axis up
G92 E0
G92 E0
G1 F1500 E-7
;LAYER_COUNT:265
;LAYER:0
M107
G1 F300 Z0.8
;MESH:ts100 stand with spongeholder.stl
G0 F6000 X83.463 Y86.132 Z0.8
;TYPE:WALL-INNER
G1 F300 Z0.4
G1 F1500 E0
G1 F900 X83.947 Y85.716 E0.04601
G1 X84.471 Y85.329 E0.09297
G1 X85.036 Y84.973 E0.14111
G1 X85.578 Y84.687 E0.18529
G1 X86.203 Y84.415 E0.23443
G1 X86.816 Y84.199 E0.28129
G1 X87.427 Y84.037 E0.32686
G1 X88.064 Y83.916 E0.3736
G1 X88.709 Y83.844 E0.42039
G1 X89.415 Y83.817 E0.47132
G1 X151.764 Y83.817 E4.96615
G1 X154.345 Y83.818 E5.15221
G1 X155.021 Y83.844 E5.20098
G1 X155.666 Y83.916 E5.24777
G1 X156.303 Y84.037 E5.29451
G1 X156.914 Y84.199 E5.34008
G1 X157.527 Y84.415 E5.38694
G1 X158.152 Y84.687 E5.43608
G1 X158.694 Y84.973 E5.48026
G1 X159.259 Y85.329 E5.5284
G1 X159.783 Y85.716 E5.57536
G1 X160.271 Y86.135 E5.62173
G1 X160.73 Y86.594 E5.66853
G1 X161.149 Y87.082 E5.7149
G1 X161.54 Y87.612 E5.76238
G1 X161.89 Y88.169 E5.8098
G1 X162.178 Y88.713 E5.85418
G1 X162.45 Y89.338 E5.90332
G1 X162.666 Y89.951 E5.95017
G1 X162.828 Y90.562 E5.99574
G1 X162.949 Y91.199 E6.04248
G1 X163.021 Y91.844 E6.08927
G1 X163.048 Y92.537 E6.13927
G1 X163.047 Y142.48 E9.73973
G1 X163.021 Y143.156 E9.7885
G1 X162.949 Y143.801 E9.83528
G1 X162.828 Y144.438 E9.88203
G1 X162.666 Y145.049 E9.9276
G1 X162.45 Y145.662 E9.97445
G1 X162.179 Y146.285 E10.02343
G1 X161.89 Y146.831 E10.06797
G1 X161.54 Y147.388 E10.11539
G1 X161.149 Y147.918 E10.16287
G1 X160.73 Y148.406 E10.20924
G1 X160.274 Y148.862 E10.25573
G1 X159.783 Y149.284 E10.3024
G1 X159.259 Y149.671 E10.34937
G1 X158.694 Y150.027 E10.39751
G1 X158.152 Y150.313 E10.44169
G1 X157.527 Y150.585 E10.49083
G1 X156.914 Y150.801 E10.53768
G1 X156.303 Y150.963 E10.58325
G1 X155.666 Y151.084 E10.63
G1 X155.021 Y151.156 E10.67678
G1 X154.315 Y151.183 E10.72772
G1 X91.966 Y151.183 E15.22254
G1 X89.385 Y151.182 E15.40861
G1 X88.709 Y151.156 E15.45738
G1 X88.064 Y151.084 E15.50417
G1 X87.427 Y150.963 E15.55091
G1 X86.816 Y150.801 E15.59648
G1 X86.203 Y150.585 E15.64333
G1 X85.578 Y150.313 E15.69247
G1 X85.036 Y150.027 E15.73665
G1 X84.471 Y149.671 E15.7848
G1 X83.947 Y149.284 E15.83176
G1 X83.463 Y148.868 E15.87777
G1 X83.002 Y148.406 E15.92482
G1 X82.581 Y147.916 E15.97139
G1 X82.186 Y147.381 E16.01933
G1 X81.84 Y146.831 E16.06618
G1 X81.551 Y146.285 E16.11071
G1 X81.28 Y145.662 E16.15969
G1 X81.064 Y145.049 E16.20655
G1 X80.902 Y144.438 E16.25212
G1 X80.781 Y143.801 E16.29886
G1 X80.709 Y143.156 E16.34565
G1 X80.682 Y142.463 E16.39564
G1 X80.683 Y92.52 E19.9961
G1 X80.709 Y91.844 E20.04487
G1 X80.781 Y91.199 E20.09166
G1 X80.902 Y90.562 E20.1384
G1 X81.064 Y89.951 E20.18397
G1 X81.28 Y89.338 E20.23083
G1 X81.552 Y88.713 E20.27997
G1 X81.84 Y88.169 E20.32434
G1 X82.186 Y87.619 E20.37118
G1 X82.581 Y87.084 E20.41913
G1 X83.004 Y86.592 E20.4659
G1 X83.198 Y86.398 E20.48568
G0 F810 X83.463 Y86.132
G0 F6000 X83.172 Y85.822
G1 F900 X83.683 Y85.383 E20.53425
G1 X84.24 Y84.972 E20.58415
G1 X84.816 Y84.609 E20.63323
G1 X85.4 Y84.301 E20.68083
G1 X86.042 Y84.021 E20.73132
G1 X86.692 Y83.792 E20.78101
G1 X87.335 Y83.621 E20.82897
G1 X87.992 Y83.497 E20.87717
G1 X88.016 Y83.495 E20.87891
G1 X88.685 Y83.419 E20.92745
G1 X89.399 Y83.392 E20.97896
G1 X151.764 Y83.392 E25.47493
G1 X154.361 Y83.393 E25.66216
G1 X155.045 Y83.419 E25.7115
G1 X155.738 Y83.497 E25.76178
G1 X156.395 Y83.621 E25.80998
G1 X157.038 Y83.792 E25.85794
G1 X157.688 Y84.021 E25.90763
G1 X158.33 Y84.301 E25.95812
G1 X158.914 Y84.609 E26.00572
G1 X159.49 Y84.972 E26.0548
G1 X160.047 Y85.383 E26.1047
G1 X160.572 Y85.834 E26.1546
G1 X161.031 Y86.293 E26.20139
G1 X161.051 Y86.317 E26.20365
G1 X161.47 Y86.805 E26.25002
G1 X161.482 Y86.818 E26.25129
G1 X161.893 Y87.375 E26.30119
G1 X162.258 Y87.955 E26.3506
G1 X162.564 Y88.535 E26.39787
G1 X162.844 Y89.177 E26.44837
G1 X163.073 Y89.827 E26.49805
G1 X163.244 Y90.47 E26.54601
G1 X163.368 Y91.127 E26.59421
G1 X163.37 Y91.151 E26.59595
G1 X163.446 Y91.82 E26.64449
G1 X163.473 Y92.521 E26.69506
G1 X163.472 Y142.496 E30.29783
G1 X163.446 Y143.18 E30.34717
G1 X163.368 Y143.873 E30.39745
G1 X163.244 Y144.53 E30.44565
G1 X163.073 Y145.173 E30.49362
G1 X162.844 Y145.823 E30.5433
G1 X162.565 Y146.463 E30.59363
G1 X162.258 Y147.045 E30.64107
G1 X161.893 Y147.625 E30.69047
G1 X161.482 Y148.182 E30.74037
G1 X161.031 Y148.707 E30.79027
G1 X160.572 Y149.166 E30.83706
G1 X160.047 Y149.617 E30.88696
G1 X159.49 Y150.028 E30.93686
G1 X158.914 Y150.391 E30.98595
G1 X158.33 Y150.699 E31.03354
G1 X157.688 Y150.979 E31.08404
G1 X157.038 Y151.208 E31.13372
G1 X156.395 Y151.379 E31.18169
G1 X155.738 Y151.503 E31.22989
G1 X155.714 Y151.505 E31.23162
G1 X155.045 Y151.581 E31.28016
G1 X154.331 Y151.608 E31.33167
G1 X91.966 Y151.608 E35.82765
G1 X89.369 Y151.607 E36.01487
G1 X88.685 Y151.581 E36.06422
G1 X87.992 Y151.503 E36.11449
G1 X87.335 Y151.379 E36.16269
G1 X86.692 Y151.208 E36.21066
G1 X86.042 Y150.979 E36.26034
G1 X85.4 Y150.699 E36.31083
G1 X84.816 Y150.391 E36.35843
G1 X84.24 Y150.028 E36.40751
G1 X83.683 Y149.617 E36.45742
G1 X83.172 Y149.178 E36.50598
G1 X82.694 Y148.699 E36.55477
G1 X82.243 Y148.174 E36.60466
G1 X81.837 Y147.625 E36.65389
G1 X81.472 Y147.045 E36.70329
G1 X81.165 Y146.463 E36.75073
G1 X80.886 Y145.823 E36.80106
G1 X80.657 Y145.173 E36.85074
G1 X80.486 Y144.53 E36.89871
G1 X80.362 Y143.873 E36.94691
G1 X80.36 Y143.849 E36.94864
G1 X80.284 Y143.18 E36.99718
G1 X80.257 Y142.479 E37.04776
G1 X80.258 Y92.504 E40.65052
G1 X80.284 Y91.82 E40.69987
G1 X80.362 Y91.127 E40.75014
G1 X80.486 Y90.47 E40.79834
G1 X80.657 Y89.827 E40.84631
G1 X80.886 Y89.177 E40.89599
G1 X81.166 Y88.535 E40.94648
G1 X81.472 Y87.955 E40.99376
G1 X81.837 Y87.375 E41.04316
G1 X82.243 Y86.826 E41.09239
G1 X82.694 Y86.301 E41.14228
G1 X82.907 Y86.088 E41.164
G0 F810 X83.172 Y85.822
G0 F6000 X82.792 Y85.421
;TYPE:WALL-OUTER
G1 F900 X83.342 Y84.949 E41.2476
G1 X83.927 Y84.517 E41.33148
G1 X84.542 Y84.13 E41.41529
G1 X85.162 Y83.802 E41.4962
G1 X85.841 Y83.506 E41.58164
G1 X86.522 Y83.267 E41.66489
G1 X87.212 Y83.083 E41.74726
G1 X87.923 Y82.949 E41.83071
G1 X88.642 Y82.868 E41.91417
G1 X89.378 Y82.84 E41.99913
G1 X151.764 Y82.84 E49.19511
G1 X154.382 Y82.841 E49.49709
G1 X155.088 Y82.868 E49.57858
G1 X155.807 Y82.949 E49.66204
G1 X156.518 Y83.083 E49.74549
G1 X157.208 Y83.267 E49.82786
G1 X157.889 Y83.506 E49.91111
G1 X158.568 Y83.802 E49.99655
G1 X159.188 Y84.13 E50.07746
G1 X159.803 Y84.517 E50.16127
G1 X160.388 Y84.949 E50.24515
G1 X160.945 Y85.427 E50.32981
G1 X161.438 Y85.92 E50.41024
G1 X161.916 Y86.477 E50.4949
G1 X162.348 Y87.062 E50.57878
G1 X162.737 Y87.681 E50.66311
G1 X163.063 Y88.297 E50.7435
G1 X163.359 Y88.976 E50.82894
G1 X163.598 Y89.657 E50.91218
G1 X163.782 Y90.347 E50.99455
G1 X163.916 Y91.058 E51.07801
G1 X163.997 Y91.777 E51.16147
G1 X164.025 Y92.5 E51.24492
G1 X164.024 Y142.517 E57.01419
G1 X163.997 Y143.223 E57.09569
G1 X163.916 Y143.942 E57.17915
G1 X163.782 Y144.653 E57.2626
G1 X163.598 Y145.343 E57.34497
G1 X163.359 Y146.024 E57.42822
G1 X163.064 Y146.701 E57.5134
G1 X162.737 Y147.319 E57.59405
G1 X162.348 Y147.938 E57.67837
G1 X161.916 Y148.523 E57.76226
G1 X161.438 Y149.08 E57.84692
G1 X160.945 Y149.573 E57.92734
G1 X160.388 Y150.051 E58.012
G1 X159.803 Y150.483 E58.09588
G1 X159.188 Y150.87 E58.1797
G1 X158.568 Y151.198 E58.2606
G1 X157.889 Y151.494 E58.34604
G1 X157.208 Y151.733 E58.42929
G1 X156.518 Y151.917 E58.51166
G1 X155.807 Y152.051 E58.59511
G1 X155.088 Y152.132 E58.67857
G1 X154.352 Y152.16 E58.76353
G1 X91.966 Y152.16 E65.95951
G1 X89.348 Y152.159 E66.26149
G1 X88.642 Y152.132 E66.34298
G1 X87.923 Y152.051 E66.42644
G1 X87.212 Y151.917 E66.5099
G1 X86.522 Y151.733 E66.59227
G1 X85.841 Y151.494 E66.67551
G1 X85.162 Y151.198 E66.76095
G1 X84.542 Y150.87 E66.84186
G1 X83.927 Y150.483 E66.92567
G1 X83.342 Y150.051 E67.00956
G1 X82.792 Y149.579 E67.09315
G1 X82.287 Y149.073 E67.17561
G1 X81.814 Y148.523 E67.25929
G1 X81.382 Y147.938 E67.34317
G1 X80.993 Y147.319 E67.4275
G1 X80.666 Y146.701 E67.50814
G1 X80.371 Y146.024 E67.59333
G1 X80.132 Y145.343 E67.67657
G1 X79.948 Y144.653 E67.75894
G1 X79.814 Y143.942 E67.8424
G1 X79.733 Y143.223 E67.92586
G1 X79.705 Y142.5 E68.00931
G1 X79.706 Y92.483 E73.77858
G1 X79.733 Y91.777 E73.86008
G1 X79.814 Y91.058 E73.94354
G1 X79.948 Y90.347 E74.02699
G1 X80.132 Y89.657 E74.10936
G1 X80.371 Y88.976 E74.19261
G1 X80.667 Y88.297 E74.27805
G1 X80.993 Y87.681 E74.35844
G1 X81.382 Y87.062 E74.44276
G1 X81.814 Y86.477 E74.52665
G1 X82.287 Y85.927 E74.61032
G1 X82.626 Y85.587 E74.6657
G0 F810 X82.792 Y85.421
G0 F6000 X82.943 Y85.291
G0 X83.43 Y85.86
G0 X83.846 Y86.545
;TYPE:SKIN
G1 F900 X84.292 Y86.162 E74.7377
G1 X84.796 Y85.79 E74.81442
G1 X85.322 Y85.458 E74.89059
G1 X85.814 Y85.198 E74.95875
G1 X86.408 Y84.94 E75.03806
G1 X86.984 Y84.736 E75.1129
G1 X87.549 Y84.586 E75.18449
G1 X88.139 Y84.475 E75.25801
G1 X88.753 Y84.407 E75.33367
G1 X89.437 Y84.38 E75.41751
G1 X151.764 Y84.38 E83.05072
G1 X154.323 Y84.381 E83.36413
G1 X154.977 Y84.407 E83.44428
G1 X155.591 Y84.475 E83.51994
G1 X156.181 Y84.586 E83.59347
G1 X156.746 Y84.736 E83.66506
G1 X157.322 Y84.94 E83.7399
G1 X157.916 Y85.198 E83.81921
G1 X158.408 Y85.458 E83.88736
G1 X158.934 Y85.79 E83.96354
G1 X159.438 Y86.162 E84.04026
G1 X159.89 Y86.55 E84.11321
G1 X160.315 Y86.975 E84.18682
G1 X160.708 Y87.433 E84.26073
G1 X161.066 Y87.917 E84.33446
G1 X161.405 Y88.455 E84.41234
G1 X161.668 Y88.951 E84.4811
G1 X161.925 Y89.543 E84.56014
G1 X162.129 Y90.119 E84.63497
G1 X162.28 Y90.689 E84.70719
G1 X162.39 Y91.274 E84.78009
G1 X162.459 Y91.893 E84.85637
G1 X162.485 Y92.551 E84.93702
G1 X162.484 Y142.459 E91.04927
G1 X162.459 Y143.107 E91.12869
G1 X162.39 Y143.725 E91.20485
G1 X162.28 Y144.311 E91.27787
G1 X162.129 Y144.881 E91.35009
G1 X161.925 Y145.457 E91.42492
G1 X161.671 Y146.043 E91.50314
G1 X161.404 Y146.545 E91.57278
G1 X161.069 Y147.078 E91.64988
G1 X160.71 Y147.564 E91.72388
G1 X160.315 Y148.025 E91.79823
G1 X159.894 Y148.446 E91.87114
G1 X159.438 Y148.838 E91.94479
G1 X158.934 Y149.21 E92.02151
G1 X158.408 Y149.542 E92.09768
G1 X157.916 Y149.802 E92.16584
G1 X157.322 Y150.06 E92.24515
G1 X156.746 Y150.264 E92.31998
G1 X156.181 Y150.414 E92.39158
G1 X155.591 Y150.525 E92.4651
G1 X154.977 Y150.593 E92.54076
G1 X154.293 Y150.62 E92.62459
G1 X91.966 Y150.62 E100.25781
G1 X89.407 Y150.619 E100.57121
G1 X88.753 Y150.593 E100.65137
G1 X88.139 Y150.525 E100.72703
G1 X87.549 Y150.414 E100.80055
G1 X86.984 Y150.264 E100.87215
G1 X86.408 Y150.06 E100.94698
G1 X85.814 Y149.802 E101.0263
G1 X85.322 Y149.542 E101.09445
G1 X84.796 Y149.21 E101.17063
G1 X84.292 Y148.838 E101.24734
G1 X83.843 Y148.452 E101.31986
G1 X83.417 Y148.025 E101.39373
G1 X83.025 Y147.568 E101.46747
G1 X82.647 Y147.057 E101.54531
G1 X82.325 Y146.545 E101.61939
G1 X82.062 Y146.048 E101.68825
G1 X81.805 Y145.457 E101.76718
G1 X81.601 Y144.881 E101.84202
G1 X81.45 Y144.311 E101.91423
G1 X81.34 Y143.725 E101.98725
G1 X81.271 Y143.107 E102.06341
G1 X81.245 Y142.449 E102.14406
G1 X81.246 Y92.541 E108.25632
G1 X81.271 Y91.893 E108.33574
G1 X81.34 Y91.274 E108.41201
G1 X81.45 Y90.689 E108.48491
G1 X81.601 Y90.119 E108.55713
G1 X81.805 Y89.543 E108.63197
G1 X82.062 Y88.951 E108.71101
G1 X82.33 Y88.447 E108.78092
G1 X82.651 Y87.937 E108.85472
G1 X83.018 Y87.439 E108.93048
G1 X83.419 Y86.973 E109.00577
G1 X83.69 Y86.701 E109.0528
G0 F810 X83.846 Y86.545
G1 F1500 E102.0528
G1 F300 Z0.8
G0 F6000 X86.452 Y149.758 Z0.8
G1 F300 Z0.4
G1 F1500 E109.0528
G1 F900 X82.104 Y145.41 E109.80587
G1 F1500 E102.80587
G1 F300 Z0.8
G0 F6000 X81.683 Y143.968 Z0.8
G1 F300 Z0.4
G1 F1500 E109.80587
G1 F900 X87.894 Y150.179 E110.88161
G0 F6000 X89.046 Y150.31
G1 F900 X81.552 Y142.816 E112.17957
G0 F6000 X81.537 Y141.78
G1 F900 X90.083 Y150.325 E113.65964
G0 F6000 X91.104 Y150.325
G1 F900 X81.537 Y140.759 E115.31655
G0 F6000 X81.537 Y139.738
G1 F900 X92.126 Y150.326 E117.15048
G0 F6000 X93.147 Y150.326
G1 F900 X81.537 Y138.717 E119.16123
G0 F6000 X81.537 Y137.696
G1 F900 X94.168 Y150.326 E121.34883
G0 F6000 X95.189 Y150.326
G1 F900 X81.537 Y136.675 E123.71326
G0 F6000 X81.537 Y135.654
G1 F900 X96.21 Y150.326 E126.25453
G0 F6000 X97.231 Y150.326
G1 F900 X81.537 Y134.633 E128.97263
G0 F6000 X81.537 Y133.612
G1 F900 X98.252 Y150.326 E131.86758
G0 F6000 X99.273 Y150.326
G1 F900 X81.537 Y132.591 E134.93935
G0 F6000 X81.537 Y131.569
G1 F900 X100.294 Y150.326 E138.18805
G0 F6000 X101.315 Y150.326
G1 F900 X81.537 Y130.548 E141.61359
G0 F6000 X81.537 Y129.527
G1 F900 X102.336 Y150.326 E145.21597
G0 F6000 X103.357 Y150.326
G1 F900 X81.537 Y128.506 E148.99518
G0 F6000 X81.537 Y127.485
G1 F900 X104.378 Y150.326 E152.95122
G0 F6000 X105.399 Y150.326
G1 F900 X81.537 Y126.464 E157.08411
G0 F6000 X81.537 Y125.443
G1 F900 X106.42 Y150.326 E161.39383
G0 F6000 X107.442 Y150.326
G1 F900 X81.537 Y124.422 E165.88047
G0 F6000 X81.537 Y123.401
G1 F900 X108.463 Y150.326 E170.54395
G0 F6000 X109.484 Y150.326
G1 F900 X81.537 Y122.38 E175.38427
G0 F6000 X81.537 Y121.359
G1 F900 X110.505 Y150.326 E180.40142
G0 F6000 X111.526 Y150.326
G1 F900 X81.537 Y120.338 E185.59541
G0 F6000 X81.537 Y119.317
G1 F900 X112.547 Y150.326 E190.96624
G0 F6000 X113.568 Y150.326
G1 F900 X81.537 Y118.296 E196.5139
G0 F6000 X81.538 Y117.275
G1 F900 X114.589 Y150.326 E202.23832
G0 F6000 X115.61 Y150.326
G1 F900 X81.538 Y116.254 E208.13957
G0 F6000 X81.538 Y115.233
G1 F900 X116.631 Y150.326 E214.21765
G0 F6000 X117.652 Y150.326
G1 F900 X81.538 Y114.212 E220.47258
G0 F6000 X81.538 Y113.191
G1 F900 X118.673 Y150.326 E226.90434
G0 F6000 X119.694 Y150.326
G1 F900 X81.538 Y112.17 E233.51293
G0 F6000 X81.538 Y111.149
G1 F900 X120.715 Y150.326 E240.29837
G0 F6000 X121.736 Y150.326
G1 F900 X81.538 Y110.128 E247.26064
G0 F6000 X81.538 Y109.107
G1 F900 X122.757 Y150.326 E254.39974
G0 F6000 X123.779 Y150.326
G1 F900 X81.538 Y108.086 E261.71577
G0 F6000 X81.538 Y107.065
G1 F900 X124.8 Y150.326 E269.20864
G0 F6000 X125.821 Y150.326
G1 F900 X81.538 Y106.044 E276.87834
G0 F6000 X81.538 Y105.023
G1 F900 X126.842 Y150.326 E284.72488
G0 F6000 X127.863 Y150.326
G1 F900 X81.538 Y104.001 E292.74834
G0 F6000 X81.538 Y102.98
G1 F900 X128.884 Y150.326 E300.94864
G0 F6000 X129.905 Y150.326
G1 F900 X81.538 Y101.959 E309.32577
G0 F6000 X81.538 Y100.938
G1 F900 X130.926 Y150.326 E317.87975
G0 F6000 X131.947 Y150.326
G1 F900 X81.538 Y99.917 E326.61055
G0 F6000 X81.538 Y98.896
G1 F900 X132.968 Y150.326 E335.5182
G0 F6000 X133.989 Y150.326
G1 F900 X81.538 Y97.875 E344.60268
G0 F6000 X81.538 Y96.854
G1 F900 X135.01 Y150.326 E353.864
G0 F6000 X136.031 Y150.326
