;FLAVOR:Marlin
;TIME:2027
;Filament used: 1.45718m
;Layer height: 0.2
;MINX:90.765
;MINY:95.013
;MINZ:0.3
;MAXX:129.235
;MAXY:151.736
;MAXZ:12.25
;Generated with Cura_SteamEngine 4.4.1
M140 S60
M105
M190 S60
M104 S205
M105
M109 S205
M82 ;absolute extrusion mode
M201 X500.00 Y500.00 Z100.00 E5000.00 ;Setup machine max acceleration
M203 X500.00 Y500.00 Z10.00 E75.00 ;Setup machine max feedrate
M204 P500.00 R1000.00 T500.00 ;Setup Print/Retract/Travel acceleration
M205 X8.00 Y8.00 Z0.40 E5.00 ;Setup Jerk
M220 S100 ;Reset Feedrate
M221 S100 ;Reset Flowrate

G21 ; (metric values)
G90 ; (absolute positioning)
M82 ; (set extruder to absolute mode)
G28 ; (home all axis)
G29 ; (Auto Level)

G92 E0 ;Reset Extruder
G1 Z2.0 F3000 ;Move Z Axis up
G1 X1.1 Y50 Z0.28 F5000.0 ;Move to start position
G1 X1.1 Y200.0 Z0.28 F1500.0 E15 ;Draw the first line
G1 X1.4 Y200.0 Z0.28 F5000.0 ;Move to side a little
G1 X1.4 Y100 Z0.28 F1500.0 E30 ;Draw the second line
G92 E0 ;Reset Extruder
G1 Z2.0 F3000 ;Move Z Axis up
G92 E0
G92 E0
G1 F3000 E-6
;LAYER_COUNT:59
;LAYER:0
M107
G1 F300 Z0.65
G0 F6000 X100.957 Y98.894 Z0.65
;TYPE:SKIRT
G1 F300 Z0.3
G1 F3000 E0
G1 F1200 X101.219 Y98.627 E0.01866
G1 X101.553 Y98.308 E0.04171
G1 X101.908 Y97.995 E0.06532
G1 X102.291 Y97.683 E0.08996
G1 X102.627 Y97.428 E0.11101
G1 X103.005 Y97.162 E0.13407
G1 X103.369 Y96.925 E0.15574
G1 X103.792 Y96.671 E0.18035
G1 X104.042 Y96.529 E0.1947
G1 X104.271 Y96.406 E0.20767
G1 X104.739 Y96.18 E0.23359
G1 X105.334 Y95.924 E0.26591
G1 X105.772 Y95.756 E0.28931
G1 X106.245 Y95.595 E0.31424
G1 X106.794 Y95.437 E0.34274
G1 X107.473 Y95.276 E0.37756
G1 X108.117 Y95.16 E0.4102
G1 X108.745 Y95.082 E0.44178
G1 X109.214 Y95.042 E0.46526
G1 X109.678 Y95.021 E0.48843
G1 X109.904 Y95.015 E0.49971
G1 X110.173 Y95.013 E0.51313
G1 X110.632 Y95.027 E0.53604
G1 X111.08 Y95.058 E0.55845
G1 X111.623 Y95.121 E0.58572
G1 X112.242 Y95.221 E0.617
G1 X112.536 Y95.276 E0.63192
G1 X112.747 Y95.321 E0.64269
G1 X113.109 Y95.41 E0.66128
G1 X113.668 Y95.566 E0.69024
G1 X113.968 Y95.658 E0.70589
G1 X114.188 Y95.732 E0.71747
G1 X114.691 Y95.927 E0.74439
G1 X115.182 Y96.143 E0.77115
G1 X115.412 Y96.25 E0.78381
G1 X115.642 Y96.363 E0.79659
G1 X115.966 Y96.535 E0.81489
G1 X116.403 Y96.784 E0.83998
G1 X116.758 Y97.002 E0.86077
G1 X117.075 Y97.213 E0.87977
G1 X117.408 Y97.452 E0.90022
G1 X117.815 Y97.765 E0.92583
G1 X118.167 Y98.058 E0.94868
G1 X118.512 Y98.368 E0.97182
G1 X118.807 Y98.652 E0.99225
G1 X119.073 Y98.926 E1.0113
G1 X119.24 Y99.105 E1.02352
G1 X119.443 Y99.332 E1.03871
G1 X119.714 Y99.657 E1.05982
G1 X120.003 Y100.03 E1.08336
G1 X120.207 Y100.31 E1.10065
G1 X120.382 Y100.565 E1.11607
G1 X120.552 Y100.826 E1.13161
G1 X120.729 Y101.115 E1.14852
G1 X120.833 Y101.292 E1.15876
G1 X120.944 Y101.488 E1.17
G1 X121.148 Y101.883 E1.19218
G1 X121.395 Y102.406 E1.22104
G1 X121.553 Y102.77 E1.24083
G1 X121.692 Y103.123 E1.25976
G1 X121.819 Y103.479 E1.27862
G1 X121.919 Y103.789 E1.29487
G1 X121.998 Y104.055 E1.30871
G1 X122.114 Y104.481 E1.33074
G1 X122.209 Y104.885 E1.35145
G1 X122.262 Y105.151 E1.36498
G1 X122.288 Y105.287 E1.37189
G1 X122.733 Y107.824 E1.50039
G1 X123.273 Y110.469 E1.63507
G1 X123.869 Y113.018 E1.76567
G1 X124.552 Y115.603 E1.89906
G1 X125.303 Y118.152 E2.03164
G1 X126.119 Y120.658 E2.16312
G1 X127.029 Y123.208 E2.2982
G1 X127.71 Y124.978 E2.39282
G1 X127.932 Y125.537 E2.42283
G1 X128.007 Y125.735 E2.43339
G1 X128.224 Y126.343 E2.4656
G1 X128.29 Y126.538 E2.47587
G1 X128.385 Y126.836 E2.49147
G1 X128.443 Y127.03 E2.50157
G1 X128.571 Y127.484 E2.52511
G1 X128.623 Y127.683 E2.53537
G1 X128.726 Y128.103 E2.55694
G1 X128.77 Y128.294 E2.56672
G1 X128.883 Y128.83 E2.59405
G1 X128.928 Y129.07 E2.60623
G1 X128.995 Y129.467 E2.62632
G1 X129.02 Y129.625 E2.6343
G1 X129.076 Y130.021 E2.65425
G1 X129.104 Y130.249 E2.66571
G1 X129.159 Y130.785 E2.69259
G1 X129.176 Y130.984 E2.70256
G1 X129.203 Y131.375 E2.72211
G1 X129.213 Y131.568 E2.73175
G1 X129.231 Y132.059 E2.75627
G1 X129.235 Y132.279 E2.76724
G1 X129.235 Y132.836 E2.79503
G1 X129.224 Y133.202 E2.8133
G1 X129.172 Y134.053 E2.85584
G1 X129.151 Y134.307 E2.86855
G1 X129.1 Y134.798 E2.89318
G1 X129.078 Y134.983 E2.90248
G1 X129.044 Y135.234 E2.91511
G1 X129.011 Y135.45 E2.92601
G1 X128.919 Y135.983 E2.953
G1 X128.88 Y136.187 E2.96336
G1 X128.769 Y136.719 E2.99047
G1 X128.725 Y136.913 E3.0004
G1 X128.651 Y137.217 E3.01601
G1 X128.596 Y137.427 E3.02684
G1 X128.442 Y137.973 E3.05514
G1 X128.386 Y138.157 E3.06474
G1 X128.282 Y138.485 E3.0819
G1 X128.212 Y138.694 E3.0929
G1 X128.004 Y139.275 E3.12369
G1 X127.94 Y139.445 E3.13275
G1 X127.845 Y139.687 E3.14572
G1 X127.758 Y139.898 E3.15711
G1 X127.529 Y140.422 E3.18564
G1 X127.45 Y140.595 E3.19512
G1 X127.257 Y141.001 E3.21755
G1 X127.167 Y141.182 E3.22764
G1 X126.988 Y141.528 E3.24707
G1 X126.874 Y141.739 E3.25904
G1 X126.598 Y142.224 E3.28688
G1 X126.499 Y142.391 E3.29656
G1 X126.309 Y142.701 E3.3147
G1 X126.204 Y142.866 E3.32446
G1 X125.88 Y143.358 E3.35385
G1 X125.668 Y143.659 E3.37222
G1 X125.13 Y144.376 E3.41694
G1 X124.97 Y144.58 E3.42987
G1 X124.719 Y144.886 E3.44962
G1 X124.585 Y145.044 E3.45996
G1 X124.322 Y145.343 E3.47982
G1 X124.197 Y145.48 E3.48907
G1 X123.875 Y145.824 E3.51258
G1 X123.724 Y145.98 E3.52341
G1 X123.415 Y146.287 E3.54515
G1 X123.266 Y146.43 E3.55545
G1 X122.866 Y146.801 E3.58267
G1 X122.7 Y146.949 E3.59376
G1 X122.427 Y147.184 E3.61173
G1 X122.287 Y147.301 E3.62084
G1 X121.941 Y147.581 E3.64304
G1 X121.767 Y147.717 E3.65406
G1 X121.323 Y148.05 E3.68175
G1 X121.149 Y148.176 E3.69247
G1 X120.883 Y148.361 E3.70863
G1 X120.727 Y148.466 E3.71801
G1 X120.167 Y148.83 E3.75134
G1 X119.976 Y148.949 E3.76256
G1 X119.792 Y149.059 E3.77326
G1 X119.633 Y149.151 E3.78242
G1 X119.177 Y149.405 E3.80846
G1 X119.004 Y149.497 E3.81824
G1 X118.505 Y149.754 E3.84624
G1 X118.295 Y149.857 E3.85791
G1 X117.965 Y150.011 E3.87608
G1 X117.779 Y150.094 E3.88624
G1 X117.401 Y150.255 E3.90674
G1 X117.217 Y150.33 E3.91665
G1 X116.618 Y150.562 E3.9487
G1 X116.421 Y150.634 E3.95916
G1 X116.211 Y150.707 E3.97026
G1 X116.031 Y150.767 E3.97972
G1 X115.532 Y150.923 E4.00581
G1 X115.314 Y150.986 E4.01713
G1 X114.78 Y151.131 E4.04473
G1 X114.591 Y151.179 E4.05446
G1 X114.228 Y151.265 E4.07307
G1 X114.042 Y151.306 E4.08257
G1 X113.605 Y151.395 E4.10482
G1 X113.372 Y151.438 E4.11665
G1 X112.862 Y151.521 E4.14242
G1 X112.671 Y151.549 E4.15205
G1 X112.286 Y151.599 E4.17142
G1 X112.078 Y151.622 E4.18186
G1 X111.497 Y151.677 E4.21098
G1 X111.304 Y151.692 E4.22064
G1 X111.095 Y151.705 E4.23109
G1 X110.891 Y151.715 E4.24127
G1 X110.142 Y151.736 E4.27866
G1 X109.751 Y151.734 E4.29816
G1 X108.784 Y151.698 E4.34644
G1 X108.353 Y151.666 E4.368
G1 X107.541 Y151.577 E4.40876
G1 X107.313 Y151.548 E4.42022
G1 X106.936 Y151.492 E4.43924
G1 X106.74 Y151.459 E4.44915
G1 X106.335 Y151.385 E4.46969
G1 X106.153 Y151.349 E4.47895
G1 X105.813 Y151.276 E4.4963
G1 X105.6 Y151.226 E4.50722
G1 X104.988 Y151.071 E4.53871
G1 X104.779 Y151.014 E4.54952
G1 X104.375 Y150.896 E4.57052
G1 X104.181 Y150.836 E4.58065
G1 X103.774 Y150.702 E4.60203
G1 X103.588 Y150.638 E4.61184
G1 X103.271 Y150.522 E4.62868
G1 X103.083 Y150.449 E4.63874
G1 X102.507 Y150.216 E4.66974
G1 X102.295 Y150.126 E4.68123
G1 X101.935 Y149.964 E4.70093
G1 X101.765 Y149.884 E4.7103
G1 X101.302 Y149.658 E4.736
G1 X101.116 Y149.563 E4.74642
G1 X100.789 Y149.389 E4.7649
G1 X100.612 Y149.291 E4.775
G1 X100.277 Y149.098 E4.79429
G1 X100.102 Y148.994 E4.80444
G1 X99.533 Y148.64 E4.83788
G1 X99.35 Y148.521 E4.84877
G1 X99.074 Y148.335 E4.86537
G1 X98.911 Y148.221 E4.87529
G1 X98.622 Y148.012 E4.89309
G1 X98.452 Y147.885 E4.90367
G1 X97.933 Y147.481 E4.93649
G1 X97.774 Y147.352 E4.9467
G1 X97.544 Y147.16 E4.96165
G1 X97.388 Y147.025 E4.97194
G1 X96.97 Y146.651 E4.99993
G1 X96.833 Y146.524 E5.00925
G1 X96.58 Y146.283 E5.02668
G1 X96.427 Y146.133 E5.03737
G1 X96.123 Y145.822 E5.05907
G1 X95.978 Y145.668 E5.06962
G1 X95.56 Y145.209 E5.10059
G1 X95.416 Y145.045 E5.11148
G1 X95.207 Y144.798 E5.12762
G1 X95.088 Y144.653 E5.13698
G1 X94.803 Y144.294 E5.15985
G1 X94.669 Y144.118 E5.17088
G1 X94.327 Y143.653 E5.19968
G1 X94.211 Y143.491 E5.20962
G1 X94.054 Y143.262 E5.22347
G1 X93.941 Y143.09 E5.23374
G1 X93.649 Y142.631 E5.26088
G1 X93.538 Y142.451 E5.27143
G1 X93.287 Y142.024 E5.29614
G1 X93.189 Y141.85 E5.30611
G1 X92.985 Y141.475 E5.3274
G1 X92.889 Y141.291 E5.33776
G1 X92.73 Y140.973 E5.3555
G1 X92.643 Y140.791 E5.36556
G1 X92.399 Y140.259 E5.39476
G1 X92.318 Y140.075 E5.40479
G1 X92.169 Y139.719 E5.42404
G1 X92.085 Y139.505 E5.43551
G1 X91.908 Y139.032 E5.46071
G1 X91.844 Y138.855 E5.4701
G1 X91.721 Y138.492 E5.48922
G1 X91.661 Y138.305 E5.49902
G1 X91.529 Y137.869 E5.52175
G1 X91.47 Y137.659 E5.53263
G1 X91.338 Y137.158 E5.55848
G1 X91.288 Y136.954 E5.56896
G1 X91.187 Y136.508 E5.59177
G1 X91.149 Y136.324 E5.60114
G1 X91.081 Y135.973 E5.61898
G1 X91.041 Y135.748 E5.63038
G1 X90.944 Y135.12 E5.66209
G1 X90.901 Y134.769 E5.67973
G1 X90.815 Y133.86 E5.72528
G1 X90.796 Y133.614 E5.73759
G1 X90.776 Y133.238 E5.75638
G1 X90.769 Y133.03 E5.76676
G1 X90.765 Y132.814 E5.77754
G1 X90.765 Y132.614 E5.78751
G1 X90.777 Y131.809 E5.82768
G1 X90.785 Y131.574 E5.83941
G1 X90.8 Y131.297 E5.85325
G1 X90.813 Y131.111 E5.86255
G1 X90.85 Y130.677 E5.88428
G1 X90.87 Y130.479 E5.89421
G1 X90.926 Y130.008 E5.91788
G1 X90.956 Y129.787 E5.929
G1 X91.043 Y129.232 E5.95703
G1 X91.079 Y129.025 E5.96751
G1 X91.143 Y128.693 E5.98438
G1 X91.183 Y128.505 E5.99397
G1 X91.297 Y128.001 E6.01975
G1 X91.345 Y127.804 E6.02987
G1 X91.438 Y127.449 E6.04818
G1 X91.495 Y127.248 E6.0586
G1 X91.67 Y126.664 E6.08901
G1 X91.735 Y126.46 E6.0997
G1 X91.815 Y126.224 E6.11213
G1 X91.881 Y126.039 E6.12193
G1 X92.458 Y124.504 E6.20374
G1 X92.5 Y124.395 E6.20957
G1 X92.713 Y123.861 E6.23825
G1 X93.619 Y121.381 E6.36998
G1 X94.472 Y118.827 E6.50432
G1 X95.231 Y116.321 E6.63495
G1 X95.938 Y113.723 E6.76928
G1 X96.566 Y111.129 E6.90243
G1 X97.116 Y108.531 E7.03492
G1 X97.431 Y106.858 E7.11985
G1 X97.43 Y106.858 E7.1199
G1 X97.699 Y105.352 E7.19622
G1 X97.741 Y105.142 E7.20691
G1 X97.837 Y104.697 E7.22962
G1 X97.887 Y104.484 E7.24054
G1 X97.948 Y104.244 E7.25289
G1 X98.065 Y103.841 E7.27383
G1 X98.234 Y103.329 E7.30073
G1 X98.359 Y102.987 E7.31889
G1 X98.434 Y102.799 E7.32899
G1 X98.546 Y102.537 E7.34321
G1 X98.708 Y102.181 E7.36272
G1 X98.789 Y102.01 E7.37216
G1 X98.905 Y101.775 E7.38523
G1 X99.124 Y101.371 E7.40816
G1 X99.325 Y101.032 E7.42782
G1 X99.421 Y100.876 E7.43696
G1 X99.588 Y100.613 E7.4525
G1 X99.807 Y100.291 E7.47193
G1 X100.026 Y99.991 E7.49046
G1 X100.28 Y99.667 E7.511
G1 X100.576 Y99.315 E7.53395
G1 X100.6 Y99.288 E7.53575
G0 F1080 X100.762 Y99.105
G0 X100.957 Y98.894
G0 F6000 X101.25 Y99.165
G1 F1200 X101.495 Y98.916 E7.55318
G1 X101.829 Y98.597 E7.57622
G1 X102.16 Y98.305 E7.59824
G1 X102.543 Y97.993 E7.62289
G1 X102.857 Y97.755 E7.64254
G1 X103.235 Y97.489 E7.6656
G1 X103.575 Y97.268 E7.68584
G1 X103.998 Y97.014 E7.71045
G1 X104.231 Y96.882 E7.72381
G1 X104.46 Y96.759 E7.73678
G1 X104.897 Y96.548 E7.76099
G1 X105.492 Y96.292 E7.79331
G1 X105.901 Y96.135 E7.81516
G1 X106.374 Y95.974 E7.84009
G1 X106.886 Y95.826 E7.86668
G1 X107.565 Y95.665 E7.90149
G1 X108.167 Y95.557 E7.93201
G1 X108.795 Y95.479 E7.96358
G1 X109.232 Y95.442 E7.98546
G1 X109.696 Y95.421 E8.00863
G1 X109.907 Y95.415 E8.01916
G1 X110.176 Y95.413 E8.03258
G1 X110.605 Y95.426 E8.054
G1 X111.053 Y95.457 E8.0764
G1 X111.559 Y95.516 E8.10182
G1 X112.178 Y95.616 E8.1331
G1 X112.453 Y95.667 E8.14705
G1 X112.664 Y95.712 E8.15782
G1 X113.001 Y95.795 E8.17513
G1 X113.56 Y95.951 E8.20409
G1 X113.84 Y96.037 E8.2187
G1 X114.06 Y96.111 E8.23028
G1 X114.53 Y96.293 E8.25542
G1 X115.021 Y96.509 E8.28219
G1 X115.235 Y96.609 E8.29397
G1 X115.465 Y96.722 E8.30676
G1 X115.768 Y96.882 E8.32385
G1 X116.205 Y97.131 E8.34894
G1 X116.536 Y97.335 E8.36834
G1 X116.853 Y97.546 E8.38734
G1 X117.164 Y97.769 E8.40643
G1 X117.571 Y98.082 E8.43205
G1 X117.9 Y98.356 E8.45341
G1 X118.245 Y98.666 E8.47655
G1 X118.52 Y98.93 E8.49557
G1 X118.786 Y99.204 E8.51462
G1 X118.942 Y99.372 E8.52606
G1 X119.145 Y99.599 E8.54125
G1 X119.398 Y99.902 E8.56094
G1 X119.687 Y100.275 E8.58448
G1 X119.877 Y100.536 E8.60059
G1 X120.052 Y100.791 E8.61602
G1 X120.211 Y101.035 E8.63055
G1 X120.388 Y101.324 E8.64746
G1 X120.485 Y101.489 E8.65701
G1 X120.596 Y101.685 E8.66824
G1 X120.787 Y102.054 E8.68897
G1 X121.034 Y102.577 E8.71783
G1 X121.181 Y102.916 E8.73626
G1 X121.32 Y103.269 E8.75519
G1 X121.439 Y103.602 E8.77283
G1 X121.539 Y103.912 E8.78909
G1 X121.612 Y104.16 E8.80198
G1 X121.728 Y104.586 E8.82401
G1 X121.817 Y104.963 E8.84334
G1 X121.87 Y105.229 E8.85687
G1 X121.894 Y105.356 E8.86332
G1 X122.34 Y107.901 E8.99222
G1 X122.878 Y110.535 E9.12634
G1 X123.487 Y113.139 E9.25976
G1 X124.158 Y115.68 E9.39088
G1 X124.926 Y118.284 E9.52633
G1 X125.748 Y120.812 E9.65895
G1 X126.645 Y123.324 E9.79202
G1 X127.339 Y125.126 E9.88836
G1 X127.561 Y125.685 E9.91837
G1 X127.63 Y125.87 E9.92822
G1 X127.847 Y126.478 E9.96043
G1 X127.908 Y126.659 E9.96996
G1 X128.003 Y126.957 E9.98556
G1 X128.058 Y127.138 E9.995
G1 X128.186 Y127.592 E10.01853
G1 X128.235 Y127.778 E10.02813
G1 X128.338 Y128.198 E10.0497
G1 X128.379 Y128.377 E10.05887
G1 X128.492 Y128.913 E10.08619
G1 X128.534 Y129.136 E10.09752
G1 X128.601 Y129.533 E10.1176
G1 X128.624 Y129.681 E10.12507
G1 X128.68 Y130.077 E10.14503
G1 X128.706 Y130.289 E10.15568
G1 X128.761 Y130.825 E10.18257
G1 X128.777 Y131.011 E10.19188
G1 X128.804 Y131.402 E10.21143
G1 X128.813 Y131.583 E10.22047
G1 X128.831 Y132.074 E10.24499
G1 X128.835 Y132.279 E10.25522
G1 X128.835 Y132.836 E10.28301
G1 X128.825 Y133.178 E10.30007
G1 X128.773 Y134.029 E10.34261
G1 X128.753 Y134.266 E10.35448
G1 X128.702 Y134.757 E10.3791
G1 X128.681 Y134.93 E10.3878
G1 X128.647 Y135.181 E10.40044
G1 X128.616 Y135.382 E10.41058
G1 X128.524 Y135.915 E10.43757
G1 X128.488 Y136.106 E10.44726
G1 X128.377 Y136.638 E10.47438
G1 X128.336 Y136.818 E10.48359
G1 X128.262 Y137.122 E10.4992
G1 X128.211 Y137.318 E10.5093
G1 X128.057 Y137.864 E10.5376
G1 X128.005 Y138.037 E10.54662
G1 X127.901 Y138.365 E10.56378
G1 X127.835 Y138.56 E10.57405
G1 X127.627 Y139.141 E10.60484
G1 X127.568 Y139.299 E10.61326
G1 X127.473 Y139.541 E10.62623
G1 X127.391 Y139.738 E10.63687
G1 X127.162 Y140.262 E10.6654
G1 X127.089 Y140.423 E10.67422
G1 X126.896 Y140.829 E10.69665
G1 X126.812 Y140.998 E10.70606
G1 X126.633 Y141.344 E10.7255
G1 X126.526 Y141.541 E10.73668
G1 X126.25 Y142.026 E10.76452
G1 X126.158 Y142.182 E10.77356
G1 X125.968 Y142.492 E10.7917
G1 X125.87 Y142.646 E10.80081
G1 X125.546 Y143.138 E10.8302
G1 X125.348 Y143.419 E10.84735
G1 X124.81 Y144.136 E10.89207
G1 X124.661 Y144.327 E10.90415
G1 X124.41 Y144.633 E10.9239
G1 X124.285 Y144.78 E10.93353
G1 X124.022 Y145.079 E10.95339
G1 X123.905 Y145.207 E10.96204
G1 X123.583 Y145.551 E10.98555
G1 X123.442 Y145.697 E10.99568
G1 X123.133 Y146.004 E11.01741
G1 X122.994 Y146.137 E11.02701
G1 X122.594 Y146.508 E11.05423
G1 X122.439 Y146.646 E11.06458
G1 X122.166 Y146.881 E11.08255
G1 X122.036 Y146.99 E11.09101
G1 X121.69 Y147.27 E11.11322
G1 X121.527 Y147.397 E11.12353
G1 X121.083 Y147.73 E11.15122
G1 X120.92 Y147.847 E11.16123
G1 X120.654 Y148.032 E11.17739
G1 X120.509 Y148.13 E11.18613
G1 X119.949 Y148.494 E11.21945
G1 X119.77 Y148.606 E11.22998
G1 X119.586 Y148.716 E11.24068
G1 X119.438 Y148.801 E11.24919
G1 X118.982 Y149.055 E11.27523
G1 X118.821 Y149.142 E11.28436
G1 X118.322 Y149.399 E11.31237
G1 X118.126 Y149.495 E11.32325
G1 X117.796 Y149.649 E11.34142
