;FLAVOR:Marlin
;TIME:3099
;Filament used: 1.16737m
;Layer height: 0.12
;MINX:63.427
;MINY:89.882
;MINZ:0.2
;MAXX:156.562
;MAXY:137.58
;MAXZ:14.35
;Generated with Cura_SteamEngine 4.4.1
M140 S60
M105
M190 S60
M104 S205
M105
M109 S205
M82 ;absolute extrusion mode
M201 X500.00 Y500.00 Z100.00 E5000.00 ;Setup machine max acceleration
M203 X500.00 Y500.00 Z10.00 E75.00 ;Setup machine max feedrate
M204 P500.00 R1000.00 T500.00 ;Setup Print/Retract/Travel acceleration
M205 X8.00 Y8.00 Z0.40 E5.00 ;Setup Jerk
M220 S100 ;Reset Feedrate
M221 S100 ;Reset Flowrate

G21 ; (metric values)
G90 ; (absolute positioning)
M82 ; (set extruder to absolute mode)
G28 ; (home all axis)
G29 ; (Auto Level)

G92 E0 ;Reset Extruder
G1 Z2.0 F3000 ;Move Z Axis up
G1 X1.1 Y50 Z0.28 F5000.0 ;Move to start position
G1 X1.1 Y200.0 Z0.28 F1500.0 E15 ;Draw the first line
G1 X1.4 Y200.0 Z0.28 F5000.0 ;Move to side a little
G1 X1.4 Y100 Z0.28 F1500.0 E30 ;Draw the second line
G92 E0 ;Reset Extruder
G1 Z2.0 F3000 ;Move Z Axis up
G92 E0
G92 E0
G1 F3000 E-6
;LAYER_COUNT:116
;LAYER:0
M107
G1 F300 Z0.55
G0 F6000 X65.838 Y92.897 Z0.55
;TYPE:SKIRT
G1 F300 Z0.2
G1 F3000 E0
G1 F1200 X66.409 Y92.549 E0.02224
G1 X67.018 Y92.271 E0.04451
G1 X67.562 Y92.093 E0.06354
G1 X68.447 Y91.852 E0.09405
G1 X68.547 Y91.826 E0.09749
G1 X74.929 Y90.214 E0.31642
G1 X74.997 Y90.197 E0.31875
G1 X75.628 Y90.046 E0.34033
G1 X76.286 Y89.929 E0.36256
G1 X76.869 Y89.892 E0.38199
G1 X77.771 Y89.882 E0.41199
G1 X101.425 Y89.882 E1.19873
G1 X101.505 Y89.883 E1.20139
G1 X102.203 Y89.893 E1.22461
G1 X102.87 Y89.942 E1.24685
G1 X103.527 Y90.071 E1.26912
G1 X104.163 Y90.277 E1.29136
G1 X104.483 Y90.414 E1.30293
G1 X106.864 Y91.52 E1.39025
G1 X109.304 Y92.586 E1.47881
G1 X111.797 Y93.592 E1.56823
G1 X114.289 Y94.517 E1.65664
G1 X116.836 Y95.38 E1.74608
G1 X119.383 Y96.165 E1.83473
G1 X121.974 Y96.883 E1.92415
G1 X124.565 Y97.523 E2.01292
G1 X127.138 Y98.08 E2.10048
G1 X129.786 Y98.577 E2.19009
G1 X132.434 Y98.997 E2.27926
G1 X135.042 Y99.336 E2.36674
G1 X137.744 Y99.608 E2.45706
G1 X140.395 Y99.8 E2.54546
G1 X142.406 Y99.898 E2.61243
G1 X143.359 Y100.027 E2.64441
G1 X143.948 Y100.159 E2.66449
G1 X144.094 Y100.193 E2.66948
G1 X151.635 Y102.097 E2.92816
G1 X151.706 Y102.116 E2.93061
G1 X152.4 Y102.301 E2.9545
G1 X153.035 Y102.512 E2.97675
G1 X153.641 Y102.796 E2.99901
G1 X154.208 Y103.151 E3.02126
G1 X154.729 Y103.572 E3.04354
G1 X155.195 Y104.051 E3.06577
G1 X155.602 Y104.582 E3.08802
G1 X155.942 Y105.158 E3.11027
G1 X156.211 Y105.771 E3.13253
G1 X156.405 Y106.411 E3.15477
G1 X156.521 Y107.07 E3.17703
G1 X156.557 Y107.821 E3.20204
G1 X156.533 Y109.065 E3.24342
G1 X156.518 Y111.816 E3.33492
G1 X156.539 Y113.166 E3.37983
G1 X156.562 Y114.157 E3.4128
G1 X156.538 Y114.826 E3.43506
G1 X156.434 Y115.487 E3.45732
G1 X156.252 Y116.13 E3.47954
G1 X155.994 Y116.748 E3.50182
G1 X155.665 Y117.33 E3.52405
G1 X155.269 Y117.869 E3.5463
G1 X154.811 Y118.357 E3.56856
G1 X154.283 Y118.797 E3.59142
G1 X153.179 Y119.61 E3.63702
G1 X151.429 Y120.922 E3.70977
G1 X149.311 Y122.598 E3.7996
G1 X147.261 Y124.315 E3.88854
G1 X145.295 Y126.059 E3.97595
G1 X143.332 Y127.903 E4.06553
G1 X141.437 Y129.785 E4.15436
G1 X139.594 Y131.723 E4.24331
G1 X137.813 Y133.706 E4.33196
G1 X136.751 Y134.947 E4.38628
G1 X136.142 Y135.556 E4.41493
G1 X135.748 Y135.894 E4.4322
G1 X135.215 Y136.299 E4.45446
G1 X134.573 Y136.669 E4.47911
G1 X134.093 Y136.905 E4.4969
G1 X133.476 Y137.164 E4.51915
G1 X132.649 Y137.385 E4.54762
G1 X132.113 Y137.485 E4.56576
G1 X131.449 Y137.568 E4.58802
G1 X131.086 Y137.58 E4.6001
G1 X130.805 Y137.58 E4.60944
G1 X130.283 Y137.556 E4.62682
G1 X123.208 Y136.894 E4.86316
G1 X123.129 Y136.886 E4.86581
G1 X122.397 Y136.807 E4.89029
G1 X121.737 Y136.695 E4.91256
G1 X121.314 Y136.58 E4.92714
G1 X121.09 Y136.51 E4.93494
G1 X118.461 Y135.72 E5.02625
G1 X115.895 Y135.029 E5.11463
G1 X113.326 Y134.415 E5.20249
G1 X110.669 Y133.857 E5.29279
G1 X108.04 Y133.384 E5.38163
G1 X105.422 Y132.989 E5.46969
G1 X102.805 Y132.669 E5.55738
G1 X100.093 Y132.414 E5.64798
G1 X97.45 Y132.242 E5.73607
G1 X94.799 Y132.144 E5.82431
G1 X92.573 Y132.119 E5.89835
G1 X77.873 Y132.119 E6.38727
G1 X77.797 Y132.118 E6.3898
G1 X76.988 Y132.107 E6.41671
G1 X76.321 Y132.058 E6.43895
G1 X75.85 Y131.975 E6.45486
G1 X74.873 Y131.758 E6.48815
G1 X74.726 Y131.723 E6.49317
G1 X68.332 Y130.121 E6.71241
G1 X68.262 Y130.103 E6.71482
G1 X67.596 Y129.927 E6.73773
G1 X66.961 Y129.718 E6.75996
G1 X66.355 Y129.434 E6.78222
G1 X65.787 Y129.081 E6.80446
G1 X65.265 Y128.662 E6.82673
G1 X64.798 Y128.183 E6.84898
G1 X64.39 Y127.653 E6.87122
G1 X64.049 Y127.077 E6.89349
G1 X63.778 Y126.465 E6.91575
G1 X63.583 Y125.825 E6.938
G1 X63.465 Y125.167 E6.96024
G1 X63.427 Y124.499 E6.98249
G1 X63.474 Y123.786 E7.00626
G1 X63.527 Y123.381 E7.01984
G1 X63.839 Y120.742 E7.10823
G1 X64.079 Y118.065 E7.19762
G1 X64.242 Y115.382 E7.28702
G1 X64.328 Y112.732 E7.37521
G1 X64.34 Y110.044 E7.46461
G1 X64.276 Y107.387 E7.55301
G1 X64.138 Y104.745 E7.641
G1 X63.921 Y102.058 E7.73066
G1 X63.628 Y99.378 E7.82033
G1 X63.521 Y98.577 E7.84721
G1 X63.506 Y98.46 E7.85113
G1 X63.468 Y98.123 E7.86241
G1 X63.433 Y97.455 E7.88466
G1 X63.478 Y96.788 E7.9069
G1 X63.602 Y96.13 E7.92917
G1 X63.804 Y95.492 E7.95142
G1 X64.08 Y94.883 E7.97366
G1 X64.427 Y94.311 E7.99591
G1 X64.84 Y93.785 E8.01816
G1 X65.22 Y93.403 E8.03608
G0 F1080 X65.312 Y93.311
G0 X65.838 Y92.897
G0 F6000 X66.242 Y93.109
G1 F1200 X66.806 Y92.797 E8.05752
G1 X67.667 Y92.479 E8.08804
G1 X68.552 Y92.238 E8.11855
G1 X68.645 Y92.213 E8.12175
G1 X75.027 Y90.601 E8.34069
G1 X75.09 Y90.586 E8.34284
G1 X75.721 Y90.435 E8.36442
G1 X76.356 Y90.324 E8.38586
G1 X76.873 Y90.292 E8.40309
G1 X77.775 Y90.282 E8.43309
G1 X101.425 Y90.282 E9.21969
G1 X101.499 Y90.283 E9.22216
G1 X102.197 Y90.293 E9.24537
G1 X102.84 Y90.342 E9.26682
G1 X103.472 Y90.47 E9.28827
G1 X104.314 Y90.776 E9.31807
G1 X106.697 Y91.884 E9.40547
G1 X109.174 Y92.965 E9.49536
G1 X111.644 Y93.962 E9.58396
G1 X114.168 Y94.899 E9.6735
G1 X116.727 Y95.766 E9.76337
G1 X119.263 Y96.547 E9.85162
G1 X121.843 Y97.262 E9.94067
G1 X124.489 Y97.916 E10.03132
G1 X127.05 Y98.471 E10.11848
G1 X129.721 Y98.972 E10.20887
G1 X132.356 Y99.39 E10.2976
G1 X135.017 Y99.735 E10.38685
G1 X137.711 Y100.007 E10.47691
G1 X140.346 Y100.198 E10.56478
G1 X142.387 Y100.297 E10.63274
G1 X143.271 Y100.417 E10.66241
G1 X143.86 Y100.549 E10.68249
G1 X143.996 Y100.581 E10.68714
G1 X151.537 Y102.485 E10.94582
G1 X151.603 Y102.502 E10.94809
G1 X152.297 Y102.687 E10.97198
G1 X152.909 Y102.892 E10.99345
G1 X153.49 Y103.17 E11.01487
G1 X154.033 Y103.518 E11.03632
G1 X154.528 Y103.931 E11.05776
G1 X154.968 Y104.402 E11.0792
G1 X155.347 Y104.924 E11.10065
G1 X155.658 Y105.488 E11.12207
G1 X155.898 Y106.087 E11.14354
G1 X156.061 Y106.711 E11.16499
G1 X156.145 Y107.35 E11.18642
G1 X156.157 Y107.813 E11.20183
G1 X156.133 Y109.025 E11.24215
G1 X156.118 Y111.82 E11.33511
G1 X156.139 Y113.175 E11.38018
G1 X156.14 Y113.175 E11.38022
G1 X156.163 Y114.166 E11.41319
G1 X156.138 Y114.811 E11.43466
G1 X156.033 Y115.447 E11.4561
G1 X155.851 Y116.065 E11.47752
G1 X155.593 Y116.656 E11.49897
G1 X155.264 Y117.211 E11.52043
G1 X154.87 Y117.72 E11.54184
G1 X154.415 Y118.177 E11.56329
G1 X154.046 Y118.475 E11.57906
G1 X152.939 Y119.29 E11.62478
G1 X151.181 Y120.608 E11.69786
G1 X149.051 Y122.293 E11.7882
G1 X147.022 Y123.993 E11.87624
G1 X145.002 Y125.785 E11.96605
G1 X143.059 Y127.61 E12.05471
G1 X141.148 Y129.508 E12.14429
G1 X139.306 Y131.445 E12.2332
G1 X137.515 Y133.439 E12.32234
G1 X136.447 Y134.687 E12.37697
G1 X135.882 Y135.253 E12.40357
G1 X135.488 Y135.591 E12.42084
G1 X134.973 Y135.979 E12.44229
G1 X134.396 Y136.31 E12.46441
G1 X133.916 Y136.546 E12.4822
G1 X133.321 Y136.795 E12.50365
G1 X132.576 Y136.992 E12.52928
G1 X132.04 Y137.092 E12.54742
G1 X131.086 Y137.18 E12.57928
G1 X130.805 Y137.18 E12.58863
G1 X130.321 Y137.157 E12.60475
G1 X123.246 Y136.495 E12.84109
G1 X123.172 Y136.488 E12.84356
G1 X122.44 Y136.409 E12.86805
G1 X121.805 Y136.3 E12.88948
G1 X121.435 Y136.198 E12.90224
G1 X121.227 Y136.132 E12.9095
G1 X121.227 Y136.133 E12.90954
G1 X118.575 Y135.337 E13.00163
G1 X115.987 Y134.64 E13.09077
G1 X113.396 Y134.02 E13.17938
G1 X110.75 Y133.465 E13.2693
G1 X108.139 Y132.995 E13.35754
G1 X105.458 Y132.591 E13.44772
G1 X102.816 Y132.267 E13.53625
G1 X100.159 Y132.018 E13.62501
G1 X97.455 Y131.842 E13.71514
G1 X94.818 Y131.745 E13.8029
G1 X92.578 Y131.719 E13.87741
G1 X77.802 Y131.719 E14.36886
G1 X76.993 Y131.708 E14.39577
G1 X76.35 Y131.659 E14.41722
G1 X75.937 Y131.584 E14.43118
G1 X74.96 Y131.367 E14.46447
G1 X74.823 Y131.335 E14.46915
G1 X68.429 Y129.733 E14.68839
G1 X68.364 Y129.716 E14.69062
G1 X67.698 Y129.54 E14.71353
G1 X67.087 Y129.337 E14.73495
G1 X66.505 Y129.06 E14.75638
G1 X65.961 Y128.713 E14.77785
G1 X65.465 Y128.302 E14.79927
G1 X65.024 Y127.832 E14.82071
G1 X64.644 Y127.311 E14.84215
G1 X64.331 Y126.747 E14.86361
G1 X64.091 Y126.149 E14.88504
G1 X63.927 Y125.525 E14.9065
G1 X63.84 Y124.887 E14.92792
G1 X63.834 Y124.242 E14.94937
G1 X63.871 Y123.838 E14.96286
G1 X63.924 Y123.433 E14.97645
G1 X64.24 Y120.753 E15.0662
G1 X64.479 Y118.09 E15.15513
G1 X64.641 Y115.421 E15.24407
G1 X64.728 Y112.747 E15.33305
G1 X64.74 Y110.036 E15.42322
G1 X64.676 Y107.392 E15.51118
G1 X64.536 Y104.693 E15.60107
G1 X64.32 Y102.019 E15.6903
G1 X64.029 Y99.362 E15.7792
G1 X63.917 Y98.524 E15.80732
G1 X63.904 Y98.416 E15.81094
G1 X63.866 Y98.079 E15.82222
G1 X63.833 Y97.435 E15.84367
G1 X63.881 Y96.792 E15.86511
G1 X64.008 Y96.16 E15.88655
G1 X64.212 Y95.548 E15.90801
G1 X64.49 Y94.967 E15.92943
G1 X64.838 Y94.424 E15.95088
G1 X65.25 Y93.928 E15.97233
G1 X65.607 Y93.594 E15.98859
G0 F1080 X65.72 Y93.488
G0 X66.242 Y93.109
G1 F3000 E9.98859
G1 F300 Z0.55
G0 F6000 X101.796 Y124.069 Z0.55
G1 F300 Z0.2
G1 F3000 E15.98859
G1 F1200 X102.508 Y123.355 E16.02213
G1 X103.693 Y122.17 E16.07787
G1 X103.912 Y121.945 E16.08831
G1 X105.049 Y120.812 E16.1417
G1 X105.054 Y120.807 E16.14193
G1 X105.215 Y120.635 E16.14977
G1 X106.331 Y119.522 E16.20219
G1 X106.333 Y119.52 E16.20228
G1 X106.68 Y119.164 E16.21882
G1 X107.772 Y118.076 E16.27009
G1 X107.776 Y118.072 E16.27028
G1 X107.985 Y117.853 E16.28035
G1 X109.211 Y116.63 E16.33794
G1 X109.214 Y116.627 E16.33808
G1 X109.308 Y116.53 E16.34258
G1 X109.307 Y116.53 E16.34261
G1 X110.631 Y115.206 E16.40489
G1 X110.868 Y114.951 E16.41647
G1 X111.534 Y116.56 E16.47438
G1 X110.591 Y117.497 E16.5186
G1 X110.3 Y117.769 E16.53185
G1 X109.214 Y118.855 E16.58293
G1 X109.207 Y118.872 E16.58354
G1 X107.842 Y120.238 E16.64777
G1 X107.835 Y120.255 E16.64838
G1 X106.672 Y121.418 E16.70309
G1 X106.668 Y121.421 E16.70325
G1 X106.359 Y121.745 E16.71814
G1 X105.124 Y122.986 E16.77637
G1 X104.103 Y124.007 E16.8244
G1 X104.102 Y124.009 E16.82447
G1 X103.776 Y124.344 E16.84002
G1 X102.638 Y125.481 E16.89353
G1 X102.635 Y125.483 E16.89365
G1 X102.516 Y125.607 E16.89936
G1 X102.461 Y125.662 E16.90195
G1 X102.107 Y124.806 E16.93276
G0 F1080 X101.919 Y124.352
G0 X101.917 Y124.348
G0 X101.796 Y124.069
G0 F6000 X102.271 Y124.159
G1 F1200 X102.791 Y123.638 E16.95724
G1 X103.98 Y122.449 E17.01317
G1 X104.195 Y122.228 E17.02342
G1 X105.332 Y121.095 E17.07681
G1 X105.346 Y121.08 E17.07749
G1 X105.498 Y120.918 E17.08488
G1 X106.614 Y119.805 E17.1373
G1 X106.62 Y119.799 E17.13759
G1 X106.969 Y119.441 E17.15421
G1 X108.054 Y118.359 E17.20518
G1 X108.065 Y118.348 E17.2057
G1 X108.268 Y118.136 E17.21546
G1 X109.494 Y116.913 E17.27306
G1 X109.501 Y116.906 E17.27338
G1 X109.595 Y116.809 E17.27788
G1 X109.594 Y116.809 E17.27791
G1 X110.733 Y115.67 E17.33149
G1 X111.062 Y116.465 E17.3601
G1 X110.309 Y117.213 E17.3954
G1 X110.027 Y117.476 E17.40823
G1 X108.931 Y118.572 E17.45978
G1 X108.908 Y118.605 E17.46112
G1 X107.559 Y119.955 E17.5246
G1 X107.537 Y119.987 E17.52589
G1 X106.379 Y121.145 E17.58036
G1 X106.076 Y121.463 E17.59497
G1 X104.842 Y122.703 E17.65315
G1 X103.815 Y123.73 E17.70146
G1 X103.493 Y124.061 E17.71682
G1 X102.6 Y124.953 E17.7588
G1 X102.577 Y124.899 E17.76075
G0 F1080 X102.288 Y124.199
G0 X102.284 Y124.189
G0 X102.271 Y124.159
G1 F3000 E11.76075
G1 F300 Z0.55
;MESH:2.stl
G0 F6000 X142.034 Y106.482 Z0.55
;TYPE:WALL-INNER
G1 F300 Z0.2
G1 F3000 E17.76075
G1 F1200 X146.002 Y107.483 E17.89686
G1 X141.986 Y106.517 E18.03424
G0 F1080 X141.847 Y106.484
G0 X142.034 Y106.482
G0 F6000 X142.084 Y106.082
G1 F1200 X150.12 Y108.11 E18.3099
G1 X149.797 Y108.808 E18.33548
G1 X141.799 Y106.884 E18.60908
G1 X140.92 Y106.882 E18.63832
G1 X111.618 Y106.882 E19.61291
G1 X101.58 Y96.882 E20.08417
G1 X73.848 Y96.882 E21.00654
G1 X76.347 Y96.251 E21.09227
G1 X76.347 Y96.451 E21.09892
G1 X77.275 Y96.082 E21.13214
G1 X101.884 Y96.082 E21.95064
G1 X101.969 Y96.167 E21.95463
G1 X111.913 Y106.082 E22.42169
G1 X141.284 Y106.082 E23.39857
G0 F1080 X142.084 Y106.082
G0 F6000 X142.175 Y105.692
;TYPE:WALL-OUTER
G1 F1200 X150.686 Y107.84 E23.69052
G1 X150.022 Y109.274 E23.74308
G1 X141.751 Y107.284 E24.02603
G1 X140.919 Y107.282 E24.0537
G1 X111.453 Y107.282 E25.03374
G1 X101.415 Y97.282 E25.50501
G1 X70.63 Y97.282 E26.52892
G1 X76.747 Y95.737 E26.73876
G1 X76.747 Y95.861 E26.74289
G1 X77.197 Y95.682 E26.75899
G1 X102.049 Y95.682 E27.58558
G1 X102.251 Y95.883 E27.59505
G1 X112.078 Y105.682 E28.05663
G1 X141.376 Y105.682 E29.03108
G0 F1080 X142.136 Y105.682
G0 X142.175 Y105.692
G0 F6000 X142.562 Y105.789
G0 X142.454 Y106.215
G1 F3000 E23.03108
G1 F300 Z0.55
;MESH:1.stl
G0 F6000 X101.267 Y125.919 Z0.55
;TYPE:WALL-INNER
G1 F300 Z0.2
G1 F3000 E29.03108
G1 F1200 X77.281 Y125.919 E29.82886
G1 X76.346 Y125.55 E29.86229
G1 X76.346 Y125.737 E29.86851
G1 X73.878 Y125.119 E29.95313
G1 X100.936 Y125.119 E30.85309
G1 X100.961 Y125.18 E30.85528
G0 F1080 X101.267 Y125.919
G0 F6000 X101.866 Y126.319
;TYPE:WALL-OUTER
G1 F1200 X77.205 Y126.319 E31.67551
G1 X76.746 Y126.138 E31.69192
G1 X76.746 Y126.25 E31.69564
G1 X70.637 Y124.719 E31.90511
G1 X101.204 Y124.719 E32.92177
G1 X101.561 Y125.58 E32.95278
G0 F1080 X101.866 Y126.319
G0 F6000 X101.466 Y126.319
G1 F3000 E26.95278
G1 F300 Z0.55
G0 F6000 X141.85 Y115.518 Z0.55
;TYPE:WALL-INNER
G1 F300 Z0.2
G1 F3000 E32.95278
G1 F1200 X146.699 Y114.342 E33.11873
G1 X142.213 Y115.474 E33.27261
G0 F1080 X142.042 Y115.517
G0 X141.85 Y115.518
G0 F6000 X141.797 Y115.119
G1 F1200 X149.796 Y113.18 E33.54636
G1 X150.125 Y113.891 E33.57242
G1 X142.093 Y115.917 E33.84793
G1 X141.407 Y115.919 E33.87075
G1 X112.568 Y115.919 E34.82994
G1 X112.237 Y115.119 E34.85874
G1 X140.997 Y115.119 E35.8153
G0 F1080 X141.797 Y115.119
G1 F3000 E29.8153
G1 F300 Z0.55
G0 F6000 X112.3 Y116.319 Z0.55
;TYPE:WALL-OUTER
G1 F300 Z0.2
G1 F3000 E35.8153
G1 F1200 X111.638 Y114.719 E35.87289
G1 X141.749 Y114.719 E36.87438
G1 X150.021 Y112.714 E37.15748
G1 X150.691 Y114.161 E37.21051
G1 X142.144 Y116.317 E37.50369
G1 X141.408 Y116.319 E37.52817
G1 X113.1 Y116.319 E38.4697
G0 F1080 X112.3 Y116.319
G0 F6000 X112.148 Y115.95
G0 X112.554 Y115.783
G1 F3000 E32.4697
G1 F300 Z0.55
;MESH:3.stl
G0 F6000 X131.362 Y131.347 Z0.55
;TYPE:WALL-INNER
G1 F300 Z0.2
G1 F3000 E38.4697
G1 F1200 X130.985 Y131.397 E38.48235
G1 X123.6 Y130.704 E38.72906
G1 X123.6 Y129.908 E38.75553
G1 X131.6 Y130.659 E39.02278
G1 X131.6 Y124.346 E39.23275
G1 X130.889 Y124.408 E39.25649
G1 X123.6 Y125.091 E39.49999
G1 X123.6 Y124.296 E39.52643
G1 X130.987 Y123.603 E39.7732
G1 X131.362 Y123.653 E39.78578
G1 X131.695 Y123.791 E39.79777
G1 X131.986 Y124.014 E39.80996
G1 X132.209 Y124.305 E39.82216
G1 X132.347 Y124.638 E39.83415
G1 X132.4 Y125.04 E39.84763
