;FLAVOR:Marlin
;TIME:7105
;Filament used: 4.4805m
;Layer height: 0.2
;MINX:63.238
;MINY:101.187
;MINZ:0.3
;MAXX:156.793
;MAXY:133.813
;MAXZ:51.45
;Generated with Cura_SteamEngine 4.4.1
M140 S60
M105
M190 S60
M104 S205
M105
M109 S205
M82 ;absolute extrusion mode
M201 X500.00 Y500.00 Z100.00 E5000.00 ;Setup machine max acceleration
M203 X500.00 Y500.00 Z10.00 E75.00 ;Setup machine max feedrate
M204 P500.00 R1000.00 T500.00 ;Setup Print/Retract/Travel acceleration
M205 X8.00 Y8.00 Z0.40 E5.00 ;Setup Jerk
M220 S100 ;Reset Feedrate
M221 S100 ;Reset Flowrate

G21 ; (metric values)
G90 ; (absolute positioning)
M82 ; (set extruder to absolute mode)
G28 ; (home all axis)
G29 ; (Auto Level)

G92 E0 ;Reset Extruder
G1 Z2.0 F3000 ;Move Z Axis up
G1 X1.1 Y50 Z0.28 F5000.0 ;Move to start position
G1 X1.1 Y200.0 Z0.28 F1500.0 E15 ;Draw the first line
G1 X1.4 Y200.0 Z0.28 F5000.0 ;Move to side a little
G1 X1.4 Y100 Z0.28 F1500.0 E30 ;Draw the second line
G92 E0 ;Reset Extruder
G1 Z2.0 F3000 ;Move Z Axis up
G92 E0
G92 E0
G1 F3000 E-6
;LAYER_COUNT:255
;LAYER:0
M107
G1 F300 Z0.65
G0 F6000 X68.978 Y104.061 Z0.65
;TYPE:SKIRT
G1 F300 Z0.3
G1 F3000 E0
G1 F1200 X69.909 Y103.498 E0.05428
G1 X70.006 Y103.441 E0.05989
G1 X70.451 Y103.184 E0.08553
G1 X70.526 Y103.141 E0.08984
G1 X71.093 Y102.825 E0.12223
G1 X71.983 Y102.426 E0.17089
G1 X72.96 Y102.087 E0.22248
G1 X73.058 Y102.054 E0.22764
G1 X73.585 Y101.882 E0.2553
G1 X73.676 Y101.854 E0.26005
G1 X74.303 Y101.661 E0.29278
G1 X75.251 Y101.457 E0.34116
G1 X76.268 Y101.329 E0.39229
G1 X76.387 Y101.315 E0.39827
G1 X76.944 Y101.257 E0.42621
G1 X77.015 Y101.25 E0.42977
G1 X77.672 Y101.19 E0.46269
G1 X78.651 Y101.187 E0.51153
G1 X79.683 Y101.274 E0.5632
G1 X79.8 Y101.285 E0.56906
G1 X80.331 Y101.341 E0.5957
G1 X80.407 Y101.349 E0.59951
G1 X81.078 Y101.429 E0.63323
G1 X82.035 Y101.629 E0.682
G1 X83.021 Y101.927 E0.73339
G1 X83.133 Y101.963 E0.73926
G1 X86.335 Y103.005 E0.90725
G1 X88.908 Y103.761 E1.04105
G1 X91.498 Y104.443 E1.17467
G1 X94.078 Y105.046 E1.30685
G1 X96.739 Y105.588 E1.44234
G1 X99.332 Y106.039 E1.57365
G1 X101.98 Y106.425 E1.70715
G1 X104.626 Y106.733 E1.84005
G1 X107.273 Y106.966 E1.97262
G1 X109.965 Y107.127 E2.10717
G1 X112.615 Y107.209 E2.23944
G1 X114.29 Y107.224 E2.32301
G1 X115.87 Y107.224 E2.40183
G1 X118.53 Y107.186 E2.53456
G1 X121.215 Y107.072 E2.66863
G1 X123.869 Y106.884 E2.80137
G1 X126.535 Y106.62 E2.93503
G1 X129.199 Y106.279 E3.06902
G1 X131.8 Y105.87 E3.20038
G1 X134.451 Y105.378 E3.3349
G1 X137.064 Y104.815 E3.46825
G1 X138.856 Y104.368 E3.5604
G1 X138.91 Y104.354 E3.56318
G1 X139.981 Y104.098 E3.61812
G1 X140.416 Y104.012 E3.64024
G1 X140.633 Y103.978 E3.6512
G1 X140.808 Y103.954 E3.66001
G1 X141.121 Y103.915 E3.67575
G1 X141.175 Y103.909 E3.67846
G1 X141.724 Y103.846 E3.70603
G1 X141.794 Y103.838 E3.70954
G1 X142.51 Y103.765 E3.74545
G1 X143.178 Y103.737 E3.7788
G1 X143.63 Y103.763 E3.80139
G1 X144.407 Y103.84 E3.84035
G1 X144.555 Y103.857 E3.84778
G1 X145.436 Y103.968 E3.89208
G1 X146.094 Y104.091 E3.92547
G1 X146.462 Y104.196 E3.94457
G1 X147.027 Y104.379 E3.9742
G1 X147.128 Y104.414 E3.97953
G1 X147.8 Y104.646 E4.015
G1 X147.873 Y104.671 E4.01885
G1 X148.519 Y104.904 E4.05311
G1 X149.134 Y105.168 E4.0865
G1 X149.536 Y105.392 E4.10946
G1 X150.257 Y105.832 E4.1516
G1 X150.381 Y105.91 E4.15891
G1 X151.151 Y106.408 E4.20466
G1 X151.911 Y106.998 E4.25266
G1 X152.096 Y107.169 E4.26523
G1 X152.224 Y107.29 E4.27401
G1 X152.871 Y107.927 E4.31931
G1 X152.927 Y107.983 E4.32326
G1 X153.397 Y108.459 E4.35664
G1 X153.838 Y108.963 E4.39005
G1 X154.117 Y109.357 E4.41413
G1 X154.74 Y110.322 E4.47144
G1 X154.821 Y110.451 E4.47904
G1 X155.191 Y111.06 E4.51459
G1 X155.504 Y111.652 E4.548
G1 X155.683 Y112.096 E4.57188
G1 X156.071 Y113.19 E4.62979
G1 X156.12 Y113.335 E4.63743
G1 X156.321 Y113.955 E4.66995
G1 X156.54 Y114.909 E4.71878
G1 X156.674 Y115.87 E4.76719
G1 X156.697 Y116.056 E4.77654
G1 X156.763 Y116.682 E4.80794
G1 X156.793 Y117.35 E4.8413
G1 X156.769 Y117.801 E4.86383
G1 X156.7 Y118.524 E4.90007
G1 X156.691 Y118.609 E4.90433
G1 X156.608 Y119.358 E4.94193
G1 X156.598 Y119.439 E4.946
G1 X156.519 Y120.068 E4.97763
G1 X156.362 Y120.858 E5.01781
G1 X156.303 Y121.072 E5.02889
G1 X156.212 Y121.369 E5.04439
G1 X155.947 Y122.157 E5.08586
G1 X155.914 Y122.251 E5.09083
G1 X155.696 Y122.863 E5.12324
G1 X155.435 Y123.479 E5.15662
G1 X155.209 Y123.889 E5.17998
G1 X154.697 Y124.733 E5.22923
G1 X154.603 Y124.882 E5.23802
G1 X154.115 Y125.632 E5.28266
G1 X153.552 Y126.359 E5.32853
G1 X153.401 Y126.524 E5.33969
G1 X153.248 Y126.684 E5.35074
G1 X152.613 Y127.325 E5.39575
G1 X152.55 Y127.388 E5.4002
G1 X152.054 Y127.873 E5.43481
G1 X151.549 Y128.311 E5.46816
G1 X151.203 Y128.557 E5.48934
G1 X150.643 Y128.923 E5.52271
G1 X150.565 Y128.972 E5.52731
G1 X150.143 Y129.238 E5.5522
G1 X150.077 Y129.279 E5.55607
G1 X149.501 Y129.631 E5.58975
G1 X148.91 Y129.946 E5.62316
G1 X148.543 Y130.098 E5.64298
G1 X147.92 Y130.331 E5.67616
G1 X147.792 Y130.377 E5.68295
G1 X147.492 Y130.481 E5.69879
G1 X147.441 Y130.499 E5.70149
G1 X146.783 Y130.72 E5.73612
G1 X146.137 Y130.894 E5.7695
G1 X145.697 Y130.967 E5.79175
G1 X144.932 Y131.063 E5.83021
G1 X144.845 Y131.074 E5.83459
G1 X144.197 Y131.145 E5.86711
G1 X144.119 Y131.153 E5.87102
G1 X143.407 Y131.221 E5.90671
G1 X142.739 Y131.244 E5.94005
G1 X142.381 Y131.224 E5.95794
G1 X141.907 Y131.182 E5.98168
G1 X141.781 Y131.17 E5.988
G1 X141.341 Y131.121 E6.01008
G1 X141.223 Y131.106 E6.01602
G1 X140.523 Y131.013 E6.05125
G1 X139.89 Y130.892 E6.0834
G1 X138.547 Y130.553 E6.1525
G1 X135.957 Y129.937 E6.28532
G1 X133.294 Y129.382 E6.42104
G1 X130.737 Y128.927 E6.55061
G1 X128.036 Y128.523 E6.68686
G1 X125.419 Y128.206 E6.81838
G1 X122.777 Y127.962 E6.95075
G1 X120.063 Y127.789 E7.08643
G1 X117.447 Y127.697 E7.21702
G1 X115.351 Y127.674 E7.3216
G1 X114.526 Y127.674 E7.36276
G1 X111.866 Y127.712 E7.49548
G1 X109.181 Y127.826 E7.62955
G1 X106.527 Y128.014 E7.76229
G1 X103.861 Y128.278 E7.89595
G1 X101.197 Y128.619 E8.02994
G1 X98.596 Y129.028 E8.1613
G1 X95.945 Y129.52 E8.29582
G1 X93.336 Y130.082 E8.42897
G1 X90.769 Y130.712 E8.56084
G1 X88.181 Y131.423 E8.69474
G1 X85.581 Y132.219 E8.8304
G1 X82.914 Y133.107 E8.97063
G1 X82.795 Y133.145 E8.97687
G1 X82.169 Y133.338 E9.00955
G1 X81.218 Y133.543 E9.05808
G1 X80.2 Y133.671 E9.10927
G1 X80.081 Y133.685 E9.11525
G1 X79.524 Y133.743 E9.14319
G1 X79.453 Y133.75 E9.14675
G1 X78.796 Y133.81 E9.17966
G1 X77.817 Y133.813 E9.22851
G1 X76.785 Y133.726 E9.28017
G1 X76.668 Y133.715 E9.28604
G1 X76.137 Y133.659 E9.31268
G1 X76.066 Y133.651 E9.31624
G1 X75.339 Y133.565 E9.35276
G1 X74.394 Y133.37 E9.4009
G1 X74.153 Y133.298 E9.41345
G1 X74.036 Y133.261 E9.41957
G1 X72.834 Y132.873 E9.48259
G1 X72.76 Y132.849 E9.48647
G1 X72.077 Y132.618 E9.52244
G1 X71.23 Y132.251 E9.56849
G1 X70.972 Y132.113 E9.58309
G1 X70.817 Y132.027 E9.59194
G1 X69.729 Y131.4 E9.65458
G1 X69.652 Y131.355 E9.65903
G1 X69.105 Y131.028 E9.69083
G1 X68.315 Y130.457 E9.73946
G1 X67.458 Y129.716 E9.79598
G1 X67.368 Y129.636 E9.80199
G1 X67.048 Y129.347 E9.8235
G1 X66.996 Y129.3 E9.827
G1 X66.483 Y128.825 E9.86188
G1 X65.822 Y128.094 E9.91105
G1 X65.22 Y127.298 E9.96084
G1 X65.157 Y127.214 E9.96608
G1 X64.818 Y126.748 E9.99482
G1 X64.772 Y126.684 E9.99876
G1 X64.383 Y126.133 E10.03241
G1 X63.885 Y125.275 E10.0819
G1 X63.762 Y125.012 E10.09639
G1 X63.516 Y124.391 E10.12971
G1 X63.345 Y123.744 E10.1631
G1 X63.252 Y123.081 E10.1965
G1 X63.24 Y122.394 E10.23078
G1 X63.271 Y121.688 E10.26603
G1 X63.352 Y119.031 E10.39865
G1 X63.358 Y116.345 E10.53266
G1 X63.286 Y113.651 E10.66711
G1 X63.25 Y112.909 E10.70417
G1 X63.245 Y112.789 E10.71017
G1 X63.238 Y112.534 E10.72289
G1 X63.26 Y111.865 E10.75629
G1 X63.361 Y111.204 E10.78965
G1 X63.54 Y110.559 E10.82304
G1 X63.674 Y110.21 E10.84169
G1 X63.777 Y109.965 E10.85495
G1 X64.072 Y109.365 E10.88831
G1 X64.354 Y108.92 E10.91459
G1 X64.903 Y108.137 E10.9623
G1 X64.959 Y108.058 E10.96713
G1 X65.298 Y107.592 E10.99588
G1 X65.34 Y107.536 E10.99938
G1 X65.735 Y107.007 E11.03231
G1 X66.396 Y106.268 E11.08178
G1 X67.173 Y105.541 E11.13487
G1 X67.252 Y105.469 E11.1402
G1 X67.654 Y105.107 E11.16719
G1 X67.717 Y105.051 E11.17139
G1 X68.192 Y104.636 E11.20286
G1 X68.549 Y104.375 E11.22492
G0 F1080 X68.978 Y104.061
G0 F6000 X69.185 Y104.403
G1 F1200 X70.116 Y103.84 E11.2792
G1 X70.206 Y103.787 E11.28442
G1 X70.651 Y103.53 E11.31005
G1 X70.721 Y103.491 E11.31405
G1 X71.288 Y103.175 E11.34644
G1 X72.114 Y102.804 E11.39161
G1 X73.091 Y102.465 E11.4432
G1 X73.183 Y102.435 E11.44803
G1 X73.71 Y102.263 E11.47569
G1 X73.793 Y102.236 E11.48004
G1 X74.42 Y102.043 E11.51277
G1 X75.301 Y101.854 E11.55773
G1 X76.318 Y101.726 E11.60887
G1 X76.428 Y101.713 E11.61439
G1 X76.985 Y101.655 E11.64233
G1 X77.051 Y101.649 E11.64564
G1 X77.708 Y101.589 E11.67855
G1 X78.618 Y101.585 E11.72395
G1 X79.65 Y101.672 E11.77562
G1 X79.758 Y101.683 E11.78104
G1 X80.289 Y101.739 E11.80768
G1 X80.36 Y101.747 E11.81124
G1 X81.031 Y101.827 E11.84495
G1 X81.919 Y102.012 E11.89021
G1 X82.905 Y102.31 E11.9416
G1 X83.01 Y102.343 E11.94709
G1 X86.236 Y103.392 E12.11633
G1 X88.808 Y104.148 E12.25007
G1 X91.377 Y104.825 E12.38262
G1 X94.013 Y105.441 E12.51767
G1 X96.656 Y105.98 E12.65225
G1 X99.247 Y106.43 E12.78345
G1 X101.943 Y106.823 E12.91937
G1 X104.581 Y107.13 E13.05187
G1 X107.25 Y107.365 E13.18554
G1 X109.963 Y107.527 E13.32114
G1 X112.6 Y107.609 E13.45276
G1 X114.286 Y107.624 E13.53688
G1 X115.875 Y107.624 E13.61615
G1 X118.552 Y107.586 E13.74972
G1 X121.226 Y107.473 E13.88325
G1 X123.9 Y107.283 E14.01699
G1 X126.592 Y107.016 E14.15195
G1 X129.241 Y106.677 E14.28519
G1 X131.905 Y106.259 E14.41973
G1 X134.496 Y105.777 E14.55121
G1 X137.156 Y105.205 E14.68695
G1 X138.953 Y104.756 E14.77936
G1 X139.003 Y104.743 E14.78194
G1 X140.074 Y104.487 E14.83687
G1 X140.478 Y104.408 E14.85741
G1 X140.695 Y104.374 E14.86837
G1 X140.857 Y104.351 E14.87653
G1 X141.17 Y104.312 E14.89227
G1 X141.22 Y104.306 E14.89478
G1 X141.769 Y104.243 E14.92235
G1 X141.835 Y104.236 E14.92566
G1 X142.551 Y104.163 E14.96157
G1 X143.195 Y104.137 E14.99372
G1 X143.591 Y104.161 E15.01352
G1 X144.368 Y104.238 E15.05247
G1 X144.505 Y104.254 E15.05935
G1 X145.386 Y104.365 E15.10365
G1 X146.019 Y104.485 E15.1358
G1 X146.338 Y104.577 E15.15236
G1 X146.903 Y104.76 E15.18199
G1 X146.998 Y104.792 E15.18699
G1 X147.67 Y105.024 E15.22246
G1 X147.737 Y105.047 E15.22599
G1 X148.383 Y105.28 E15.26025
G1 X148.975 Y105.536 E15.29243
G1 X149.328 Y105.733 E15.3126
G1 X150.049 Y106.173 E15.35474
G1 X150.164 Y106.246 E15.36154
G1 X150.934 Y106.744 E15.40729
G1 X151.64 Y107.291 E15.45184
G1 X151.825 Y107.462 E15.46441
G1 X151.943 Y107.576 E15.4726
G1 X152.59 Y108.213 E15.5179
G1 X152.642 Y108.264 E15.52153
G1 X153.112 Y108.74 E15.5549
G1 X153.536 Y109.226 E15.58708
G1 X153.781 Y109.574 E15.60831
G1 X154.404 Y110.539 E15.66562
G1 X154.479 Y110.659 E15.67268
G1 X154.849 Y111.268 E15.70823
G1 X155.149 Y111.839 E15.74041
G1 X155.306 Y112.23 E15.76143
G1 X155.694 Y113.324 E15.81934
G1 X155.74 Y113.458 E15.82641
G1 X155.941 Y114.078 E15.85893
G1 X156.144 Y114.964 E15.90427
G1 X156.278 Y115.925 E15.95268
G1 X156.299 Y116.098 E15.96138
G1 X156.365 Y116.724 E15.99278
G1 X156.393 Y117.368 E16.02494
G1 X156.37 Y117.763 E16.04468
G1 X156.301 Y118.486 E16.08092
G1 X156.293 Y118.565 E16.08488
G1 X156.21 Y119.314 E16.12247
G1 X156.201 Y119.389 E16.12624
G1 X156.122 Y120.018 E16.15787
G1 X155.976 Y120.752 E16.19521
G1 X155.917 Y120.966 E16.20628
G1 X155.833 Y121.242 E16.22067
G1 X155.568 Y122.03 E16.26215
G1 X155.538 Y122.117 E16.26674
G1 X155.32 Y122.729 E16.29915
G1 X155.066 Y123.322 E16.33134
G1 X154.867 Y123.681 E16.35182
G1 X154.355 Y124.525 E16.40107
G1 X154.268 Y124.664 E16.40925
G1 X153.78 Y125.414 E16.45389
G1 X153.257 Y126.089 E16.49649
G1 X153.106 Y126.254 E16.50765
G1 X152.964 Y126.403 E16.51792
G1 X152.329 Y127.044 E16.56293
G1 X152.27 Y127.102 E16.56706
G1 X151.774 Y127.587 E16.60167
G1 X151.287 Y128.008 E16.63379
G1 X150.984 Y128.222 E16.65229
G1 X150.424 Y128.588 E16.68567
G1 X150.352 Y128.634 E16.68993
G1 X149.93 Y128.9 E16.71482
G1 X149.869 Y128.938 E16.71841
G1 X149.293 Y129.29 E16.75208
G1 X148.723 Y129.591 E16.78424
G1 X148.403 Y129.724 E16.80153
G1 X147.78 Y129.957 E16.83472
G1 X147.661 Y129.999 E16.84101
G1 X147.361 Y130.103 E16.85685
G1 X147.314 Y130.119 E16.85933
G1 X146.656 Y130.34 E16.89396
G1 X146.033 Y130.507 E16.92614
G1 X145.647 Y130.571 E16.94566
G1 X144.882 Y130.667 E16.98412
G1 X144.801 Y130.676 E16.98819
G1 X144.153 Y130.747 E17.02071
G1 X144.081 Y130.754 E17.02432
G1 X143.369 Y130.822 E17.06
G1 X142.416 Y130.826 E17.10755
G1 X141.942 Y130.784 E17.13129
G1 X141.825 Y130.772 E17.13716
G1 X141.385 Y130.723 E17.15925
G1 X141.276 Y130.71 E17.16472
G1 X140.576 Y130.617 E17.19995
G1 X139.988 Y130.504 E17.22983
G1 X138.654 Y130.167 E17.29847
G1 X136.033 Y129.544 E17.43287
G1 X133.406 Y128.996 E17.56676
G1 X130.759 Y128.525 E17.70089
G1 X128.106 Y128.129 E17.83472
G1 X125.467 Y127.809 E17.96734
G1 X122.771 Y127.56 E18.10242
G1 X120.137 Y127.392 E18.2341
G1 X117.425 Y127.296 E18.36948
G1 X115.355 Y127.274 E18.47276
G1 X114.521 Y127.274 E18.51437
G1 X111.844 Y127.312 E18.64794
G1 X109.17 Y127.425 E18.78146
G1 X106.496 Y127.615 E18.91521
G1 X103.804 Y127.882 E19.05017
G1 X101.155 Y128.221 E19.18341
G1 X98.491 Y128.639 E19.31794
G1 X95.9 Y129.121 E19.44942
G1 X93.229 Y129.696 E19.58573
G1 X90.674 Y130.323 E19.71699
G1 X88.063 Y131.04 E19.85207
G1 X85.501 Y131.825 E19.98576
G1 X82.788 Y132.728 E20.12841
G1 X82.677 Y132.763 E20.13421
G1 X82.051 Y132.956 E20.1669
G1 X81.168 Y133.146 E20.21196
G1 X80.15 Y133.274 E20.26315
G1 X80.04 Y133.287 E20.26867
G1 X79.483 Y133.345 E20.29661
G1 X79.417 Y133.351 E20.29992
G1 X78.76 Y133.411 E20.33283
G1 X77.85 Y133.415 E20.37823
G1 X76.818 Y133.328 E20.4299
G1 X76.71 Y133.317 E20.43532
G1 X76.179 Y133.261 E20.46196
G1 X76.113 Y133.254 E20.46527
G1 X75.386 Y133.168 E20.50179
G1 X74.508 Y132.986 E20.54652
G1 X74.267 Y132.914 E20.55907
G1 X74.159 Y132.881 E20.56471
G1 X72.957 Y132.493 E20.62772
G1 X72.888 Y132.47 E20.63135
G1 X72.205 Y132.239 E20.66732
G1 X71.418 Y131.898 E20.71011
G1 X71.16 Y131.76 E20.72471
G1 X71.017 Y131.68 E20.73289
G1 X69.929 Y131.053 E20.79553
G1 X69.857 Y131.011 E20.79969
G1 X69.31 Y130.684 E20.83149
G1 X68.577 Y130.155 E20.87659
G1 X67.72 Y129.414 E20.93311
G1 X67.636 Y129.339 E20.93873
G1 X67.316 Y129.05 E20.96024
G1 X67.268 Y129.007 E20.96345
G1 X66.755 Y128.532 E20.99833
G1 X66.141 Y127.853 E21.044
G1 X65.539 Y127.057 E21.0938
G1 X65.481 Y126.979 E21.09864
G1 X65.142 Y126.513 E21.12739
G1 X65.099 Y126.453 E21.13108
G1 X64.71 Y125.902 E21.16473
G1 X64.248 Y125.106 E21.21064
G1 X64.125 Y124.843 E21.22513
G1 X63.888 Y124.243 E21.25731
G1 X63.728 Y123.619 E21.28945
G1 X63.646 Y122.979 E21.32164
G1 X63.64 Y122.412 E21.34993
G1 X63.668 Y121.771 E21.38194
G1 X63.752 Y119.009 E21.5198
G1 X63.758 Y116.336 E21.65316
G1 X63.687 Y113.666 E21.78641
G1 X63.649 Y112.89 E21.82518
G1 X63.645 Y112.778 E21.83077
G1 X63.638 Y112.523 E21.84349
G1 X63.66 Y111.878 E21.87569
G1 X63.762 Y111.242 E21.90783
G1 X64.042 Y110.365 E21.95376
G1 X64.145 Y110.12 E21.96702
G1 X64.432 Y109.542 E21.99921
G1 X64.681 Y109.15 E22.02238
G1 X65.23 Y108.367 E22.07009
G1 X65.283 Y108.293 E22.07463
G1 X65.622 Y107.827 E22.10338
G1 X65.66 Y107.775 E22.10659
G1 X66.055 Y107.246 E22.13953
G1 X66.669 Y106.56 E22.18546
G1 X67.446 Y105.833 E22.23855
G1 X67.519 Y105.766 E22.24349
G1 X67.921 Y105.404 E22.27048
G1 X67.98 Y105.352 E22.27441
G1 X68.455 Y104.937 E22.30587
