;FLAVOR:Marlin
;TIME:5067
;Filament used: 7.82077m
;Layer height: 0.3
;MINX:65.78
;MINY:92.294
;MINZ:0.4
;MAXX:154.211
;MAXY:148.311
;MAXZ:19
;Generated with Cura_SteamEngine 4.4.1
M140 S60
M105
M190 S60
M104 S205
M105
M109 S205
M82 ;absolute extrusion mode
M201 X500.00 Y500.00 Z100.00 E5000.00 ;Setup machine max acceleration
M203 X500.00 Y500.00 Z10.00 E75.00 ;Setup machine max feedrate
M204 P500.00 R1000.00 T500.00 ;Setup Print/Retract/Travel acceleration
M205 X8.00 Y8.00 Z0.40 E5.00 ;Setup Jerk
M220 S100 ;Reset Feedrate
M221 S100 ;Reset Flowrate

G21 ; (metric values)
G90 ; (absolute positioning)
M82 ; (set extruder to absolute mode)
G28 ; (home all axis)
G29 ; (Auto Level)

G92 E0 ;Reset Extruder
G1 Z2.0 F3000 ;Move Z Axis up
G1 X1.1 Y50 Z0.28 F5000.0 ;Move to start position
G1 X1.1 Y200.0 Z0.28 F1500.0 E15 ;Draw the first line
G1 X1.4 Y200.0 Z0.28 F5000.0 ;Move to side a little
G1 X1.4 Y100 Z0.28 F1500.0 E30 ;Draw the second line
G92 E0 ;Reset Extruder
G1 Z2.0 F3000 ;Move Z Axis up
G92 E0
G92 E0
G1 F3000 E-6
;LAYER_COUNT:63
;LAYER:0
M107
G1 F300 Z0.7
G0 F6000 X77.82 Y97.668 Z0.7
;TYPE:SKIRT
G1 F300 Z0.4
G1 F3000 E0
G1 F900 X78.366 Y97.314 E0.06623
G1 X78.951 Y97.029 E0.13246
G1 X79.567 Y96.818 E0.19873
G1 X80.204 Y96.684 E0.26498
G1 X80.9 Y96.628 E0.33604
G1 X81.41 Y96.621 E0.38795
G1 X81.504 Y96.621 E0.39752
G1 X84.236 Y96.632 E0.67557
G1 X84.311 Y96.633 E0.68321
G1 X86.248 Y96.668 E0.88038
G1 X88.992 Y96.679 E1.15966
G1 X91.637 Y96.614 E1.42893
G1 X92.322 Y96.581 E1.49873
G1 X92.426 Y96.577 E1.50932
G1 X92.91 Y96.563 E1.5586
G1 X93.053 Y96.561 E1.57316
G1 X93.58 Y96.56 E1.6268
G1 X93.638 Y96.56 E1.6327
G1 X96.308 Y96.584 E1.90445
G1 X96.38 Y96.585 E1.91178
G1 X98.334 Y96.629 E2.1107
G1 X101.045 Y96.653 E2.38663
G1 X103.792 Y96.599 E2.66626
G1 X104.805 Y96.568 E2.76941
G1 X105.082 Y96.566 E2.7976
G1 X107.662 Y96.621 E3.06024
G1 X111.612 Y96.587 E3.46227
G1 X112.032 Y96.575 E3.50503
G1 X114.972 Y96.456 E3.8045
G1 X115.351 Y96.429 E3.84317
G1 X115.419 Y96.425 E3.8501
G1 X116.361 Y96.371 E3.94613
G1 X116.543 Y96.363 E3.96468
G1 X117.853 Y96.333 E4.09804
G1 X117.962 Y96.332 E4.10913
G1 X120.238 Y96.327 E4.34077
G1 X120.31 Y96.327 E4.3481
G1 X121.019 Y96.335 E4.42027
G1 X121.323 Y96.348 E4.45123
G1 X122.176 Y96.407 E4.53826
G1 X126.093 Y96.598 E4.93739
G1 X128.26 Y96.66 E5.15803
G1 X130.939 Y96.699 E5.43071
G1 X133.679 Y96.661 E5.70961
G1 X134.803 Y96.629 E5.82405
G1 X135.055 Y96.628 E5.8497
G1 X135.63 Y96.639 E5.90823
G1 X135.681 Y96.64 E5.91342
G1 X138.442 Y96.719 E6.19454
G1 X138.525 Y96.722 E6.20299
G1 X139.157 Y96.75 E6.26738
G1 X139.157 Y96.752 E6.26758
G1 X139.772 Y96.81 E6.33045
G1 X140.408 Y96.949 E6.39671
G1 X141.021 Y97.166 E6.46289
G1 X141.604 Y97.456 E6.52916
G1 X142.146 Y97.816 E6.59538
G1 X142.641 Y98.239 E6.66165
G1 X143.079 Y98.72 E6.72786
G1 X143.456 Y99.251 E6.79414
G1 X143.765 Y99.824 E6.8604
G1 X144.001 Y100.43 E6.92658
G1 X144.161 Y101.061 E6.99284
G1 X144.245 Y101.754 E7.06388
G1 X144.272 Y102.243 E7.11373
G1 X144.461 Y104.93 E7.38788
G1 X144.725 Y107.615 E7.66246
G1 X145.063 Y110.271 E7.93496
G1 X145.479 Y112.941 E8.20998
G1 X145.959 Y115.529 E8.47787
G1 X146.522 Y118.152 E8.75091
G1 X147.158 Y120.759 E9.02402
G1 X147.875 Y123.37 E9.29959
G1 X148.65 Y125.908 E9.56968
G1 X149.507 Y128.453 E9.84299
G1 X150.43 Y130.962 E10.11507
G1 X151.428 Y133.454 E10.38828
G1 X152.498 Y135.919 E10.66178
G1 X153.656 Y138.385 E10.93905
G1 X153.896 Y138.99 E11.00529
G1 X154.06 Y139.62 E11.07155
G1 X154.154 Y140.411 E11.15262
G1 X154.177 Y140.948 E11.20732
G1 X154.181 Y141.058 E11.21853
G1 X154.205 Y142.143 E11.32898
G1 X154.206 Y142.222 E11.33702
G1 X154.211 Y142.921 E11.40817
G1 X154.176 Y143.571 E11.47442
G1 X154.061 Y144.212 E11.5407
G1 X153.868 Y144.833 E11.60688
G1 X153.601 Y145.427 E11.67316
G1 X153.264 Y145.983 E11.73933
G1 X152.86 Y146.494 E11.80563
G1 X152.397 Y146.951 E11.87184
G1 X151.881 Y147.348 E11.9381
G1 X151.321 Y147.679 E12.00431
G1 X150.724 Y147.939 E12.07058
G1 X150.1 Y148.124 E12.13682
G1 X149.458 Y148.231 E12.20306
G1 X149.045 Y148.257 E12.24518
G1 X148.134 Y148.28 E12.33793
G1 X148.002 Y148.282 E12.35136
G1 X85.679 Y148.31 E18.69435
G1 X84.969 Y148.311 E18.76661
G1 X71.774 Y148.311 E20.10955
G1 X71.696 Y148.31 E20.11748
G1 X71.018 Y148.3 E20.1865
G1 X70.369 Y148.251 E20.25274
G1 X69.731 Y148.122 E20.31898
G1 X69.113 Y147.916 E20.38528
G1 X68.526 Y147.636 E20.45148
G1 X67.977 Y147.286 E20.51774
G1 X67.475 Y146.872 E20.58396
G1 X67.028 Y146.399 E20.6502
G1 X66.643 Y145.875 E20.71638
G1 X66.324 Y145.307 E20.78268
G1 X66.077 Y144.705 E20.84891
G1 X65.906 Y144.077 E20.91515
G1 X65.797 Y143.119 E21.01328
G1 X65.78 Y142.353 E21.09126
G1 X65.78 Y142.152 E21.11171
G1 X65.794 Y141.257 E21.20282
G1 X65.795 Y141.181 E21.21055
G1 X65.815 Y140.516 E21.27826
G1 X65.875 Y139.868 E21.3445
G1 X66.013 Y139.232 E21.41073
G1 X66.118 Y138.904 E21.44578
G1 X66.224 Y138.605 E21.47807
G1 X66.418 Y138.131 E21.5302
G1 X66.88 Y137.143 E21.6412
G1 X68.003 Y134.646 E21.91985
G1 X69.048 Y132.136 E22.19657
G1 X69.988 Y129.676 E22.46459
G1 X70.889 Y127.112 E22.74119
G1 X71.692 Y124.599 E23.00969
G1 X72.43 Y122.04 E23.28075
G1 X73.111 Y119.403 E23.55794
G1 X73.708 Y116.794 E23.83034
G1 X74.226 Y114.179 E24.10165
G1 X74.667 Y111.576 E24.37035
G1 X75.047 Y108.866 E24.64886
G1 X75.339 Y106.253 E24.91646
G1 X75.564 Y103.552 E25.19231
G1 X75.64 Y102.191 E25.33104
G1 X75.646 Y102.096 E25.34073
G1 X75.687 Y101.539 E25.39757
G1 X75.775 Y100.894 E25.46382
G1 X75.941 Y100.265 E25.53003
G1 X76.183 Y99.66 E25.59635
G1 X76.497 Y99.09 E25.66258
G1 X76.878 Y98.563 E25.72877
G1 X77.322 Y98.087 E25.79502
G1 X77.617 Y97.839 E25.83424
G0 F810 X77.82 Y97.668
G1 F3000 E19.83424
G1 F300 Z0.7
;MESH:my_wire_holder_small.stl
G0 F6000 X81.862 Y102.822 Z0.7
;TYPE:WALL-INNER
G1 F300 Z0.4
G1 F3000 E25.83424
G1 F900 X82.162 Y102.823 E25.86477
G1 X84.062 Y102.832 E26.05815
G1 X84.062 Y136.862 E29.52159
G1 X85.146 Y136.884 E29.63194
G1 X85.943 Y136.909 E29.71309
G1 X86.204 Y136.905 E29.73966
G1 X87.85 Y136.905 E29.90718
G1 X87.862 Y103.489 E33.30813
G1 X87.862 Y103.189 E33.33866
G1 X88.162 Y103.19 E33.35841
G1 X90.062 Y103.199 E33.55178
G1 X90.062 Y136.848 E36.97644
G1 X91.146 Y136.87 E37.08679
G1 X91.934 Y136.909 E37.16709
G1 X92.204 Y136.905 E37.19457
G1 X93.85 Y136.894 E37.3621
G1 X93.862 Y103.064 E40.80518
G1 X93.862 Y103.063 E40.80528
G1 X93.862 Y102.762 E40.83592
G1 X94.163 Y102.763 E40.85571
G1 X94.164 Y102.764 E40.85586
G1 X96.062 Y102.782 E41.04904
G1 X96.062 Y136.897 E44.52113
G1 X99.538 Y136.908 E44.8749
G1 X99.838 Y136.908 E44.90543
G1 X99.838 Y136.608 E44.92518
G1 X99.862 Y103.215 E48.32379
G1 X99.862 Y103.214 E48.32389
G1 X99.862 Y102.901 E48.35574
G1 X100.175 Y102.916 E48.3761
G1 X102.062 Y103.013 E48.5684
G1 X102.062 Y136.879 E52.01515
G1 X103.166 Y136.905 E52.12754
G1 X103.956 Y136.91 E52.20795
G1 X105.85 Y136.874 E52.40074
G1 X105.862 Y103.103 E55.83782
G1 X105.862 Y103.102 E55.83792
G1 X105.862 Y102.792 E55.86947
G1 X106.172 Y102.804 E55.88969
G1 X108.062 Y102.88 E56.0822
G1 X108.062 Y136.879 E59.54249
G1 X109.166 Y136.905 E59.65488
G1 X109.989 Y136.91 E59.73864
G1 X110.234 Y136.887 E59.76369
G1 X111.85 Y136.887 E59.92816
G1 X111.862 Y103.146 E63.36218
G1 X111.862 Y103.145 E63.36228
G1 X111.862 Y102.835 E63.39383
G1 X112.172 Y102.847 E63.41405
G1 X114.062 Y102.925 E63.60657
G1 X114.062 Y136.792 E67.05342
G1 X115.128 Y136.905 E67.16252
G1 X115.989 Y136.91 E67.25015
G1 X116.24 Y136.887 E67.2758
G1 X117.85 Y136.846 E67.43972
G1 X117.862 Y102.532 E70.93206
G1 X119.762 Y102.527 E71.12543
G1 X120.062 Y102.527 E71.15597
G1 X120.062 Y102.827 E71.17571
G1 X120.062 Y136.792 E74.63253
G1 X121.128 Y136.905 E74.74163
G1 X121.989 Y136.91 E74.82927
G1 X122.234 Y136.887 E74.85431
G1 X123.85 Y136.887 E75.01878
G1 X123.862 Y103.072 E78.46034
G1 X123.862 Y102.769 E78.49117
G1 X124.165 Y102.773 E78.51105
G1 X126.062 Y102.802 E78.70414
G1 X126.062 Y136.879 E82.17236
G1 X127.166 Y136.905 E82.28475
G1 X127.99 Y136.91 E82.36862
G1 X128.289 Y136.882 E82.39918
G1 X129.85 Y136.694 E82.5592
G1 X129.862 Y103.103 E85.97796
G1 X131.763 Y103.102 E86.17144
G1 X132.062 Y103.102 E86.20187
G1 X132.062 Y103.401 E86.22156
G1 X132.062 Y136.612 E89.60164
G1 X132.062 Y136.916 E89.63258
G1 X132.366 Y136.911 E89.65251
G1 X133.425 Y136.892 E89.76031
G1 X135.839 Y136.818 E90.00611
G1 X135.862 Y103.153 E93.4324
G1 X135.862 Y102.845 E93.46375
G1 X136.17 Y102.854 E93.48388
G1 X138.062 Y102.911 E93.67653
G1 X138.062 Y140.91 E97.54392
G1 X147.327 Y140.911 E98.48687
G1 X147.924 Y140.929 E98.54766
G1 X147.977 Y140.953 E98.55358
G1 X147.995 Y141.777 E98.63747
G1 X148.001 Y142.082 E98.66851
G1 X147.696 Y142.082 E98.68849
G1 X85.544 Y142.11 E105.01407
G1 X84.962 Y142.111 E105.0733
G1 X72.285 Y142.111 E106.36352
G1 X72.284 Y142.111 E106.36362
G1 X71.981 Y142.111 E106.39446
G1 X71.984 Y141.808 E106.41436
G1 X71.985 Y141.807 E106.4145
G1 X71.999 Y140.947 E106.50204
G1 X72.073 Y140.923 E106.50996
G1 X72.606 Y140.91 E106.56422
G1 X81.563 Y140.911 E107.47583
G1 X81.862 Y140.911 E107.50626
G1 X81.862 Y140.612 E107.52595
G1 X81.862 Y103.122 E111.34153
G1 X81.862 Y102.822 E111.36128
G0 F6000 X81.262 Y102.22
;TYPE:WALL-OUTER
G1 F900 X84.662 Y102.234 E111.70732
G1 X84.662 Y136.274 E115.17178
G1 X85.165 Y136.284 E115.22298
G1 X85.948 Y136.309 E115.30271
G1 X86.194 Y136.305 E115.32775
G1 X87.25 Y136.305 E115.43523
G1 X87.262 Y102.587 E118.86691
G1 X90.662 Y102.601 E119.21295
G1 X90.662 Y136.26 E122.63863
G1 X91.158 Y136.27 E122.68912
G1 X91.944 Y136.309 E122.76922
G1 X92.194 Y136.305 E122.79466
G1 X93.25 Y136.298 E122.90214
G1 X93.262 Y102.157 E126.37688
G1 X96.662 Y102.187 E126.72293
G1 X96.662 Y136.299 E130.19471
G1 X99.238 Y136.306 E130.45689
G1 X99.262 Y102.27 E133.92094
G1 X102.662 Y102.443 E134.26742
G1 X102.662 Y136.293 E137.71254
G1 X103.175 Y136.305 E137.76477
G1 X103.952 Y136.31 E137.84385
G1 X105.25 Y136.285 E137.97598
G1 X105.262 Y102.167 E141.44837
G1 X108.662 Y102.303 E141.79469
G1 X108.662 Y136.293 E145.25405
G1 X109.175 Y136.305 E145.30628
G1 X109.963 Y136.31 E145.38648
G1 X110.21 Y136.287 E145.41173
G1 X111.25 Y136.287 E145.51757
G1 X111.262 Y102.21 E148.9858
G1 X114.662 Y102.348 E149.33212
G1 X114.662 Y136.252 E152.78273
G1 X115.162 Y136.305 E152.83391
G1 X115.963 Y136.31 E152.91543
G1 X116.214 Y136.287 E152.94108
G1 X117.25 Y136.261 E153.04656
G1 X117.262 Y101.933 E156.54032
G1 X120.662 Y101.926 E156.88636
G1 X120.662 Y136.252 E160.37993
G1 X121.162 Y136.305 E160.4311
G1 X121.963 Y136.31 E160.51262
G1 X122.21 Y136.287 E160.53787
G1 X123.25 Y136.287 E160.64372
G1 X123.262 Y102.16 E164.11703
G1 X126.662 Y102.211 E164.46311
G1 X126.662 Y136.293 E167.93184
G1 X127.175 Y136.305 E167.98406
G1 X127.963 Y136.31 E168.06426
G1 X128.225 Y136.285 E168.09105
G1 X129.25 Y136.162 E168.19612
G1 X129.262 Y102.503 E171.6218
G1 X132.662 Y102.502 E171.96784
G1 X132.662 Y136.305 E175.40817
G1 X133.411 Y136.292 E175.48441
G1 X135.239 Y136.236 E175.67055
G1 X135.262 Y102.227 E179.13185
G1 X138.662 Y102.328 E179.47804
G1 X138.662 Y140.31 E183.34369
G1 X147.345 Y140.311 E184.22742
G1 X148.035 Y140.332 E184.29767
G1 X148.093 Y140.348 E184.3038
G1 X148.367 Y140.469 E184.33428
G1 X148.398 Y140.496 E184.33847
G1 X148.572 Y140.715 E184.36693
G1 X148.614 Y142.682 E184.56717
G1 X85.544 Y142.71 E190.98619
G1 X84.962 Y142.711 E191.04542
G1 X71.372 Y142.711 E192.42856
G1 X71.403 Y140.699 E192.63335
G1 X71.445 Y140.589 E192.64534
G1 X71.594 Y140.447 E192.66629
G1 X71.974 Y140.325 E192.7069
G1 X72.591 Y140.31 E192.76972
G1 X81.262 Y140.311 E193.65222
G1 X81.262 Y102.486 E197.5019
G0 F810 X81.262 Y102.22
G0 F6000 X81.462 Y102.22
G0 X81.922 Y102.88
G0 X82.452 Y103.414
;TYPE:SKIN
G1 F900 X83.472 Y103.42 E197.60571
G1 X83.472 Y137.44 E201.06813
G1 X85.128 Y137.474 E201.23671
G1 X85.939 Y137.499 E201.31929
G1 X86.213 Y137.495 E201.34718
G1 X88.44 Y137.495 E201.57383
G1 X88.452 Y103.781 E205.00511
G1 X89.472 Y103.787 E205.10892
G1 X89.472 Y137.426 E208.53256
G1 X91.117 Y137.46 E208.70002
G1 X91.924 Y137.499 E208.78225
G1 X92.212 Y137.495 E208.81156
G1 X94.44 Y137.48 E209.03833
G1 X94.452 Y103.358 E212.51113
G1 X95.472 Y103.366 E212.61494
G1 X95.472 Y137.485 E216.08744
G1 X100.428 Y137.5 E216.59184
G1 X100.452 Y103.522 E220.04999
G1 X101.472 Y103.574 E220.15394
G1 X101.472 Y137.455 E223.60221
G1 X103.158 Y137.495 E223.77385
G1 X103.96 Y137.5 E223.85548
G1 X106.44 Y137.452 E224.10793
G1 X106.452 Y103.406 E227.573
G1 X107.472 Y103.447 E227.67689
G1 X107.472 Y137.455 E231.13809
G1 X109.158 Y137.495 E231.30973
G1 X110.015 Y137.5 E231.39696
G1 X110.267 Y137.477 E231.42271
G1 X112.44 Y137.477 E231.64387
G1 X112.452 Y103.45 E235.107
G1 X113.472 Y103.492 E235.2109
G1 X113.472 Y137.323 E238.65409
G1 X115.095 Y137.495 E238.82019
G1 X116.014 Y137.5 E238.91373
G1 X116.276 Y137.477 E238.94049
G1 X118.44 Y137.421 E239.16081
G1 X118.452 Y103.12 E242.65183
G1 X119.472 Y103.119 E242.75564
G1 X119.472 Y137.323 E246.23679
G1 X121.095 Y137.495 E246.4029
G1 X122.015 Y137.5 E246.49653
G1 X122.267 Y137.477 E246.52229
G1 X124.44 Y137.477 E246.74345
G1 X124.452 Y103.368 E250.21492
G1 X125.472 Y103.384 E250.31875
G1 X125.472 Y137.455 E253.78636
G1 X127.158 Y137.495 E253.958
G1 X128.016 Y137.5 E254.04533
G1 X128.352 Y137.468 E254.07968
G1 X130.44 Y137.217 E254.29372
G1 X130.452 Y103.693 E257.70566
G1 X131.472 Y103.692 E257.80947
G1 X131.472 Y137.516 E261.25194
G1 X133.439 Y137.482 E261.45216
G1 X136.429 Y137.39 E261.75662
G1 X136.452 Y103.453 E265.21059
G1 X137.472 Y103.484 E265.31445
G1 X137.472 Y141.497 E269.18326
G1 X84.962 Y141.521 E274.52752
G1 X72.58 Y141.521 E275.78771
G1 X72.581 Y141.501 E275.78975
G1 X72.62 Y141.5 E275.79372
G1 X82.452 Y141.501 E276.79438
G1 X82.452 Y103.68 E280.64365
G0 F810 X82.452 Y103.414
G1 F3000 E274.64365
G1 F300 Z0.7
G0 F6000 X83.58 Y141.279 Z0.7
G1 F300 Z0.4
G1 F3000 E280.64365
G1 F900 X82.691 Y140.391 E280.77154
G0 F6000 X82.691 Y139.543
G1 F900 X84.428 Y141.279 E281.02148
G0 F6000 X85.276 Y141.279
G1 F900 X82.691 Y138.694 E281.39354
G0 F6000 X82.691 Y137.846
G1 F900 X86.124 Y141.279 E281.88766
G0 F6000 X86.972 Y141.278
G1 F900 X83.372 Y137.677 E282.4059
G0 F6000 X83.232 Y137.537
G1 F900 X82.691 Y136.997 E282.48369
G0 F6000 X83.232 Y136.689
G1 F900 X82.691 Y136.149 E282.56149
G0 F6000 X83.232 Y135.84
G1 F900 X82.691 Y135.3 E282.63928
G0 F6000 X83.232 Y134.992
G1 F900 X82.691 Y134.452 E282.71708
G0 F6000 X83.232 Y134.143
G1 F900 X82.691 Y133.603 E282.79487
G0 F6000 X83.232 Y133.295
G1 F900 X82.691 Y132.755 E282.87267
G0 F6000 X83.232 Y132.446
G1 F900 X82.691 Y131.906 E282.95047
G0 F6000 X83.232 Y131.598
G1 F900 X82.691 Y131.057 E283.02833
G0 F6000 X83.232 Y130.749
G1 F900 X82.691 Y130.209 E283.10613
G0 F6000 X83.232 Y129.901
G1 F900 X82.691 Y129.36 E283.184
G0 F6000 X83.232 Y129.052
G1 F900 X82.691 Y128.512 E283.26179
G0 F6000 X83.232 Y128.204
G1 F900 X82.691 Y127.663 E283.33966
G0 F6000 X83.232 Y127.355
G1 F900 X82.691 Y126.815 E283.41746
G0 F6000 X83.232 Y126.507
G1 F900 X82.691 Y125.966 E283.49532
G0 F6000 X83.232 Y125.658
G1 F900 X82.691 Y125.118 E283.57312
G0 F6000 X83.232 Y124.81
G1 F900 X82.691 Y124.269 E283.65099
G0 F6000 X83.232 Y123.961
G1 F900 X82.691 Y123.421 E283.72878
G0 F6000 X83.232 Y123.112
G1 F900 X82.691 Y122.572 E283.80658
G0 F6000 X83.232 Y122.264
G1 F900 X82.691 Y121.724 E283.88438
G0 F6000 X83.232 Y121.415
G1 F900 X82.691 Y120.875 E283.96217
G0 F6000 X83.232 Y120.567
G1 F900 X82.691 Y120.027 E284.03997
G0 F6000 X83.232 Y119.718
G1 F900 X82.691 Y119.178 E284.11776
G0 F6000 X83.232 Y118.87
G1 F900 X82.691 Y118.33 E284.19556
G0 F6000 X83.232 Y118.021
