;FLAVOR:Marlin
;TIME:6784
;Filament used: 9.16968m
;Layer height: 0.3
;MINX:58.2
;MINY:58
;MINZ:0.4
;MAXX:161.789
;MAXY:177
;MAXZ:20.2
;Generated with Cura_SteamEngine 4.4.1
M140 S60
M105
M190 S60
M104 S205
M105
M109 S205
M82 ;absolute extrusion mode
M201 X500.00 Y500.00 Z100.00 E5000.00 ;Setup machine max acceleration
M203 X500.00 Y500.00 Z10.00 E75.00 ;Setup machine max feedrate
M204 P500.00 R1000.00 T500.00 ;Setup Print/Retract/Travel acceleration
M205 X8.00 Y8.00 Z0.40 E5.00 ;Setup Jerk
M220 S100 ;Reset Feedrate
M221 S100 ;Reset Flowrate

G21 ; (metric values)
G90 ; (absolute positioning)
M82 ; (set extruder to absolute mode)
G28 ; (home all axis)
G29 ; (Auto Level)

G92 E0 ;Reset Extruder
G1 Z2.0 F3000 ;Move Z Axis up
G1 X1.1 Y50 Z0.28 F5000.0 ;Move to start position
G1 X1.1 Y200.0 Z0.28 F1500.0 E15 ;Draw the first line
G1 X1.4 Y200.0 Z0.28 F5000.0 ;Move to side a little
G1 X1.4 Y100 Z0.28 F1500.0 E30 ;Draw the second line
G92 E0 ;Reset Extruder
G1 Z2.0 F3000 ;Move Z Axis up
G92 E0
G92 E0
G1 F3000 E-6
;LAYER_COUNT:66
;LAYER:0
M107
G1 F300 Z0.7
G0 F6000 X59.634 Y59.693 Z0.7
;TYPE:SKIRT
G1 F300 Z0.4
G1 F3000 E0
G1 F900 X60.106 Y59.246 E0.06616
G1 X60.63 Y58.859 E0.13246
G1 X61.197 Y58.54 E0.19867
G1 X61.799 Y58.292 E0.26494
G1 X62.427 Y58.121 E0.33118
G1 X63.36 Y58.011 E0.4268
G1 X63.681 Y58.002 E0.45948
G1 X63.83 Y58 E0.47464
G1 X65.793 Y58 E0.67443
G1 X65.869 Y58.001 E0.68217
G1 X66.567 Y58.011 E0.75321
G1 X67.216 Y58.06 E0.81945
G1 X67.854 Y58.188 E0.88568
G1 X68.471 Y58.394 E0.95188
G1 X69.127 Y58.712 E1.02608
G1 X70.095 Y59.267 E1.13964
G1 X70.175 Y59.314 E1.14909
G1 X70.481 Y59.496 E1.18532
G1 X72.793 Y60.791 E1.45503
G1 X75.187 Y62.044 E1.73003
G1 X77.588 Y63.215 E2.00191
G1 X80.022 Y64.318 E2.27388
G1 X82.507 Y65.361 E2.54817
G1 X85.025 Y66.336 E2.82298
G1 X87.516 Y67.216 E3.09186
G1 X90.047 Y68.033 E3.36255
G1 X92.668 Y68.798 E3.64043
G1 X95.225 Y69.467 E3.90943
G1 X97.83 Y70.07 E4.18157
G1 X100.502 Y70.61 E4.45901
G1 X103.089 Y71.055 E4.72617
G1 X105.745 Y71.437 E4.99927
G1 X108.447 Y71.747 E5.27608
G1 X111.075 Y71.974 E5.54454
G1 X113.748 Y72.129 E5.81704
G1 X117.196 Y72.229 E6.16811
G1 X117.301 Y72.233 E6.17881
G1 X119.938 Y72.362 E6.44751
G1 X120.024 Y72.367 E6.45628
G1 X120.591 Y72.404 E6.51411
G1 X120.91 Y72.435 E6.54673
G1 X122.097 Y72.585 E6.6685
G1 X122.211 Y72.6 E6.6802
G1 X124.402 Y72.925 E6.90563
G1 X124.484 Y72.938 E6.91408
G1 X124.989 Y73.021 E6.96617
G1 X125.305 Y73.083 E6.99894
G1 X126.452 Y73.344 E7.11866
G1 X126.565 Y73.371 E7.13049
G1 X128.731 Y73.914 E7.35776
G1 X128.806 Y73.933 E7.36563
G1 X129.298 Y74.064 E7.41745
G1 X129.613 Y74.159 E7.45093
G1 X130.754 Y74.54 E7.57336
G1 X130.861 Y74.577 E7.58489
G1 X132.914 Y75.312 E7.80682
G1 X132.976 Y75.335 E7.81355
G1 X133.484 Y75.524 E7.86872
G1 X133.807 Y75.656 E7.90423
G1 X134.927 Y76.159 E8.02919
G1 X135.021 Y76.203 E8.03975
G1 X136.986 Y77.132 E8.26096
G1 X137.051 Y77.163 E8.26829
G1 X137.531 Y77.398 E8.32268
G1 X137.826 Y77.554 E8.35665
G1 X138.787 Y78.102 E8.46924
G1 X138.886 Y78.16 E8.48092
G1 X140.83 Y79.325 E8.71158
G1 X140.891 Y79.362 E8.71884
G1 X141.49 Y79.732 E8.7905
G1 X141.749 Y79.902 E8.82203
G1 X142.007 Y80.083 E8.8541
G1 X142.099 Y80.149 E8.86563
G1 X142.347 Y80.331 E8.89693
G1 X142.367 Y80.346 E8.89948
G1 X144.465 Y81.901 E9.16526
G1 X144.523 Y81.945 E9.17267
G1 X145.075 Y82.366 E9.24332
G1 X145.312 Y82.557 E9.2743
G1 X145.537 Y82.75 E9.30447
G1 X145.63 Y82.832 E9.31709
G1 X145.799 Y82.984 E9.34023
G1 X145.813 Y82.997 E9.34217
G1 X147.81 Y84.806 E9.61641
G1 X147.865 Y84.857 E9.62404
G1 X148.306 Y85.268 E9.6854
G1 X148.535 Y85.494 E9.71814
G1 X149.148 Y86.139 E9.80871
G1 X149.233 Y86.231 E9.82145
G1 X150.887 Y88.056 E10.07213
G1 X150.946 Y88.122 E10.08114
G1 X151.3 Y88.526 E10.13581
G1 X151.499 Y88.767 E10.16762
G1 X152.123 Y89.57 E10.27112
G1 X152.195 Y89.664 E10.28317
G1 X153.623 Y91.589 E10.52711
G1 X153.67 Y91.654 E10.53527
G1 X154.043 Y92.173 E10.60032
G1 X154.201 Y92.406 E10.62897
G1 X154.392 Y92.704 E10.665
G1 X154.475 Y92.837 E10.68095
G1 X155.94 Y95.279 E10.97078
G1 X155.983 Y95.352 E10.97941
G1 X156.304 Y95.907 E11.04466
G1 X156.451 Y96.181 E11.0763
G1 X156.823 Y96.921 E11.1606
G1 X156.88 Y97.036 E11.17366
G1 X157.95 Y99.3 E11.42852
G1 X157.981 Y99.367 E11.43604
G1 X158.259 Y99.977 E11.50426
G1 X158.362 Y100.219 E11.53103
G1 X158.468 Y100.486 E11.56027
G1 X158.519 Y100.621 E11.57495
G1 X158.62 Y100.897 E11.60487
G1 X158.633 Y100.932 E11.60867
G1 X159.532 Y103.443 E11.88011
G1 X159.561 Y103.525 E11.88896
G1 X159.724 Y104.005 E11.94056
G1 X159.817 Y104.308 E11.97281
G1 X160.145 Y105.505 E12.09913
G1 X160.174 Y105.619 E12.1111
G1 X160.701 Y107.724 E12.33195
G1 X160.717 Y107.786 E12.33847
G1 X160.855 Y108.367 E12.39925
G1 X160.923 Y108.701 E12.43394
G1 X161.063 Y109.522 E12.5187
G1 X161.081 Y109.636 E12.53045
G1 X161.443 Y112.08 E12.7819
G1 X161.454 Y112.157 E12.78982
G1 X161.532 Y112.742 E12.84988
G1 X161.565 Y113.065 E12.88293
G1 X161.637 Y114.075 E12.98598
G1 X161.644 Y114.192 E12.99791
G1 X161.757 Y116.492 E13.23228
G1 X161.759 Y116.559 E13.2391
G1 X161.786 Y117.3 E13.31457
G1 X161.789 Y117.619 E13.34704
G1 X161.781 Y117.956 E13.38134
G1 X161.776 Y118.088 E13.39479
G1 X161.637 Y120.945 E13.68591
G1 X161.632 Y121.023 E13.69386
G1 X161.586 Y121.748 E13.7678
G1 X161.553 Y122.094 E13.80317
G1 X161.499 Y122.51 E13.84587
G1 X161.487 Y122.6 E13.85511
G1 X161.085 Y125.332 E14.13615
G1 X161.072 Y125.412 E14.1444
G1 X160.979 Y125.983 E14.20328
G1 X160.916 Y126.307 E14.23687
G1 X160.649 Y127.48 E14.35931
G1 X160.622 Y127.593 E14.37114
G1 X160.086 Y129.731 E14.59547
G1 X160.068 Y129.801 E14.60282
G1 X159.916 Y130.374 E14.66316
G1 X159.826 Y130.677 E14.69533
G1 X159.585 Y131.407 E14.77357
G1 X159.541 Y131.533 E14.78715
G1 X158.669 Y133.967 E15.05029
G1 X158.646 Y134.032 E15.05731
G1 X158.424 Y134.627 E15.12194
G1 X158.311 Y134.904 E15.15239
G1 X158.189 Y135.182 E15.18329
G1 X158.148 Y135.273 E15.19345
G1 X158.028 Y135.533 E15.22259
G1 X158.008 Y135.577 E15.22751
G1 X156.851 Y138.025 E15.50308
G1 X156.821 Y138.087 E15.51009
G1 X156.605 Y138.529 E15.56016
G1 X156.446 Y138.83 E15.59481
G1 X155.911 Y139.767 E15.70462
G1 X155.854 Y139.864 E15.71607
G1 X154.675 Y141.831 E15.94948
G1 X154.638 Y141.892 E15.95674
G1 X154.266 Y142.494 E16.02876
G1 X154.089 Y142.761 E16.06136
G1 X153.91 Y143.015 E16.09299
G1 X153.851 Y143.098 E16.10335
G1 X153.669 Y143.346 E16.13466
G1 X153.654 Y143.366 E16.1372
G1 X152.099 Y145.464 E16.40299
G1 X152.055 Y145.523 E16.41048
G1 X151.627 Y146.084 E16.48229
G1 X151.437 Y146.318 E16.51297
G1 X151.251 Y146.535 E16.54206
G1 X151.168 Y146.63 E16.5549
G1 X151.016 Y146.799 E16.57803
G1 X151.003 Y146.813 E16.57998
G1 X149.194 Y148.81 E16.85421
G1 X149.144 Y148.865 E16.86178
G1 X148.734 Y149.305 E16.92299
G1 X148.504 Y149.537 E16.95624
G1 X147.858 Y150.15 E17.04688
G1 X147.769 Y150.232 E17.05919
G1 X145.944 Y151.886 E17.30987
G1 X145.879 Y151.944 E17.31873
G1 X145.473 Y152.3 E17.37369
G1 X145.233 Y152.499 E17.40542
G1 X144.432 Y153.122 E17.5087
G1 X144.336 Y153.195 E17.52097
G1 X142.411 Y154.623 E17.76491
G1 X142.346 Y154.67 E17.77308
G1 X141.827 Y155.043 E17.83812
G1 X141.594 Y155.201 E17.86678
G1 X141.296 Y155.392 E17.9028
G1 X141.161 Y155.476 E17.91898
G1 X138.699 Y156.952 E18.21113
G1 X138.632 Y156.991 E18.21902
G1 X138.161 Y157.264 E18.27443
G1 X137.871 Y157.42 E18.30795
G1 X136.786 Y157.962 E18.43138
G1 X136.683 Y158.013 E18.44308
G1 X134.745 Y158.929 E18.66125
G1 X134.674 Y158.962 E18.66921
G1 X134.166 Y159.193 E18.72601
G1 X133.863 Y159.319 E18.75941
G1 X132.695 Y159.765 E18.88666
G1 X132.591 Y159.804 E18.89796
G1 X130.611 Y160.513 E19.11201
G1 X130.535 Y160.539 E19.12018
G1 X129.978 Y160.729 E19.18008
G1 X129.661 Y160.826 E19.21382
G1 X128.513 Y161.139 E19.33492
G1 X128.408 Y161.167 E19.34598
G1 X126.278 Y161.701 E19.56947
G1 X126.212 Y161.717 E19.57638
G1 X125.702 Y161.838 E19.62973
G1 X125.359 Y161.907 E19.66534
G1 X124.159 Y162.109 E19.78919
G1 X124.056 Y162.126 E19.79981
G1 X121.882 Y162.448 E20.02349
G1 X121.813 Y162.457 E20.03057
G1 X121.316 Y162.524 E20.08161
G1 X120.978 Y162.559 E20.1162
G1 X119.735 Y162.646 E20.24301
G1 X119.626 Y162.653 E20.25413
G1 X117.496 Y162.758 E20.47118
G1 X117.421 Y162.761 E20.47881
G1 X115.742 Y162.82 E20.6498
G1 X115.69 Y162.821 E20.6551
G1 X114.136 Y162.86 E20.8133
G1 X111.47 Y163.003 E21.08503
G1 X108.812 Y163.221 E21.35646
G1 X106.117 Y163.519 E21.63242
G1 X103.507 Y163.882 E21.90061
G1 X100.836 Y164.331 E22.17627
G1 X98.192 Y164.853 E22.45056
G1 X95.643 Y165.432 E22.71659
G1 X93.004 Y166.109 E22.99388
G1 X90.419 Y166.852 E23.26762
G1 X87.894 Y167.656 E23.53732
G1 X85.345 Y168.548 E23.81217
G1 X82.853 Y169.499 E24.08364
G1 X80.376 Y170.525 E24.35651
G1 X77.938 Y171.618 E24.62843
G1 X75.504 Y172.792 E24.90346
G1 X73.13 Y174.022 E25.17559
G1 X70.786 Y175.32 E25.44828
G1 X69.3 Y176.19 E25.62354
G1 X69.226 Y176.233 E25.63225
G1 X69.093 Y176.308 E25.64779
G1 X68.508 Y176.592 E25.71397
G1 X67.892 Y176.802 E25.78021
G1 X67.255 Y176.936 E25.84646
G1 X66.639 Y176.989 E25.90938
G1 X66.319 Y176.998 E25.94196
G1 X66.17 Y177 E25.95713
G1 X64.139 Y177 E26.16384
G1 X63.441 Y176.991 E26.23488
G1 X62.792 Y176.942 E26.30112
G1 X62.153 Y176.815 E26.36743
G1 X61.536 Y176.61 E26.4336
G1 X60.948 Y176.331 E26.49984
G1 X60.398 Y175.982 E26.56614
G1 X59.896 Y175.568 E26.63236
G1 X59.448 Y175.096 E26.69859
G1 X59.061 Y174.573 E26.76481
G1 X58.741 Y174.006 E26.83107
G1 X58.493 Y173.404 E26.89734
G1 X58.321 Y172.776 E26.96361
G1 X58.211 Y171.834 E27.06013
G1 X58.202 Y171.501 E27.09404
G1 X58.2 Y171.358 E27.10859
G1 X58.2 Y63.902 E38.04503
G1 X58.209 Y63.237 E38.11272
G1 X58.258 Y62.588 E38.17896
G1 X58.386 Y61.95 E38.24519
G1 X58.591 Y61.332 E38.31146
G1 X58.871 Y60.745 E38.37765
G1 X59.22 Y60.195 E38.44394
G1 X59.465 Y59.898 E38.48313
G0 F810 X59.634 Y59.693
G1 F3000 E32.48313
G1 F300 Z0.7
;MESH:Heat_Gun_Holster.stl
G0 F6000 X91.114 Y92.111 Z0.7
;TYPE:WALL-INNER
G1 F300 Z0.4
G1 F3000 E38.48313
G1 F900 X91.037 Y92.195 E38.49473
G1 X88.747 Y94.722 E38.84181
G1 X88.68 Y94.813 E38.85331
G1 X86.644 Y97.556 E39.20098
G1 X86.589 Y97.651 E39.21215
G1 X84.836 Y100.576 E39.55922
G1 X83.329 Y103.762 E39.91792
G1 X82.144 Y107.074 E40.27593
G1 X82.116 Y107.184 E40.28748
G1 X81.286 Y110.495 E40.63489
G1 X80.769 Y113.981 E40.99356
G1 X80.597 Y117.495 E41.35163
G1 X80.602 Y117.608 E41.36314
G1 X80.769 Y121.019 E41.71071
G1 X81.286 Y124.507 E42.06959
G1 X81.314 Y124.616 E42.08104
G1 X82.142 Y127.918 E42.42751
G1 X82.179 Y128.025 E42.43903
G1 X83.329 Y131.239 E42.78645
G1 X84.835 Y134.421 E43.14474
G1 X84.892 Y134.518 E43.15619
G1 X86.647 Y137.447 E43.50371
G1 X86.714 Y137.537 E43.51513
G1 X88.746 Y140.277 E43.86231
G1 X88.821 Y140.359 E43.87362
G1 X91.111 Y142.886 E44.2207
G1 X91.195 Y142.963 E44.2323
G1 X93.722 Y145.253 E44.57938
G1 X93.813 Y145.32 E44.59088
G1 X96.555 Y147.355 E44.93841
G1 X96.652 Y147.412 E44.94986
G1 X99.575 Y149.164 E45.2967
G1 X102.76 Y150.67 E45.65527
G1 X106.078 Y151.857 E46.01392
G1 X109.495 Y152.714 E46.37246
G1 X112.981 Y153.231 E46.73113
G1 X116.5 Y153.403 E47.08971
G1 X120.019 Y153.231 E47.44829
G1 X123.505 Y152.714 E47.80696
G1 X126.922 Y151.857 E48.1655
G1 X130.24 Y150.67 E48.52415
G1 X133.421 Y149.165 E48.88231
G1 X133.518 Y149.108 E48.89376
G1 X136.447 Y147.353 E49.24127
G1 X136.539 Y147.285 E49.25292
G1 X139.277 Y145.254 E49.59988
G1 X139.359 Y145.179 E49.61119
G1 X141.886 Y142.889 E49.95827
G1 X141.963 Y142.805 E49.96987
G1 X144.253 Y140.278 E50.31695
G1 X144.32 Y140.187 E50.32845
G1 X146.356 Y137.444 E50.67612
G1 X146.411 Y137.349 E50.68729
G1 X148.164 Y134.424 E51.03436
G1 X149.671 Y131.238 E51.39306
G1 X150.856 Y127.926 E51.75107
G1 X150.884 Y127.816 E51.76262
G1 X151.714 Y124.505 E52.11003
G1 X152.231 Y121.019 E52.4687
G1 X152.404 Y117.505 E52.82677
G1 X152.399 Y117.391 E52.83839
G1 X152.231 Y113.981 E53.18586
G1 X151.714 Y110.493 E53.54474
G1 X151.685 Y110.381 E53.55651
G1 X150.858 Y107.082 E53.90266
G1 X150.821 Y106.975 E53.91418
G1 X149.671 Y103.761 E54.2616
G1 X148.165 Y100.579 E54.61989
G1 X148.108 Y100.482 E54.63134
G1 X146.353 Y97.553 E54.97886
G1 X144.255 Y94.726 E55.33716
G1 X144.181 Y94.642 E55.34855
G1 X141.889 Y92.114 E55.69584
G1 X141.805 Y92.037 E55.70744
G1 X139.278 Y89.747 E56.05452
G1 X139.187 Y89.68 E56.06603
G1 X136.445 Y87.645 E56.41355
G1 X136.345 Y87.586 E56.42537
G1 X133.425 Y85.836 E56.77184
G1 X130.24 Y84.33 E57.13041
G1 X126.922 Y83.143 E57.48906
G1 X123.505 Y82.286 E57.8476
G1 X120.019 Y81.769 E58.20627
G1 X116.5 Y81.596 E58.56485
G1 X112.981 Y81.769 E58.92344
G1 X109.495 Y82.286 E59.28211
G1 X106.078 Y83.143 E59.64065
G1 X102.76 Y84.33 E59.9993
G1 X99.579 Y85.835 E60.35746
G1 X99.482 Y85.892 E60.36891
G1 X96.553 Y87.647 E60.71642
G1 X96.461 Y87.715 E60.72807
G1 X93.723 Y89.746 E61.07503
G1 X93.641 Y89.821 E61.08634
G1 X91.311 Y91.933 E61.4064
G0 F810 X91.114 Y92.111
G0 F6000 X91.537 Y92.537
;TYPE:WALL-OUTER
G1 F900 X91.48 Y92.599 E61.41497
G1 X89.211 Y95.104 E61.75896
G1 X89.161 Y95.171 E61.76747
G1 X87.146 Y97.887 E62.11166
G1 X87.104 Y97.959 E62.12014
G1 X85.366 Y100.859 E62.46424
G1 X83.884 Y103.991 E62.81688
G1 X83.856 Y104.07 E62.82541
G1 X82.718 Y107.251 E63.16926
G1 X82.697 Y107.332 E63.17777
G1 X81.875 Y110.612 E63.52192
G1 X81.367 Y114.04 E63.87462
G1 X81.198 Y117.499 E64.22708
G1 X81.201 Y117.583 E64.23564
G1 X81.367 Y120.96 E64.57975
G1 X81.875 Y124.388 E64.93245
G1 X81.896 Y124.47 E64.94106
G1 X82.718 Y127.748 E65.28502
G1 X82.745 Y127.827 E65.29351
G1 X83.884 Y131.009 E65.63749
G1 X85.366 Y134.141 E65.99013
G1 X85.408 Y134.213 E65.99862
G1 X87.146 Y137.113 E66.34271
G1 X87.196 Y137.18 E66.35122
G1 X89.211 Y139.896 E66.69541
G1 X89.266 Y139.957 E66.70377
G1 X91.537 Y142.463 E67.04797
G1 X91.599 Y142.52 E67.05654
G1 X94.104 Y144.789 E67.40053
G1 X94.171 Y144.839 E67.40904
G1 X96.887 Y146.854 E67.75323
G1 X96.96 Y146.897 E67.76185
G1 X99.858 Y148.634 E68.10572
G1 X102.99 Y150.115 E68.45833
G1 X106.252 Y151.282 E68.81093
G1 X109.612 Y152.125 E69.16349
G1 X113.04 Y152.633 E69.51619
G1 X116.5 Y152.802 E69.86876
G1 X119.96 Y152.633 E70.22132
G1 X123.388 Y152.125 E70.57402
G1 X126.748 Y151.282 E70.92658
G1 X130.01 Y150.115 E71.27918
G1 X133.141 Y148.634 E71.6317
G1 X133.213 Y148.592 E71.64018
G1 X136.113 Y146.854 E71.98428
G1 X136.18 Y146.804 E71.99278
G1 X138.896 Y144.789 E72.33697
G1 X138.957 Y144.734 E72.34533
G1 X141.463 Y142.463 E72.68953
G1 X141.52 Y142.401 E72.69811
G1 X143.789 Y139.896 E73.04209
G1 X143.839 Y139.829 E73.0506
G1 X145.854 Y137.113 E73.39479
G1 X145.896 Y137.041 E73.40328
G1 X147.634 Y134.141 E73.74737
G1 X149.116 Y131.009 E74.10002
G1 X149.144 Y130.93 E74.10855
G1 X150.282 Y127.749 E74.45239
G1 X150.303 Y127.668 E74.46091
G1 X151.125 Y124.388 E74.80506
G1 X151.633 Y120.96 E75.15776
G1 X151.803 Y117.501 E75.51023
G1 X151.8 Y117.417 E75.51878
G1 X151.633 Y114.04 E75.8629
G1 X151.125 Y110.612 E76.2156
G1 X151.104 Y110.53 E76.22421
G1 X150.282 Y107.252 E76.56816
G1 X150.255 Y107.173 E76.57666
G1 X149.116 Y103.991 E76.92063
G1 X147.634 Y100.859 E77.27328
G1 X147.592 Y100.787 E77.28176
G1 X145.854 Y97.887 E77.62586
G1 X143.789 Y95.105 E77.97848
G1 X143.734 Y95.043 E77.98691
G1 X141.463 Y92.537 E78.33111
G1 X141.401 Y92.48 E78.33968
G1 X138.896 Y90.211 E78.68367
G1 X138.829 Y90.161 E78.69218
G1 X136.113 Y88.146 E79.03637
G1 X136.04 Y88.103 E79.04499
G1 X133.142 Y86.366 E79.38886
G1 X130.01 Y84.885 E79.74147
G1 X126.748 Y83.718 E80.09407
G1 X123.388 Y82.875 E80.44663
G1 X119.96 Y82.367 E80.79933
G1 X116.5 Y82.197 E81.1519
G1 X113.04 Y82.367 E81.50447
