;FLAVOR:Marlin
;TIME:8541
;Filament used: 10.9942m
;Layer height: 0.3
;MINX:53.709
;MINY:82.798
;MINZ:0.4
;MAXX:171.942
;MAXY:152.202
;MAXZ:76.9
;Generated with Cura_SteamEngine 4.4.1
M140 S60
M105
M190 S60
M104 S205
M105
M109 S205
M82 ;absolute extrusion mode
M201 X500.00 Y500.00 Z100.00 E5000.00 ;Setup machine max acceleration
M203 X500.00 Y500.00 Z10.00 E75.00 ;Setup machine max feedrate
M204 P500.00 R1000.00 T500.00 ;Setup Print/Retract/Travel acceleration
M205 X8.00 Y8.00 Z0.40 E5.00 ;Setup Jerk
M220 S100 ;Reset Feedrate
M221 S100 ;Reset Flowrate

G21 ; (metric values)
G90 ; (absolute positioning)
M82 ; (set extruder to absolute mode)
G28 ; (home all axis)
G29 ; (Auto Level)

G92 E0 ;Reset Extruder
G1 Z2.0 F3000 ;Move Z Axis up
G1 X1.1 Y50 Z0.28 F5000.0 ;Move to start position
G1 X1.1 Y200.0 Z0.28 F1500.0 E15 ;Draw the first line
G1 X1.4 Y200.0 Z0.28 F5000.0 ;Move to side a little
G1 X1.4 Y100 Z0.28 F1500.0 E30 ;Draw the second line
G92 E0 ;Reset Extruder
G1 Z2.0 F3000 ;Move Z Axis up
G92 E0
G92 E0
G1 F3000 E-6
;LAYER_COUNT:256
;LAYER:0
M107
G1 F300 Z0.7
G0 F6000 X65.197 Y86.377 Z0.7
;TYPE:SKIRT
G1 F300 Z0.4
G1 F3000 E0
G1 F900 X65.407 Y86.223 E0.0265
G1 X65.876 Y85.897 E0.08464
G1 X66.09 Y85.756 E0.11072
G1 X66.667 Y85.395 E0.17999
G1 X66.893 Y85.261 E0.20673
G1 X67.378 Y84.99 E0.26327
G1 X67.607 Y84.869 E0.28963
G1 X68.254 Y84.548 E0.36314
G1 X68.503 Y84.433 E0.39106
G1 X69.094 Y84.177 E0.45661
G1 X69.345 Y84.076 E0.48414
G1 X69.936 Y83.855 E0.54836
G1 X70.176 Y83.771 E0.57424
G1 X70.807 Y83.569 E0.64167
G1 X71.065 Y83.494 E0.66902
G1 X71.631 Y83.344 E0.72861
G1 X71.862 Y83.288 E0.7528
G1 X72.487 Y83.152 E0.8179
G1 X72.771 Y83.098 E0.84732
G1 X73.429 Y82.992 E0.91515
G1 X73.687 Y82.957 E0.94165
G1 X74.353 Y82.883 E1.00985
G1 X74.621 Y82.86 E1.03723
G1 X75.256 Y82.822 E1.10197
G1 X75.497 Y82.814 E1.12651
G1 X76.541 Y82.799 E1.23278
G1 X76.617 Y82.798 E1.24052
G1 X154.153 Y82.798 E9.13182
G1 X154.99 Y82.808 E9.21701
G1 X155.14 Y82.812 E9.23228
G1 X155.687 Y82.834 E9.288
G1 X155.93 Y82.85 E9.31279
G1 X156.613 Y82.909 E9.38256
G1 X156.89 Y82.94 E9.41093
G1 X157.513 Y83.027 E9.47495
G1 X157.764 Y83.068 E9.50083
G1 X158.346 Y83.178 E9.56111
G1 X158.589 Y83.23 E9.58641
G1 X159.19 Y83.373 E9.64928
G1 X159.448 Y83.441 E9.67644
G1 X160.14 Y83.643 E9.7498
G1 X160.411 Y83.73 E9.77877
G1 X160.989 Y83.933 E9.84112
G1 X161.233 Y84.026 E9.8677
G1 X161.844 Y84.275 E9.93485
G1 X162.076 Y84.376 E9.9606
G1 X162.651 Y84.643 E10.02512
G1 X162.885 Y84.759 E10.0517
G1 X163.431 Y85.046 E10.11448
G1 X163.664 Y85.176 E10.14164
G1 X164.22 Y85.505 E10.20739
G1 X164.435 Y85.639 E10.23317
G1 X164.95 Y85.978 E10.29593
G1 X165.177 Y86.136 E10.32407
G1 X165.733 Y86.545 E10.39432
G1 X165.943 Y86.708 E10.42138
G1 X166.378 Y87.063 E10.47852
G1 X166.564 Y87.222 E10.50343
G1 X167.103 Y87.705 E10.57709
G1 X167.299 Y87.89 E10.60452
G1 X167.693 Y88.281 E10.66101
G1 X167.865 Y88.46 E10.68628
G1 X168.343 Y88.981 E10.75824
G1 X168.531 Y89.197 E10.78738
G1 X168.93 Y89.682 E10.8513
G1 X169.087 Y89.882 E10.87718
G1 X169.435 Y90.349 E10.93645
G1 X169.584 Y90.559 E10.96266
G1 X169.988 Y91.16 E11.03636
G1 X170.134 Y91.391 E11.06418
G1 X170.444 Y91.908 E11.12553
G1 X170.573 Y92.135 E11.1521
G1 X170.889 Y92.726 E11.22031
G1 X171.008 Y92.963 E11.2473
G1 X171.235 Y93.444 E11.30143
G1 X171.336 Y93.671 E11.32672
G1 X171.521 Y94.116 E11.37577
G1 X171.733 Y94.732 E11.44207
G1 X171.869 Y95.368 E11.50826
G1 X171.926 Y96.063 E11.57923
G1 X171.94 Y96.907 E11.66515
G1 X171.941 Y96.995 E11.6741
G1 X171.942 Y138.131 E15.86076
G1 X171.941 Y138.207 E15.8685
G1 X171.931 Y138.904 E15.93944
G1 X171.882 Y139.553 E16.00568
G1 X171.754 Y140.191 E16.07191
G1 X171.551 Y140.801 E16.13734
G1 X171.415 Y141.14 E16.17451
G1 X171.341 Y141.316 E16.19395
G1 X171.235 Y141.555 E16.22056
G1 X171.144 Y141.749 E16.24236
G1 X170.829 Y142.388 E16.31487
G1 X170.693 Y142.645 E16.34446
G1 X170.367 Y143.224 E16.41209
G1 X170.226 Y143.461 E16.44016
G1 X169.911 Y143.958 E16.50005
G1 X169.772 Y144.166 E16.52551
G1 X169.355 Y144.76 E16.59937
G1 X169.199 Y144.971 E16.62608
G1 X168.865 Y145.4 E16.68141
G1 X168.7 Y145.601 E16.70788
G1 X168.237 Y146.139 E16.78012
G1 X168.047 Y146.348 E16.80887
G1 X167.615 Y146.799 E16.87243
G1 X167.432 Y146.981 E16.8987
G1 X166.96 Y147.428 E16.96486
G1 X166.773 Y147.597 E16.99051
G1 X166.314 Y147.992 E17.05214
G1 X166.099 Y148.168 E17.08042
G1 X165.552 Y148.591 E17.1508
G1 X165.342 Y148.745 E17.1773
G1 X164.813 Y149.114 E17.24294
G1 X164.598 Y149.256 E17.26917
G1 X164.112 Y149.561 E17.32756
G1 X163.878 Y149.7 E17.35526
G1 X163.26 Y150.045 E17.4273
G1 X163.033 Y150.165 E17.45343
G1 X162.505 Y150.427 E17.51342
G1 X162.265 Y150.538 E17.54033
G1 X161.606 Y150.825 E17.61349
G1 X161.359 Y150.926 E17.64065
G1 X160.815 Y151.131 E17.69982
G1 X160.562 Y151.219 E17.72708
G1 X159.934 Y151.42 E17.79419
G1 X159.683 Y151.493 E17.82079
G1 X159.079 Y151.654 E17.88441
G1 X158.828 Y151.715 E17.9107
G1 X158.163 Y151.858 E17.97993
G1 X157.901 Y151.907 E18.00706
G1 X157.342 Y151.998 E18.0647
G1 X157.098 Y152.032 E18.08977
G1 X156.397 Y152.113 E18.16159
G1 X156.112 Y152.138 E18.19071
G1 X155.489 Y152.176 E18.25423
G1 X155.244 Y152.185 E18.27918
G1 X154.162 Y152.201 E18.38932
G1 X154.084 Y152.202 E18.39726
G1 X76.557 Y152.202 E26.28765
G1 X75.687 Y152.191 E26.3762
G1 X75.548 Y152.187 E26.39035
G1 X75.035 Y152.167 E26.4426
G1 X74.789 Y152.152 E26.46769
G1 X74.123 Y152.095 E26.53572
G1 X73.85 Y152.064 E26.56368
G1 X73.285 Y151.986 E26.62173
G1 X73.048 Y151.948 E26.64616
G1 X72.349 Y151.819 E26.7185
G1 X72.056 Y151.756 E26.749
G1 X71.457 Y151.61 E26.81175
G1 X71.232 Y151.55 E26.83545
G1 X70.558 Y151.354 E26.90689
G1 X70.277 Y151.264 E26.93692
G1 X69.732 Y151.072 E26.99573
G1 X69.5 Y150.984 E27.02098
G1 X68.847 Y150.719 E27.09271
G1 X68.595 Y150.609 E27.12069
G1 X68.056 Y150.357 E27.18125
G1 X67.829 Y150.244 E27.20705
G1 X67.243 Y149.935 E27.27448
G1 X67.01 Y149.805 E27.30163
G1 X66.432 Y149.462 E27.37004
G1 X66.204 Y149.318 E27.39748
G1 X65.742 Y149.011 E27.45394
G1 X65.534 Y148.866 E27.47975
G1 X64.951 Y148.437 E27.55341
G1 X64.74 Y148.273 E27.58061
G1 X64.282 Y147.899 E27.64079
G1 X64.094 Y147.738 E27.66598
G1 X63.606 Y147.3 E27.73272
G1 X63.394 Y147.1 E27.76238
G1 X62.911 Y146.616 E27.83198
G1 X62.74 Y146.436 E27.85725
G1 X62.392 Y146.053 E27.90991
G1 X62.228 Y145.863 E27.93546
G1 X61.774 Y145.313 E28.00804
G1 X61.597 Y145.087 E28.03726
G1 X61.185 Y144.529 E28.10785
G1 X61.039 Y144.321 E28.13372
G1 X60.711 Y143.829 E28.1939
G1 X60.57 Y143.605 E28.22083
G1 X60.237 Y143.047 E28.28697
G1 X60.103 Y142.809 E28.31477
G1 X59.791 Y142.219 E28.3827
G1 X59.679 Y141.994 E28.40827
G1 X59.424 Y141.451 E28.46933
G1 X59.321 Y141.218 E28.49526
G1 X59.058 Y140.58 E28.56549
G1 X58.953 Y140.303 E28.59564
G1 X58.759 Y139.746 E28.65567
G1 X58.684 Y139.514 E28.68049
G1 X58.493 Y138.872 E28.74866
G1 X58.423 Y138.613 E28.77596
G1 X58.298 Y138.099 E28.8298
G1 X58.24 Y137.832 E28.85761
G1 X58.05 Y136.828 E28.9616
G1 X58.018 Y136.64 E28.98101
G1 X57.929 Y136.055 E29.04124
G1 X57.907 Y135.891 E29.05808
G1 X57.819 Y135.16 E29.13301
G1 X57.804 Y135.022 E29.14714
G1 X57.755 Y134.5 E29.2005
G1 X57.746 Y134.388 E29.21194
G1 X57.694 Y133.67 E29.2852
G1 X57.688 Y133.587 E29.29367
G1 X57.658 Y133.057 E29.3477
G1 X57.654 Y132.965 E29.35707
G1 X57.612 Y131.898 E29.46575
G1 X57.609 Y131.804 E29.47532
G1 X57.588 Y130.831 E29.57438
G1 X57.587 Y130.779 E29.57967
G1 X57.559 Y128.391 E29.82273
G1 X57.559 Y128.336 E29.82832
G1 X57.555 Y125.475 E30.11951
G1 X57.555 Y125.465 E30.12052
G1 X57.567 Y105.396 E32.16307
G1 X57.568 Y105.301 E32.17274
G1 X57.601 Y103.522 E32.35383
G1 X57.602 Y103.458 E32.36034
G1 X57.628 Y102.607 E32.44699
G1 X57.631 Y102.531 E32.45473
G1 X57.655 Y101.997 E32.50914
G1 X57.659 Y101.924 E32.51658
G1 X57.695 Y101.312 E32.57897
G1 X57.701 Y101.23 E32.58734
G1 X57.753 Y100.53 E32.65878
G1 X57.762 Y100.422 E32.66981
G1 X57.813 Y99.885 E32.72471
G1 X57.828 Y99.741 E32.73944
G1 X57.908 Y99.089 E32.8063
G1 X57.932 Y98.922 E32.82347
G1 X58.035 Y98.258 E32.89186
G1 X58.067 Y98.069 E32.91137
G1 X58.242 Y97.159 E33.00568
G1 X58.28 Y96.981 E33.02421
G1 X58.348 Y96.683 E33.05531
G1 X58.407 Y96.448 E33.07997
G1 X58.577 Y95.834 E33.14482
G1 X58.65 Y95.594 E33.17035
G1 X58.828 Y95.052 E33.22841
G1 X58.914 Y94.808 E33.25474
G1 X59.164 Y94.156 E33.32581
G1 X59.272 Y93.897 E33.35437
G1 X59.526 Y93.327 E33.41788
G1 X59.631 Y93.104 E33.44296
G1 X59.922 Y92.525 E33.50892
G1 X60.052 Y92.283 E33.53688
G1 X60.369 Y91.726 E33.6021
G1 X60.506 Y91.499 E33.62909
G1 X60.854 Y90.953 E33.69498
G1 X60.998 Y90.739 E33.72124
G1 X61.35 Y90.242 E33.78322
G1 X61.507 Y90.032 E33.80991
G1 X61.935 Y89.487 E33.88043
G1 X62.103 Y89.283 E33.90733
G1 X62.468 Y88.863 E33.96396
G1 X62.632 Y88.682 E33.98882
G1 X63.105 Y88.186 E34.05858
G1 X63.305 Y87.988 E34.08722
G1 X63.779 Y87.541 E34.15353
G1 X63.982 Y87.359 E34.18128
G1 X64.463 Y86.95 E34.24554
G1 X64.661 Y86.79 E34.27145
G1 X64.987 Y86.539 E34.31332
G0 F810 X65.197 Y86.377
G1 F3000 E28.31332
;MESH:de2688b0-0f1b-4a48-8a74-40db9898b0df.stl
G0 F6000 X67.89 Y90.142
G0 X68.627 Y91.17
G0 X68.8 Y91.414
;TYPE:WALL-INNER
G1 F3000 E34.31332
G1 F900 X69.295 Y91.06 E34.37526
G1 X69.792 Y90.741 E34.43536
G1 X70.308 Y90.444 E34.49596
G1 X70.829 Y90.18 E34.5554
G1 X71.384 Y89.931 E34.61731
G1 X71.931 Y89.717 E34.67709
G1 X72.5 Y89.527 E34.73814
G1 X73.074 Y89.366 E34.79882
G1 X73.652 Y89.235 E34.85914
G1 X74.255 Y89.129 E34.92145
G1 X74.837 Y89.057 E34.98113
G1 X75.412 Y89.014 E35.03982
G1 X76.044 Y88.998 E35.10416
G1 X154.663 Y88.998 E43.10569
G1 X155.294 Y89.014 E43.16993
G1 X155.872 Y89.057 E43.22892
G1 X156.453 Y89.129 E43.28851
G1 X157.055 Y89.234 E43.3507
G1 X157.629 Y89.365 E43.41062
G1 X158.206 Y89.527 E43.47162
G1 X158.775 Y89.717 E43.53267
G1 X159.323 Y89.931 E43.59255
G1 X159.877 Y90.18 E43.65436
G1 X160.398 Y90.444 E43.71381
G1 X160.92 Y90.744 E43.77508
G1 X161.406 Y91.056 E43.83386
G1 X161.903 Y91.413 E43.89614
G1 X162.363 Y91.776 E43.95578
G1 X162.832 Y92.188 E44.01931
G1 X163.238 Y92.579 E44.07668
G1 X163.642 Y93.012 E44.13695
G1 X164.044 Y93.487 E44.20029
G1 X164.402 Y93.955 E44.26026
G1 X164.729 Y94.43 E44.31895
G1 X165.047 Y94.944 E44.38046
G1 X165.333 Y95.463 E44.44077
G1 X165.594 Y95.997 E44.50127
G1 X165.741 Y96.341 E44.53934
G1 X165.742 Y138.657 E48.84609
G1 X165.622 Y138.942 E48.87757
G1 X165.349 Y139.507 E48.94143
G1 X165.07 Y140.017 E49.0006
G1 X164.751 Y140.536 E49.0626
G1 X164.421 Y141.018 E49.12205
G1 X164.06 Y141.495 E49.18293
G1 X163.67 Y141.957 E49.24447
G1 X163.257 Y142.401 E49.30618
G1 X162.844 Y142.803 E49.36484
G1 X162.389 Y143.202 E49.42643
G1 X161.916 Y143.578 E49.48793
G1 X161.426 Y143.929 E49.54927
G1 X160.926 Y144.251 E49.6098
G1 X160.426 Y144.539 E49.66853
G1 X159.882 Y144.819 E49.7308
G1 X159.324 Y145.069 E49.79303
G1 X158.788 Y145.279 E49.85162
G1 X158.236 Y145.464 E49.91087
G1 X157.633 Y145.634 E49.97463
G1 X157.058 Y145.764 E50.03463
G1 X156.465 Y145.869 E50.09592
G1 X155.873 Y145.943 E50.15664
G1 X155.298 Y145.986 E50.21533
G1 X154.663 Y146.002 E50.27997
G1 X76.044 Y146.002 E58.2815
G1 X75.409 Y145.986 E58.34615
G1 X74.834 Y145.943 E58.40484
G1 X74.242 Y145.869 E58.46556
G1 X73.649 Y145.764 E58.52685
G1 X73.074 Y145.634 E58.58685
G1 X72.471 Y145.464 E58.65061
G1 X71.918 Y145.279 E58.70996
G1 X71.382 Y145.069 E58.76855
G1 X70.825 Y144.819 E58.83068
G1 X70.288 Y144.543 E58.89213
G1 X69.77 Y144.245 E58.95296
G1 X69.276 Y143.926 E59.0128
G1 X68.787 Y143.576 E59.07401
G1 X68.308 Y143.196 E59.13624
G1 X67.877 Y142.816 E59.19472
G1 X67.45 Y142.4 E59.25539
G1 X67.037 Y141.959 E59.31688
G1 X66.655 Y141.504 E59.37735
G1 X66.292 Y141.025 E59.43851
G1 X65.95 Y140.527 E59.5
G1 X65.637 Y140.017 E59.5609
G1 X65.362 Y139.514 E59.61925
G1 X65.084 Y138.942 E59.68397
G1 X64.865 Y138.426 E59.74102
G1 X64.656 Y137.855 E59.80291
G1 X64.477 Y137.277 E59.86449
G1 X64.327 Y136.695 E59.92566
G1 X64.206 Y136.116 E59.98586
G1 X64.101 Y135.495 E60.04996
G1 X64.019 Y134.888 E60.1123
G1 X63.956 Y134.284 E60.17411
G1 X63.904 Y133.656 E60.23824
G1 X63.865 Y133.037 E60.30137
G1 X63.834 Y132.411 E60.36516
G1 X63.793 Y131.141 E60.49448
G1 X63.759 Y128.59 E60.75413
G1 X63.755 Y125.344 E61.0845
G1 X63.763 Y105.733 E63.08043
G1 X63.781 Y104.435 E63.21255
G1 X63.811 Y103.196 E63.33868
G1 X63.836 Y102.559 E63.40356
G1 X63.867 Y101.935 E63.46715
G1 X63.91 Y101.264 E63.53558
G1 X63.96 Y100.673 E63.59595
G1 X64.027 Y100.045 E63.66022
G1 X64.107 Y99.46 E63.72032
G1 X64.212 Y98.85 E63.78331
G1 X64.333 Y98.276 E63.84302
G1 X64.491 Y97.67 E63.90676
G1 X64.665 Y97.116 E63.96586
G1 X64.867 Y96.572 E64.02492
G1 X65.113 Y95.997 E64.08857
G1 X65.374 Y95.463 E64.14906
G1 X65.669 Y94.928 E64.21124
G1 X65.971 Y94.439 E64.26973
G1 X66.311 Y93.946 E64.33068
G1 X66.668 Y93.479 E64.39051
G1 X67.055 Y93.022 E64.45146
G1 X67.46 Y92.589 E64.5118
G1 X67.884 Y92.179 E64.57183
G1 X68.348 Y91.773 E64.63458
G1 X68.592 Y91.579 E64.66631
G0 F810 X68.8 Y91.414
G0 F6000 X68.438 Y90.936
;TYPE:WALL-OUTER
G1 F900 X68.959 Y90.563 E64.73152
G1 X69.477 Y90.23 E64.79419
G1 X70.021 Y89.917 E64.85807
G1 X70.572 Y89.638 E64.92093
G1 X71.156 Y89.376 E64.98607
G1 X71.724 Y89.154 E65.04814
G1 X72.331 Y88.951 E65.11328
G1 X72.92 Y88.786 E65.17553
G1 X73.537 Y88.646 E65.23993
G1 X74.157 Y88.537 E65.304
G1 X74.78 Y88.46 E65.36788
G1 X75.392 Y88.414 E65.43035
G1 X76.029 Y88.398 E65.4952
G1 X154.678 Y88.398 E73.49978
G1 X155.314 Y88.414 E73.56453
G1 X155.926 Y88.46 E73.62699
G1 X156.55 Y88.537 E73.69098
G1 X157.174 Y88.646 E73.75545
G1 X157.784 Y88.785 E73.81913
G1 X158.375 Y88.951 E73.88161
G1 X158.982 Y89.154 E73.94675
G1 X159.551 Y89.376 E74.00891
G1 X160.135 Y89.638 E74.07405
G1 X160.685 Y89.917 E74.13682
G1 X161.23 Y90.23 E74.20078
G1 X161.747 Y90.563 E74.26337
G1 X162.268 Y90.936 E74.32859
G1 X162.747 Y91.315 E74.39075
G1 X163.228 Y91.737 E74.45588
G1 X163.668 Y92.161 E74.51807
G1 X164.095 Y92.618 E74.58172
G1 X164.509 Y93.107 E74.64693
G1 X164.879 Y93.591 E74.70894
G1 X165.234 Y94.107 E74.77268
G1 X165.563 Y94.638 E74.83626
G1 X165.865 Y95.186 E74.89994
G1 X166.146 Y95.761 E74.96507
G1 X166.341 Y96.218 E75.01564
G1 X166.342 Y138.779 E79.34733
G1 X166.169 Y139.189 E79.39262
G1 X165.883 Y139.78 E79.45944
G1 X165.588 Y140.319 E79.52198
G1 X165.252 Y140.866 E79.58732
G1 X164.906 Y141.371 E79.64962
G1 X164.519 Y141.882 E79.71486
G1 X164.124 Y142.35 E79.77719
G1 X163.69 Y142.816 E79.842
G1 X163.24 Y143.254 E79.90591
G1 X162.776 Y143.661 E79.96873
G1 X162.279 Y144.056 E80.03334
G1 X161.768 Y144.422 E80.09731
G1 X161.236 Y144.765 E80.16173
G1 X160.706 Y145.07 E80.22397
G1 X160.149 Y145.356 E80.28769
G1 X159.563 Y145.619 E80.35307
G1 X158.985 Y145.846 E80.41627
G1 X158.399 Y146.042 E80.47916
G1 X157.792 Y146.213 E80.54334
G1 X157.17 Y146.354 E80.60825
G1 X156.567 Y146.461 E80.67058
G1 X155.93 Y146.54 E80.73591
G1 X155.318 Y146.586 E80.79837
G1 X154.678 Y146.602 E80.86353
G1 X76.029 Y146.602 E88.86811
G1 X75.389 Y146.586 E88.93326
G1 X74.777 Y146.54 E88.99573
G1 X74.14 Y146.461 E89.06106
G1 X73.537 Y146.354 E89.12339
G1 X72.915 Y146.213 E89.1883
G1 X72.308 Y146.042 E89.25248
G1 X71.721 Y145.846 E89.31546
G1 X71.143 Y145.619 E89.37866
G1 X70.558 Y145.356 E89.44394
G1 X70.008 Y145.074 E89.50685
G1 X69.462 Y144.76 E89.57095
G1 X68.938 Y144.422 E89.63442
G1 X68.421 Y144.051 E89.69918
G1 X67.935 Y143.666 E89.76228
G1 X67.467 Y143.254 E89.82574
G1 X67.017 Y142.816 E89.88965
G1 X66.591 Y142.36 E89.95316
G1 X66.18 Y141.871 E90.01818
G1 X65.808 Y141.381 E90.08079
G1 X65.453 Y140.863 E90.1447
G1 X65.119 Y140.319 E90.20967
