;FLAVOR:Marlin
;TIME:7203
;Filament used: 10.0844m
;Layer height: 0.3
;MINX:63.452
;MINY:82.2
;MINZ:0.4
;MAXX:162.165
;MAXY:152.8
;MAXZ:74.8
;Generated with Cura_SteamEngine 4.4.1
M140 S60
M105
M190 S60
M104 S205
M105
M109 S205
M82 ;absolute extrusion mode
M201 X500.00 Y500.00 Z100.00 E5000.00 ;Setup machine max acceleration
M203 X500.00 Y500.00 Z10.00 E75.00 ;Setup machine max feedrate
M204 P500.00 R1000.00 T500.00 ;Setup Print/Retract/Travel acceleration
M205 X8.00 Y8.00 Z0.40 E5.00 ;Setup Jerk
M220 S100 ;Reset Feedrate
M221 S100 ;Reset Flowrate

G21 ; (metric values)
G90 ; (absolute positioning)
M82 ; (set extruder to absolute mode)
G28 ; (home all axis)
G29 ; (Auto Level)

G92 E0 ;Reset Extruder
G1 Z2.0 F3000 ;Move Z Axis up
G1 X1.1 Y50 Z0.28 F5000.0 ;Move to start position
G1 X1.1 Y200.0 Z0.28 F1500.0 E15 ;Draw the first line
G1 X1.4 Y200.0 Z0.28 F5000.0 ;Move to side a little
G1 X1.4 Y100 Z0.28 F1500.0 E30 ;Draw the second line
G92 E0 ;Reset Extruder
G1 Z2.0 F3000 ;Move Z Axis up
G92 E0
G92 E0
G1 F1500 E-6
;LAYER_COUNT:248
;LAYER:0
M107
G1 F300 Z0.7
G0 F6000 X72.067 Y85.761 Z0.7
;TYPE:SKIRT
G1 F300 Z0.4
G1 F1500 E0
G1 F900 X72.224 Y85.633 E0.02062
G1 X72.619 Y85.324 E0.07166
G1 X72.73 Y85.239 E0.08589
G1 X72.919 Y85.099 E0.10982
G1 X73.114 Y84.962 E0.13408
G1 X73.512 Y84.694 E0.18291
G1 X73.636 Y84.612 E0.19804
G1 X73.816 Y84.498 E0.21973
G1 X74.013 Y84.38 E0.2431
G1 X74.438 Y84.136 E0.29298
G1 X74.566 Y84.065 E0.30787
G1 X74.776 Y83.952 E0.33214
G1 X74.989 Y83.843 E0.3565
G1 X75.411 Y83.64 E0.40416
G1 X75.528 Y83.585 E0.41731
G1 X75.734 Y83.492 E0.44032
G1 X75.943 Y83.404 E0.4634
G1 X76.402 Y83.22 E0.51373
G1 X76.593 Y83.147 E0.53454
G1 X76.82 Y83.066 E0.55907
G1 X76.994 Y83.007 E0.57777
G1 X77.453 Y82.861 E0.62679
G1 X77.594 Y82.819 E0.64176
G1 X77.792 Y82.762 E0.66273
G1 X78.177 Y82.666 E0.70312
G1 X79.151 Y82.463 E0.80438
G1 X79.55 Y82.396 E0.84555
G1 X80.406 Y82.285 E0.9334
G1 X80.672 Y82.257 E0.96062
G1 X80.875 Y82.241 E0.98135
G1 X81.2 Y82.226 E1.01446
G1 X82.654 Y82.201 E1.16247
G1 X82.745 Y82.2 E1.17173
G1 X145.986 Y82.2 E7.60814
G1 X146.078 Y82.201 E7.61751
G1 X147.461 Y82.225 E7.75829
G1 X147.715 Y82.235 E7.78416
G1 X148.143 Y82.263 E7.82781
G1 X148.603 Y82.314 E7.87491
G1 X149.585 Y82.465 E7.97603
G1 X149.977 Y82.54 E8.01665
G1 X150.809 Y82.733 E8.10358
G1 X151.112 Y82.813 E8.13547
G1 X151.41 Y82.901 E8.1671
G1 X151.657 Y82.98 E8.19349
G1 X152.095 Y83.133 E8.24071
G1 X152.235 Y83.185 E8.25591
G1 X152.458 Y83.27 E8.2802
G1 X152.814 Y83.421 E8.31956
G1 X153.826 Y83.894 E8.43325
G1 X154.105 Y84.034 E8.46502
G1 X154.371 Y84.178 E8.4958
G1 X154.621 Y84.322 E8.52517
G1 X155.02 Y84.567 E8.57282
G1 X155.146 Y84.647 E8.58801
G1 X155.374 Y84.796 E8.61573
G1 X155.563 Y84.926 E8.63908
G1 X155.927 Y85.187 E8.68466
G1 X156.036 Y85.267 E8.69842
G1 X156.237 Y85.419 E8.72407
G1 X156.417 Y85.561 E8.7474
G1 X156.775 Y85.857 E8.79468
G1 X156.9 Y85.964 E8.81143
G1 X157.084 Y86.126 E8.83638
G1 X157.363 Y86.39 E8.87547
G1 X158.142 Y87.183 E8.98861
G1 X158.378 Y87.44 E9.02412
G1 X158.588 Y87.684 E9.05688
G1 X158.845 Y88.007 E9.09889
G1 X159.499 Y88.899 E9.21146
G1 X159.678 Y89.158 E9.24351
G1 X159.842 Y89.412 E9.27428
G1 X159.986 Y89.649 E9.3025
G1 X160.227 Y90.069 E9.35179
G1 X160.294 Y90.19 E9.36586
G1 X160.41 Y90.405 E9.39073
G1 X160.587 Y90.764 E9.43146
G1 X161.027 Y91.751 E9.54145
G1 X161.144 Y92.035 E9.57271
G1 X161.257 Y92.334 E9.60524
G1 X161.397 Y92.758 E9.65068
G1 X161.699 Y93.82 E9.76305
G1 X161.774 Y94.119 E9.79443
G1 X161.845 Y94.438 E9.82769
G1 X161.924 Y94.877 E9.87309
G1 X162.071 Y95.961 E9.98442
G1 X162.101 Y96.235 E10.01248
G1 X162.122 Y96.488 E10.03831
G1 X162.139 Y96.835 E10.07367
G1 X162.164 Y98.288 E10.22157
G1 X162.165 Y98.379 E10.23084
G1 X162.164 Y136.665 E14.12743
G1 X162.163 Y136.757 E14.1368
G1 X162.14 Y138.087 E14.27218
G1 X162.13 Y138.341 E14.29805
G1 X162.1 Y138.8 E14.34487
G1 X162.05 Y139.259 E14.39186
G1 X161.889 Y140.307 E14.49977
G1 X161.833 Y140.611 E14.53123
G1 X161.76 Y140.952 E14.56672
G1 X161.65 Y141.376 E14.6113
G1 X161.33 Y142.435 E14.7239
G1 X161.225 Y142.747 E14.7574
G1 X161.108 Y143.062 E14.7916
G1 X160.936 Y143.473 E14.83695
G1 X160.469 Y144.466 E14.94863
G1 X160.33 Y144.741 E14.97999
G1 X160.18 Y145.017 E15.01196
G1 X160.041 Y145.257 E15.04019
G1 X159.795 Y145.658 E15.08807
G1 X159.725 Y145.77 E15.10151
G1 X159.585 Y145.986 E15.12771
G1 X159.347 Y146.322 E15.16961
G1 X158.681 Y147.193 E15.2812
G1 X158.494 Y147.425 E15.31153
G1 X158.301 Y147.65 E15.3417
G1 X157.991 Y147.981 E15.38786
G1 X157.178 Y148.779 E15.5038
G1 X156.946 Y148.993 E15.53592
G1 X156.721 Y149.189 E15.56629
G1 X156.508 Y149.366 E15.59448
G1 X156.116 Y149.673 E15.64515
G1 X156 Y149.761 E15.65997
G1 X155.808 Y149.903 E15.68428
G1 X155.622 Y150.035 E15.70749
G1 X155.228 Y150.301 E15.75587
G1 X155.083 Y150.395 E15.77346
G1 X154.889 Y150.517 E15.79679
G1 X154.673 Y150.645 E15.82234
G1 X154.076 Y150.982 E15.89211
G1 X153.621 Y151.211 E15.94395
G1 X152.58 Y151.673 E16.05987
G1 X152.293 Y151.791 E16.09145
G1 X151.992 Y151.904 E16.12417
G1 X151.736 Y151.993 E16.15176
G1 X151.277 Y152.139 E16.20078
G1 X151.136 Y152.181 E16.21575
G1 X150.938 Y152.238 E16.23672
G1 X150.554 Y152.333 E16.27698
G1 X149.581 Y152.536 E16.37814
G1 X149.18 Y152.604 E16.41954
G1 X148.323 Y152.715 E16.50749
G1 X148.058 Y152.743 E16.53461
G1 X147.855 Y152.759 E16.55533
G1 X147.53 Y152.774 E16.58845
G1 X146.076 Y152.799 E16.73645
G1 X145.985 Y152.8 E16.74571
G1 X82.744 Y152.8 E23.18213
G1 X82.652 Y152.799 E23.19149
G1 X81.27 Y152.775 E23.33217
G1 X81.017 Y152.765 E23.35794
G1 X80.588 Y152.737 E23.40169
G1 X80.127 Y152.686 E23.4489
G1 X79.145 Y152.535 E23.55002
G1 X78.753 Y152.46 E23.59064
G1 X77.921 Y152.267 E23.67756
G1 X77.618 Y152.187 E23.70946
G1 X77.32 Y152.099 E23.74108
G1 X77.074 Y152.02 E23.76738
G1 X76.63 Y151.865 E23.81524
G1 X76.484 Y151.811 E23.83108
G1 X76.267 Y151.728 E23.85473
G1 X76.061 Y151.645 E23.87733
G1 X75.602 Y151.447 E23.92821
G1 X75.485 Y151.394 E23.94128
G1 X75.283 Y151.301 E23.96391
G1 X75.066 Y151.196 E23.98845
G1 X74.648 Y150.98 E24.03634
G1 X74.493 Y150.896 E24.05428
G1 X74.291 Y150.783 E24.07784
G1 X74.111 Y150.678 E24.09905
G1 X73.706 Y150.43 E24.14738
G1 X73.583 Y150.352 E24.1622
G1 X73.371 Y150.214 E24.18795
G1 X73.175 Y150.08 E24.21211
G1 X72.801 Y149.812 E24.25894
G1 X72.688 Y149.729 E24.27321
G1 X72.49 Y149.579 E24.29849
G1 X72.31 Y149.437 E24.32182
G1 X71.944 Y149.134 E24.37018
G1 X71.821 Y149.028 E24.38671
G1 X71.645 Y148.873 E24.41058
G1 X71.489 Y148.731 E24.43205
G1 X71.14 Y148.398 E24.48114
G1 X71.008 Y148.267 E24.50007
G1 X70.839 Y148.094 E24.52468
G1 X70.706 Y147.952 E24.54448
G1 X70.381 Y147.594 E24.5937
G1 X70.261 Y147.458 E24.61215
G1 X70.128 Y147.301 E24.6331
G1 X70.002 Y147.146 E24.65343
G1 X69.693 Y146.752 E24.70439
G1 X69.587 Y146.613 E24.72218
G1 X69.461 Y146.441 E24.74388
G1 X69.255 Y146.137 E24.78125
G1 X68.653 Y145.183 E24.89606
G1 X68.466 Y144.864 E24.9337
G1 X68.308 Y144.57 E24.96767
G1 X68.207 Y144.371 E24.99038
G1 X68.006 Y143.956 E25.03731
G1 X67.937 Y143.808 E25.05393
G1 X67.849 Y143.611 E25.07589
G1 X67.766 Y143.416 E25.09746
G1 X67.583 Y142.958 E25.14765
G1 X67.52 Y142.792 E25.16572
G1 X67.438 Y142.565 E25.19029
G1 X67.374 Y142.374 E25.21079
G1 X67.227 Y141.913 E25.26004
G1 X67.178 Y141.752 E25.27716
G1 X67.122 Y141.555 E25.29801
G1 X67.032 Y141.188 E25.33647
G1 X66.798 Y140.066 E25.45312
G1 X66.734 Y139.699 E25.49103
G1 X66.693 Y139.398 E25.52195
G1 X66.656 Y139.017 E25.56091
G1 X66.598 Y138.099 E25.65453
G1 X66.588 Y137.863 E25.67857
G1 X66.566 Y136.671 E25.7999
G1 X66.565 Y136.573 E25.80988
G1 X66.565 Y98.428 E29.69212
G1 X66.566 Y98.332 E29.7019
G1 X66.591 Y96.956 E29.84196
G1 X66.609 Y96.602 E29.87804
G1 X66.683 Y95.734 E29.9667
G1 X66.716 Y95.446 E29.9962
G1 X66.762 Y95.119 E30.02981
G1 X66.842 Y94.681 E30.07513
G1 X67.093 Y93.578 E30.19026
G1 X67.178 Y93.253 E30.22445
G1 X67.266 Y92.955 E30.25607
G1 X67.347 Y92.705 E30.28282
G1 X67.507 Y92.248 E30.3321
G1 X67.559 Y92.106 E30.34749
G1 X67.637 Y91.902 E30.36971
G1 X67.72 Y91.696 E30.39232
G1 X67.918 Y91.237 E30.44319
G1 X67.971 Y91.12 E30.45627
G1 X68.064 Y90.918 E30.4789
G1 X68.171 Y90.698 E30.5038
G1 X68.391 Y90.273 E30.5525
G1 X68.467 Y90.131 E30.5689
G1 X68.575 Y89.937 E30.59149
G1 X68.774 Y89.609 E30.63054
G1 X69.385 Y88.677 E30.74396
G1 X69.573 Y88.409 E30.77728
G1 X69.757 Y88.163 E30.80855
G1 X69.92 Y87.955 E30.83544
G1 X70.244 Y87.564 E30.88712
G1 X70.353 Y87.437 E30.90416
G1 X70.497 Y87.274 E30.92629
G1 X70.641 Y87.117 E30.94797
G1 X70.98 Y86.763 E30.99786
G1 X71.094 Y86.648 E31.01434
G1 X71.261 Y86.484 E31.03816
G1 X71.412 Y86.341 E31.05933
G1 X71.771 Y86.015 E31.10868
G1 X71.865 Y85.933 E31.12138
G0 F810 X71.911 Y85.893
G0 X72.067 Y85.761
G1 F1500 E25.12138
G1 F300 Z0.7
;MESH:ts100 stand.stl
G0 F6000 X75.909 Y90.621 Z0.7
;TYPE:WALL-INNER
G1 F300 Z0.4
G1 F1500 E31.12138
G1 F900 X76.414 Y90.213 E31.18745
G1 X76.943 Y89.846 E31.25298
G1 X77.505 Y89.513 E31.31946
G1 X78.085 Y89.223 E31.38546
G1 X78.678 Y88.978 E31.45076
G1 X79.308 Y88.768 E31.51835
G1 X79.937 Y88.607 E31.58443
G1 X80.572 Y88.493 E31.65009
G1 X81.199 Y88.425 E31.71428
G1 X81.897 Y88.4 E31.78537
G1 X146.833 Y88.4 E38.39429
G1 X147.531 Y88.425 E38.46538
G1 X148.158 Y88.493 E38.52957
G1 X148.793 Y88.607 E38.59523
G1 X149.422 Y88.768 E38.66131
G1 X150.052 Y88.978 E38.72889
G1 X150.645 Y89.223 E38.7942
G1 X151.226 Y89.513 E38.86028
G1 X151.787 Y89.846 E38.92668
G1 X152.316 Y90.213 E38.99221
G1 X152.821 Y90.62 E39.05822
G1 X153.299 Y91.067 E39.12483
G1 X153.745 Y91.544 E39.19129
G1 X154.152 Y92.049 E39.2573
G1 X154.519 Y92.578 E39.32283
G1 X154.852 Y93.14 E39.38931
G1 X155.139 Y93.716 E39.45481
G1 X155.391 Y94.319 E39.52133
G1 X155.594 Y94.931 E39.58695
G1 X155.758 Y95.569 E39.65399
G1 X155.873 Y96.216 E39.72087
G1 X155.94 Y96.83 E39.78374
G1 X155.965 Y97.521 E39.85411
G1 X155.964 Y137.497 E43.92271
G1 X155.94 Y138.166 E43.99084
G1 X155.873 Y138.784 E44.05411
G1 X155.758 Y139.431 E44.12099
G1 X155.594 Y140.069 E44.18803
G1 X155.394 Y140.674 E44.25288
G1 X155.139 Y141.284 E44.32017
G1 X154.855 Y141.855 E44.38508
G1 X154.519 Y142.422 E44.45216
G1 X154.152 Y142.951 E44.51768
G1 X153.745 Y143.456 E44.58369
G1 X153.299 Y143.933 E44.65016
G1 X152.827 Y144.374 E44.7159
G1 X152.31 Y144.791 E44.7835
G1 X151.787 Y145.154 E44.8483
G1 X151.226 Y145.487 E44.91469
G1 X150.645 Y145.777 E44.98078
G1 X150.052 Y146.022 E45.04608
G1 X149.422 Y146.232 E45.11367
G1 X148.793 Y146.393 E45.17975
G1 X148.158 Y146.507 E45.24541
G1 X147.531 Y146.575 E45.3096
G1 X146.833 Y146.6 E45.38068
G1 X81.897 Y146.6 E51.98961
G1 X81.199 Y146.575 E52.0607
G1 X80.572 Y146.507 E52.12488
G1 X79.937 Y146.393 E52.19055
G1 X79.308 Y146.232 E52.25663
G1 X78.678 Y146.022 E52.32421
G1 X78.085 Y145.777 E52.38952
G1 X77.505 Y145.487 E52.45551
G1 X76.943 Y145.154 E52.522
G1 X76.42 Y144.791 E52.58679
G1 X75.902 Y144.374 E52.65447
G1 X75.431 Y143.934 E52.72007
G1 X74.986 Y143.456 E52.78654
G1 X74.587 Y142.962 E52.85117
G1 X74.202 Y142.406 E52.92
G1 X73.875 Y141.855 E52.98521
G1 X73.588 Y141.28 E53.05061
G1 X73.343 Y140.687 E53.11591
G1 X73.132 Y140.056 E53.18363
G1 X72.974 Y139.436 E53.24875
G1 X72.859 Y138.795 E53.31503
G1 X72.79 Y138.155 E53.38054
G1 X72.765 Y137.478 E53.44949
G1 X72.765 Y97.533 E57.51494
G1 X72.79 Y96.841 E57.58541
G1 X72.859 Y96.206 E57.65042
G1 X72.974 Y95.564 E57.7168
G1 X73.134 Y94.939 E57.78246
G1 X73.342 Y94.314 E57.8495
G1 X73.588 Y93.721 E57.91484
G1 X73.878 Y93.141 E57.98084
G1 X74.204 Y92.591 E58.04591
G1 X74.587 Y92.038 E58.11437
G1 X74.986 Y91.544 E58.179
G1 X75.431 Y91.066 E58.24547
G1 X75.715 Y90.802 E58.28493
G0 F810 X75.909 Y90.621
G0 F6000 X75.511 Y90.171
;TYPE:WALL-OUTER
G1 F900 X76.06 Y89.729 E58.35666
G1 X76.617 Y89.342 E58.42569
G1 X77.221 Y88.984 E58.49715
G1 X77.832 Y88.679 E58.56666
G1 X78.469 Y88.415 E58.63683
G1 X79.135 Y88.193 E58.70828
G1 X79.81 Y88.021 E58.77918
G1 X80.485 Y87.899 E58.84899
G1 X81.167 Y87.825 E58.91881
G1 X81.876 Y87.8 E58.99101
G1 X146.854 Y87.8 E65.60421
G1 X147.563 Y87.825 E65.67642
G1 X148.245 Y87.899 E65.74624
G1 X148.92 Y88.021 E65.81605
G1 X149.595 Y88.193 E65.88694
G1 X150.261 Y88.415 E65.95839
G1 X150.898 Y88.679 E66.02857
G1 X151.51 Y88.984 E66.09816
G1 X152.113 Y89.342 E66.16954
G1 X152.67 Y89.729 E66.23857
G1 X153.219 Y90.171 E66.3103
G1 X153.724 Y90.642 E66.38058
G1 X154.194 Y91.146 E66.45072
G1 X154.636 Y91.695 E66.52245
G1 X155.023 Y92.252 E66.59148
G1 X155.381 Y92.856 E66.66294
G1 X155.686 Y93.467 E66.73244
G1 X155.95 Y94.1 E66.80225
G1 X156.171 Y94.765 E66.87357
G1 X156.346 Y95.448 E66.94533
G1 X156.466 Y96.12 E67.0148
G1 X156.54 Y96.798 E67.08421
G1 X156.565 Y97.5 E67.15571
G1 X156.564 Y137.518 E71.22858
G1 X156.54 Y138.198 E71.29783
G1 X156.466 Y138.88 E71.36765
G1 X156.346 Y139.552 E71.43712
G1 X156.171 Y140.235 E71.50888
G1 X155.953 Y140.892 E71.57933
G1 X155.686 Y141.533 E71.65001
G1 X155.384 Y142.139 E71.71892
G1 X155.023 Y142.748 E71.79097
G1 X154.636 Y143.305 E71.86
G1 X154.194 Y143.854 E71.93173
G1 X153.724 Y144.358 E72.00187
G1 X153.219 Y144.829 E72.07215
G1 X152.672 Y145.27 E72.14366
G1 X152.113 Y145.658 E72.21292
G1 X151.51 Y146.016 E72.28429
G1 X150.898 Y146.321 E72.35388
G1 X150.261 Y146.585 E72.42406
G1 X149.595 Y146.807 E72.49551
G1 X148.92 Y146.979 E72.5664
G1 X148.245 Y147.101 E72.63622
G1 X147.563 Y147.175 E72.70604
G1 X146.854 Y147.2 E72.77824
G1 X81.876 Y147.2 E79.39144
G1 X81.167 Y147.175 E79.46365
G1 X80.485 Y147.101 E79.53346
G1 X79.81 Y146.979 E79.60328
G1 X79.135 Y146.807 E79.67417
G1 X78.469 Y146.585 E79.74562
G1 X77.832 Y146.321 E79.8158
G1 X77.221 Y146.016 E79.8853
G1 X76.617 Y145.658 E79.95676
G1 X76.058 Y145.27 E80.02601
G1 X75.511 Y144.829 E80.09753
G1 X75.006 Y144.359 E80.16774
G1 X74.536 Y143.854 E80.23795
G1 X74.103 Y143.316 E80.30824
G1 X73.7 Y142.735 E80.3802
G1 X73.346 Y142.139 E80.45075
G1 X73.044 Y141.533 E80.51966
G1 X72.78 Y140.896 E80.58984
G1 X72.558 Y140.23 E80.66129
G1 X72.385 Y139.552 E80.73251
G1 X72.264 Y138.88 E80.802
G1 X72.191 Y138.198 E80.87181
G1 X72.165 Y137.5 E80.9429
G1 X72.165 Y97.511 E85.01282
G1 X72.191 Y96.798 E85.08543
G1 X72.264 Y96.12 E85.15484
G1 X72.385 Y95.448 E85.22433
G1 X72.558 Y94.77 E85.29554
G1 X72.781 Y94.1 E85.36741
G1 X73.044 Y93.467 E85.43718
G1 X73.349 Y92.856 E85.50668
G1 X73.7 Y92.265 E85.57664
G1 X74.103 Y91.684 E85.6486
G1 X74.536 Y91.146 E85.71889
G1 X75.006 Y90.641 E85.7891
G1 X75.317 Y90.352 E85.83231
G0 F810 X75.511 Y90.171
G0 F6000 X75.666 Y90.046
G0 X76.08 Y90.561
G0 X76.288 Y91.074
;TYPE:SKIN
G1 F900 X76.784 Y90.673 E85.89722
G1 X77.249 Y90.351 E85.95479
G1 X77.801 Y90.024 E86.02009
G1 X78.323 Y89.764 E86.07944
G1 X78.879 Y89.533 E86.14072
G1 X79.476 Y89.335 E86.20473
G1 X80.077 Y89.181 E86.26787
G1 X80.654 Y89.077 E86.32755
G1 X81.228 Y89.015 E86.3863
G1 X81.918 Y88.99 E86.45658
G1 X146.812 Y88.99 E93.06123
G1 X147.502 Y89.015 E93.1315
G1 X148.076 Y89.077 E93.19026
G1 X148.653 Y89.181 E93.24993
G1 X149.254 Y89.335 E93.31307
G1 X149.851 Y89.533 E93.37709
G1 X150.402 Y89.761 E93.43778
G1 X150.949 Y90.034 E93.5
G1 X151.473 Y90.345 E93.56201
G1 X151.946 Y90.673 E93.6206
G1 X152.437 Y91.068 E93.68473
G1 X152.882 Y91.484 E93.74673
G1 X153.297 Y91.928 E93.80859
G1 X153.692 Y92.419 E93.87272
G1 X154.017 Y92.887 E93.93071
G1 X154.323 Y93.403 E93.99177
G1 X154.602 Y93.962 E94.05535
G1 X154.843 Y94.539 E94.11899
G1 X155.022 Y95.078 E94.1768
G1 X155.181 Y95.695 E94.24164
G1 X155.29 Y96.308 E94.30501
G1 X155.35 Y96.852 E94.36071
G1 X155.375 Y97.521 E94.42885
G1 X155.374 Y137.476 E98.49531
