;FLAVOR:Marlin
;TIME:6849
;Filament used: 3.82249m
;Layer height: 0.2
;MINX:84.286
;MINY:79.062
;MINZ:0.3
;MAXX:150.725
;MAXY:155.955
;MAXZ:49.65
;Generated with Cura_SteamEngine 4.7.0
M140 S60
M105
M190 S60
M104 S205
M105
M109 S205
M82 ;absolute extrusion mode
M201 X500.00 Y500.00 Z100.00 E5000.00 ;Setup machine max acceleration
M203 X500.00 Y500.00 Z10.00 E75.00 ;Setup machine max feedrate
M204 P500.00 R1000.00 T500.00 ;Setup Print/Retract/Travel acceleration
M205 X8.00 Y8.00 Z0.40 E5.00 ;Setup Jerk
M220 S100 ;Reset Feedrate
M221 S100 ;Reset Flowrate

G21 ; (metric values)
G90 ; (absolute positioning)
M82 ; (set extruder to absolute mode)
G28 ; (home all axis)
G29 ; (Auto Level)

G92 E0 ;Reset Extruder
G1 Z2.0 F3000 ;Move Z Axis up
G1 X1.1 Y50 Z0.28 F5000.0 ;Move to start position
G1 X1.1 Y200.0 Z0.28 F1500.0 E15 ;Draw the first line
G1 X1.4 Y200.0 Z0.28 F5000.0 ;Move to side a little
G1 X1.4 Y100 Z0.28 F1500.0 E30 ;Draw the second line
G92 E0 ;Reset Extruder
G1 Z2.0 F3000 ;Move Z Axis up
G92 E0
G92 E0
G1 F1500 E-6.5
;LAYER_COUNT:246
;LAYER:0
M107
G1 F300 Z0.65
G0 F6000 X87.46 Y96.118 Z0.65
;TYPE:SKIRT
G1 F300 Z0.3
G1 F1500 E0
G1 F900 X87.667 Y95.933 E0.01385
G1 X88.05 Y95.62 E0.03853
G1 X88.495 Y95.288 E0.06623
G1 X88.928 Y94.995 E0.09231
G1 X89.028 Y94.934 E0.09815
G1 X89.191 Y94.838 E0.10759
G1 X89.377 Y94.733 E0.11825
G1 X89.587 Y94.621 E0.13012
G1 X90.3 Y94.257 E0.17006
G1 X92.289 Y93.266 E0.28093
G1 X94.646 Y92.007 E0.41424
G1 X96.952 Y90.69 E0.54673
G1 X99.249 Y89.291 E0.68091
G1 X101.471 Y87.85 E0.81304
G1 X103.686 Y86.322 E0.94729
G1 X105.807 Y84.77 E1.07841
G1 X107.203 Y83.683 E1.16668
G1 X107.803 Y83.228 E1.20425
G1 X107.923 Y83.139 E1.2117
G1 X108.228 Y82.922 E1.23037
G1 X108.42 Y82.792 E1.24194
G1 X109.126 Y82.32 E1.28431
G1 X109.736 Y81.925 E1.32057
G1 X110.153 Y81.681 E1.34467
G1 X110.473 Y81.511 E1.36275
G1 X111.419 Y81.043 E1.41541
G1 X112.106 Y80.716 E1.45336
G1 X112.522 Y80.538 E1.47594
G1 X112.741 Y80.455 E1.48762
G1 X112.921 Y80.391 E1.49715
G1 X113.933 Y80.047 E1.55048
G1 X114.597 Y79.833 E1.58529
G1 X114.819 Y79.766 E1.59685
G1 X115.121 Y79.689 E1.6124
G1 X115.364 Y79.634 E1.62483
G1 X115.503 Y79.605 E1.63192
G1 X116.475 Y79.411 E1.68137
G1 X117.178 Y79.28 E1.71704
G1 X117.652 Y79.212 E1.74093
G1 X117.945 Y79.183 E1.75562
G1 X118.235 Y79.16 E1.77014
G1 X119.166 Y79.1 E1.81668
G1 X119.844 Y79.066 E1.85055
G1 X120.318 Y79.062 E1.8742
G1 X120.697 Y79.076 E1.89312
G1 X120.897 Y79.087 E1.90311
G1 X121.817 Y79.148 E1.94911
G1 X122.491 Y79.202 E1.98285
G1 X122.976 Y79.262 E2.00723
G1 X123.318 Y79.321 E2.02454
G1 X123.616 Y79.377 E2.03967
G1 X124.321 Y79.517 E2.07553
G1 X125.102 Y79.684 E2.11537
G1 X125.575 Y79.806 E2.13974
G1 X125.839 Y79.887 E2.15352
G1 X125.989 Y79.936 E2.16139
G1 X126.947 Y80.26 E2.21185
G1 X127.628 Y80.502 E2.2479
G1 X128.085 Y80.687 E2.2725
G1 X128.299 Y80.785 E2.28424
G1 X128.666 Y80.962 E2.30457
G1 X129.378 Y81.313 E2.34418
G1 X130.007 Y81.633 E2.37938
G1 X130.434 Y81.874 E2.40385
G1 X130.759 Y82.078 E2.42299
G1 X131.593 Y82.634 E2.473
G1 X132.257 Y83.091 E2.51321
G1 X132.638 Y83.377 E2.53698
G1 X132.841 Y83.544 E2.55009
G1 X132.974 Y83.657 E2.5588
G1 X133.694 Y84.288 E2.60656
G1 X134.258 Y84.797 E2.64447
G1 X134.595 Y85.128 E2.66803
G1 X134.854 Y85.406 E2.68699
G1 X135.035 Y85.61 E2.7006
G1 X135.597 Y86.25 E2.74309
G1 X136.023 Y86.75 E2.77586
G1 X136.155 Y86.912 E2.78629
G1 X136.339 Y87.152 E2.80137
G1 X136.475 Y87.341 E2.81299
G1 X136.653 Y87.599 E2.82863
G1 X137.16 Y88.359 E2.87421
G1 X137.545 Y88.954 E2.90956
G1 X137.771 Y89.336 E2.93171
G1 X137.907 Y89.588 E2.94599
G1 X137.997 Y89.762 E2.95577
G1 X138.471 Y90.72 E3.00909
G1 X138.749 Y91.306 E3.04145
G1 X138.851 Y91.535 E3.05396
G1 X138.94 Y91.755 E3.0658
G1 X139.017 Y91.958 E3.07663
G1 X139.16 Y92.36 E3.09792
G1 X139.431 Y93.162 E3.14015
G1 X139.642 Y93.813 E3.17429
G1 X139.69 Y93.967 E3.18234
G1 X139.973 Y94.934 E3.23261
G1 X140.759 Y97.481 E3.36559
G1 X141.624 Y100.03 E3.49988
G1 X142.56 Y102.551 E3.63405
G1 X143.548 Y104.995 E3.76556
G1 X144.624 Y107.456 E3.89957
G1 X145.763 Y109.873 E4.03287
G1 X146.97 Y112.256 E4.16614
G1 X148.236 Y114.59 E4.29861
G1 X149.524 Y116.814 E4.42683
G1 X149.923 Y117.482 E4.46565
G1 X150.231 Y118.076 E4.49903
G1 X150.466 Y118.703 E4.53244
G1 X150.625 Y119.352 E4.56577
G1 X150.712 Y120.183 E4.60746
G1 X150.722 Y120.51 E4.62378
G1 X150.725 Y120.681 E4.63231
G1 X150.724 Y149.692 E6.07968
G1 X150.714 Y150.419 E6.11595
G1 X150.665 Y151.086 E6.14932
G1 X150.537 Y151.743 E6.18271
G1 X150.331 Y152.379 E6.21606
G1 X150.051 Y152.987 E6.24946
G1 X149.7 Y153.557 E6.28286
G1 X149.284 Y154.081 E6.31624
G1 X148.809 Y154.551 E6.34957
G1 X148.28 Y154.962 E6.38299
G1 X147.707 Y155.306 E6.41634
G1 X147.096 Y155.58 E6.44975
G1 X146.458 Y155.779 E6.48309
G1 X145.8 Y155.9 E6.51647
G1 X145.272 Y155.94 E6.54288
G1 X144.952 Y155.949 E6.55885
G1 X144.795 Y155.951 E6.56669
G1 X117.556 Y155.952 E7.92565
G1 X117.511 Y155.955 E7.9279
G1 X117.111 Y155.954 E7.94785
G1 X117.063 Y155.951 E7.95025
G1 X98.242 Y155.95 E8.88924
G1 X97.477 Y155.939 E8.92741
G1 X97.191 Y155.928 E8.94169
G1 X96.978 Y155.914 E8.95234
G1 X96.432 Y155.851 E8.97976
G1 X96.208 Y155.814 E8.99108
G1 X95.926 Y155.76 E9.00541
G1 X95.839 Y155.741 E9.00985
G1 X95.481 Y155.65 E9.02828
G1 X95.287 Y155.594 E9.03835
G1 X94.904 Y155.469 E9.05845
G1 X94.828 Y155.441 E9.06249
G1 X94.337 Y155.233 E9.0891
G1 X93.894 Y155.02 E9.11362
G1 X93.189 Y154.615 E9.15418
G1 X93.023 Y154.503 E9.16417
G1 X92.6 Y154.188 E9.19049
G1 X92.404 Y154.027 E9.20314
G1 X91.999 Y153.66 E9.23041
G1 X91.81 Y153.471 E9.24374
G1 X91.419 Y153.036 E9.27292
G1 X91.244 Y152.82 E9.28679
G1 X90.846 Y152.263 E9.32095
G1 X90.716 Y152.055 E9.33318
G1 X90.483 Y151.644 E9.35675
G1 X90.367 Y151.418 E9.36943
G1 X90.124 Y150.876 E9.39906
G1 X90.028 Y150.627 E9.41238
G1 X89.833 Y150.022 E9.44409
G1 X89.769 Y149.776 E9.45677
G1 X89.658 Y149.242 E9.48398
G1 X89.617 Y148.983 E9.49706
G1 X89.566 Y148.554 E9.51862
G1 X89.56 Y148.479 E9.52237
G1 X89.547 Y148.263 E9.53317
G1 X89.536 Y147.997 E9.54645
G1 X89.531 Y147.832 E9.55468
G1 X89.525 Y147.324 E9.58003
G1 X89.525 Y135.985 E10.14574
G1 X89.487 Y133.332 E10.27811
G1 X89.373 Y130.647 E10.41218
G1 X89.185 Y127.993 E10.54492
G1 X88.921 Y125.327 E10.67858
G1 X88.58 Y122.664 E10.81252
G1 X88.171 Y120.063 E10.94388
G1 X87.679 Y117.412 E11.0784
G1 X87.106 Y114.75 E11.21425
G1 X86.489 Y112.241 E11.34315
G1 X85.776 Y109.646 E11.47742
G1 X84.823 Y106.563 E11.63841
G1 X84.745 Y106.325 E11.65091
G1 X84.637 Y105.951 E11.67033
G1 X84.542 Y105.574 E11.68972
G1 X84.471 Y105.255 E11.70603
G1 X84.442 Y105.103 E11.71375
G1 X84.399 Y104.842 E11.72694
G1 X84.369 Y104.631 E11.73758
G1 X84.337 Y104.357 E11.75134
G1 X84.318 Y104.151 E11.76166
G1 X84.296 Y103.801 E11.77916
G1 X84.286 Y103.46 E11.79618
G1 X84.29 Y103.034 E11.81743
G1 X84.293 Y102.97 E11.82063
G1 X84.309 Y102.74 E11.83213
G1 X84.355 Y102.218 E11.85827
G1 X84.468 Y101.486 E11.89523
G1 X84.591 Y100.937 E11.92329
G1 X84.806 Y100.213 E11.96097
G1 X85.016 Y99.647 E11.99109
G1 X85.31 Y98.988 E12.02709
G1 X85.492 Y98.642 E12.0466
G1 X85.754 Y98.195 E12.07245
G1 X85.931 Y97.923 E12.08864
G1 X86.069 Y97.72 E12.10088
G1 X86.237 Y97.485 E12.1153
G1 X86.556 Y97.08 E12.14102
G1 X86.811 Y96.785 E12.16047
G1 X86.958 Y96.622 E12.17142
G1 X87.081 Y96.491 E12.18039
G0 F810 X87.102 Y96.468
G0 X87.46 Y96.118
G0 F6000 X87.727 Y96.416
G1 F900 X87.934 Y96.231 E12.19424
G1 X88.289 Y95.94 E12.21714
G1 X88.734 Y95.608 E12.24484
G1 X89.136 Y95.337 E12.26902
G1 X89.236 Y95.276 E12.27487
G1 X89.388 Y95.187 E12.28366
G1 X89.574 Y95.082 E12.29431
G1 X89.768 Y94.977 E12.30532
G1 X90.479 Y94.615 E12.34512
G1 X92.478 Y93.62 E12.45652
G1 X94.811 Y92.372 E12.58853
G1 X97.179 Y91.02 E12.72457
G1 X99.453 Y89.635 E12.8574
G1 X101.686 Y88.188 E12.99015
G1 X103.927 Y86.641 E13.12601
G1 X106.059 Y85.08 E13.25784
G1 X107.445 Y84.002 E13.34544
G1 X108.156 Y83.464 E13.38992
G1 X108.354 Y83.322 E13.40208
G1 X108.642 Y83.125 E13.41948
G1 X109.344 Y82.656 E13.4616
G1 X109.954 Y82.261 E13.49786
G1 X110.34 Y82.034 E13.5202
G1 X110.654 Y81.868 E13.53792
G1 X110.856 Y81.766 E13.54921
G1 X111.666 Y81.367 E13.59426
G1 X112.277 Y81.077 E13.628
G1 X112.664 Y80.913 E13.64897
G1 X112.883 Y80.83 E13.66065
G1 X113.05 Y80.77 E13.66951
G1 X114.056 Y80.428 E13.72252
G1 X114.72 Y80.214 E13.75732
G1 X114.928 Y80.151 E13.76817
G1 X115.209 Y80.079 E13.78264
G1 X115.452 Y80.024 E13.79507
G1 X115.581 Y79.997 E13.80164
G1 X116.548 Y79.804 E13.85084
G1 X117.251 Y79.673 E13.88652
G1 X117.692 Y79.61 E13.90874
G1 X117.985 Y79.581 E13.92343
G1 X118.261 Y79.559 E13.93724
G1 X119.186 Y79.5 E13.98349
G1 X119.864 Y79.466 E14.01735
G1 X120.304 Y79.462 E14.03931
G1 X120.677 Y79.476 E14.05793
G1 X120.871 Y79.486 E14.06762
G1 X121.785 Y79.547 E14.11332
G1 X122.459 Y79.601 E14.14705
G1 X122.909 Y79.657 E14.16968
G1 X123.244 Y79.714 E14.18663
G1 X123.538 Y79.77 E14.20156
G1 X124.317 Y79.925 E14.24119
G1 X125.019 Y80.075 E14.277
G1 X125.457 Y80.189 E14.29958
G1 X125.721 Y80.27 E14.31336
G1 X125.861 Y80.315 E14.3207
G1 X126.813 Y80.637 E14.37083
G1 X127.494 Y80.879 E14.40689
G1 X127.918 Y81.051 E14.42972
G1 X128.226 Y81.193 E14.44664
G1 X128.49 Y81.321 E14.46128
G1 X129.197 Y81.669 E14.50059
G1 X129.826 Y81.989 E14.5358
G1 X130.222 Y82.213 E14.5585
G1 X130.54 Y82.413 E14.57724
G1 X130.684 Y82.507 E14.58582
G1 X131.432 Y83.008 E14.63073
G1 X132.03 Y83.42 E14.66696
G1 X132.384 Y83.686 E14.68906
G1 X132.587 Y83.853 E14.70217
G1 X132.71 Y83.958 E14.71024
G1 X133.487 Y84.64 E14.76182
G1 X133.99 Y85.094 E14.79562
G1 X134.303 Y85.401 E14.8175
G1 X134.556 Y85.673 E14.83603
G1 X134.735 Y85.874 E14.84946
G1 X135.292 Y86.51 E14.89163
G1 X135.718 Y87.01 E14.92441
G1 X135.844 Y87.163 E14.93429
G1 X136.014 Y87.386 E14.94828
G1 X136.224 Y87.68 E14.96631
G1 X136.353 Y87.869 E14.97773
G1 X136.824 Y88.576 E15.02011
G1 X137.209 Y89.171 E15.05547
G1 X137.419 Y89.526 E15.07604
G1 X137.555 Y89.778 E15.09033
G1 X137.639 Y89.94 E15.09943
G1 X138.109 Y90.891 E15.15236
G1 X138.387 Y91.477 E15.18472
G1 X138.484 Y91.693 E15.19653
G1 X138.566 Y91.897 E15.2075
G1 X138.686 Y92.217 E15.22455
G1 X138.781 Y92.488 E15.23888
G1 X139.051 Y93.286 E15.28091
G1 X139.262 Y93.937 E15.31505
G1 X139.306 Y94.079 E15.32246
G1 X139.59 Y95.049 E15.37289
G1 X140.384 Y97.623 E15.50728
G1 X141.242 Y100.15 E15.64042
G1 X142.191 Y102.703 E15.7763
G1 X143.187 Y105.17 E15.90903
G1 X144.247 Y107.594 E16.04103
G1 X145.402 Y110.045 E16.1762
G1 X146.619 Y112.447 E16.31054
G1 X147.889 Y114.79 E16.4435
G1 X149.202 Y117.056 E16.57416
G1 X149.579 Y117.687 E16.61083
G1 X149.875 Y118.26 E16.64301
G1 X150.097 Y118.865 E16.67516
G1 X150.243 Y119.493 E16.70733
G1 X150.313 Y120.195 E16.74252
G1 X150.323 Y120.522 E16.75885
G1 X150.325 Y120.681 E16.76678
G1 X150.325 Y149.687 E18.21389
G1 X150.315 Y150.414 E18.25017
G1 X150.266 Y151.056 E18.28229
G1 X150.138 Y151.688 E18.31446
G1 X149.933 Y152.299 E18.34661
G1 X149.653 Y152.88 E18.37879
G1 X149.304 Y153.422 E18.41095
G1 X148.891 Y153.917 E18.44312
G1 X148.42 Y154.357 E18.47527
G1 X147.897 Y154.735 E18.50747
G1 X147.332 Y155.045 E18.53962
G1 X146.733 Y155.284 E18.57179
G1 X146.11 Y155.446 E18.60391
G1 X145.261 Y155.54 E18.64652
G1 X144.941 Y155.549 E18.6625
G1 X144.795 Y155.551 E18.66978
G1 X117.585 Y155.552 E20.02729
G1 X117.512 Y155.555 E20.03094
G1 X117.112 Y155.554 E20.05089
G1 X117.066 Y155.551 E20.05319
G1 X98.248 Y155.55 E20.99203
G1 X97.483 Y155.539 E21.0302
G1 X97.217 Y155.529 E21.04348
G1 X97.004 Y155.515 E21.05413
G1 X96.498 Y155.456 E21.07954
G1 X96.274 Y155.419 E21.09087
G1 X96.012 Y155.369 E21.10418
G1 X95.925 Y155.35 E21.10862
G1 X95.592 Y155.266 E21.12575
G1 X95.398 Y155.21 E21.13583
G1 X95.042 Y155.093 E21.15452
G1 X94.966 Y155.065 E21.15856
G1 X94.511 Y154.872 E21.18322
G1 X94.068 Y154.659 E21.20774
G1 X93.413 Y154.284 E21.2454
G1 X93.247 Y154.172 E21.25539
G1 X92.854 Y153.879 E21.27985
G1 X92.658 Y153.718 E21.2925
G1 X92.282 Y153.377 E21.31782
G1 X92.093 Y153.188 E21.33116
G1 X91.73 Y152.784 E21.35826
G1 X91.555 Y152.568 E21.37213
G1 X91.185 Y152.051 E21.40384
G1 X91.055 Y151.843 E21.41608
G1 X90.839 Y151.462 E21.43793
G1 X90.723 Y151.236 E21.4506
G1 X90.497 Y150.732 E21.47816
G1 X90.401 Y150.483 E21.49148
G1 X90.221 Y149.921 E21.52092
G1 X90.157 Y149.675 E21.5336
G1 X90.053 Y149.179 E21.55888
G1 X90.012 Y148.92 E21.57196
G1 X89.965 Y148.522 E21.59196
G1 X89.946 Y148.247 E21.60571
G1 X89.935 Y147.981 E21.61899
G1 X89.931 Y147.827 E21.62668
G1 X89.925 Y147.319 E21.65203
G1 X89.925 Y135.985 E22.21748
G1 X89.887 Y133.31 E22.35095
G1 X89.774 Y130.636 E22.48448
G1 X89.584 Y127.962 E22.61822
G1 X89.317 Y125.27 E22.75318
G1 X88.978 Y122.622 E22.88637
G1 X88.56 Y119.958 E23.0209
G1 X88.078 Y117.367 E23.15239
G1 X87.497 Y114.668 E23.29012
G1 X86.868 Y112.111 E23.4215
G1 X86.156 Y109.52 E23.55555
G1 X85.22 Y106.49 E23.71377
G1 X85.125 Y106.2 E23.72899
G1 X85.025 Y105.854 E23.74696
G1 X84.93 Y105.477 E23.76636
G1 X84.864 Y105.181 E23.78149
G1 X84.835 Y105.029 E23.78921
G1 X84.795 Y104.786 E23.8015
G1 X84.765 Y104.575 E23.81213
G1 X84.735 Y104.321 E23.82489
G1 X84.716 Y104.115 E23.83521
G1 X84.696 Y103.789 E23.85151
G1 X84.686 Y103.448 E23.86852
G1 X84.69 Y103.053 E23.88823
G1 X84.707 Y102.776 E23.90208
G1 X84.753 Y102.254 E23.92822
G1 X84.859 Y101.573 E23.96261
G1 X84.982 Y101.024 E23.99067
G1 X85.181 Y100.352 E24.02564
G1 X85.391 Y99.786 E24.05576
G1 X85.664 Y99.174 E24.08919
G1 X85.846 Y98.828 E24.1087
G1 X86.09 Y98.413 E24.13271
G1 X86.267 Y98.141 E24.1489
G1 X86.395 Y97.953 E24.16025
G1 X86.563 Y97.718 E24.17466
G1 X86.859 Y97.341 E24.19858
G1 X87.114 Y97.046 E24.21803
G1 X87.25 Y96.895 E24.22817
G1 X87.349 Y96.79 E24.23537
G0 F810 X87.394 Y96.741
G0 X87.727 Y96.416
G1 F1500 E17.73537
G1 F300 Z0.65
G0 F6000 X140.784 Y123.351 Z0.65
G1 F300 Z0.3
G1 F1500 E24.23537
G1 F900 X142.125 Y123.351 E24.30227
G1 X142.125 Y124.696 E24.36937
G1 X142.084 Y124.634 E24.37308
G1 X141.83 Y124.305 E24.39382
G1 X141.576 Y124.019 E24.4129
G1 X141.147 Y123.621 E24.4421
G1 X140.978 Y123.492 E24.4527
G0 F810 X140.865 Y123.407
G0 X140.784 Y123.351
G0 F6000 X140.623 Y123.726
G1 F900 X140.426 Y123.59 E24.46465
G1 X140.198 Y123.448 E24.47805
G1 X139.903 Y123.29 E24.49474
G1 X139.673 Y123.185 E24.50736
G1 X139.559 Y123.136 E24.51355
G1 X139.264 Y123.018 E24.5294
G1 X139.021 Y122.951 E24.54198
G1 X142.525 Y122.951 E24.71679
G1 X142.525 Y126.437 E24.89071
G1 X142.372 Y125.986 E24.91447
G1 X142.323 Y125.878 E24.92038
G1 X142.258 Y125.716 E24.92909
G1 X142.01 Y125.245 E24.95565
G1 X141.751 Y124.856 E24.97897
G1 X141.531 Y124.57 E24.99697
G1 X141.277 Y124.284 E25.01605
G1 X141.035 Y124.061 E25.03247
G0 F810 X140.905 Y123.94
G0 X140.623 Y123.726
G0 F6000 X140.381 Y124.044
G1 F900 X140.214 Y123.93 E25.04256
G1 X139.986 Y123.788 E25.05596
G1 X139.737 Y123.654 E25.07006
G1 X139.507 Y123.549 E25.08268
G1 X139.41 Y123.507 E25.08795
G1 X139.115 Y123.389 E25.1038
G1 X138.647 Y123.26 E25.12802
G1 X138.192 Y123.187 E25.15101
G1 X137.924 Y123.161 E25.16445
G1 X137.627 Y123.151 E25.17927
G1 X125.342 Y123.152 E25.79217
G1 X125.247 Y123.096 E25.79767
G1 X124.88 Y122.939 E25.81759
G1 X124.481 Y122.812 E25.83848
G1 X124.065 Y122.763 E25.85938
G1 X123.517 Y122.819 E25.88686
G1 X121.464 Y123.296 E25.99201
G1 X121.253 Y123.356 E26.00296
G1 X120.965 Y123.454 E26.01813
G1 X120.69 Y123.569 E26.03301
G1 X120.568 Y123.63 E26.03981
G1 X120.38 Y123.719 E26.05019
G1 X119.982 Y123.961 E26.07343
G1 X119.701 Y124.176 E26.09108
G1 X119.638 Y124.228 E26.09515
G1 X119.607 Y124.078 E26.1028
G1 X119.518 Y123.765 E26.11903
