;FLAVOR:Marlin
;TIME:354
;Filament used: 0.176112m
;Layer height: 0.2
;MINX:106.114
;MINY:90.114
;MINZ:0.3
;MAXX:128.886
;MAXY:128.886
;MAXZ:4.65
;Generated with Cura_SteamEngine 4.7.0
M140 S60
M105
M190 S60
M104 S205
M105
M109 S205
M82 ;absolute extrusion mode
M201 X500.00 Y500.00 Z100.00 E5000.00 ;Setup machine max acceleration
M203 X500.00 Y500.00 Z10.00 E75.00 ;Setup machine max feedrate
M204 P500.00 R1000.00 T500.00 ;Setup Print/Retract/Travel acceleration
M205 X8.00 Y8.00 Z0.40 E5.00 ;Setup Jerk
M220 S100 ;Reset Feedrate
M221 S100 ;Reset Flowrate

G21 ; (metric values)
G90 ; (absolute positioning)
M82 ; (set extruder to absolute mode)
G28 ; (home all axis)
G29 ; (Auto Level)

G92 E0 ;Reset Extruder
G1 Z2.0 F3000 ;Move Z Axis up
G1 X1.1 Y50 Z0.28 F5000.0 ;Move to start position
G1 X1.1 Y200.0 Z0.28 F1500.0 E15 ;Draw the first line
G1 X1.4 Y200.0 Z0.28 F5000.0 ;Move to side a little
G1 X1.4 Y100 Z0.28 F1500.0 E30 ;Draw the second line
G92 E0 ;Reset Extruder
G1 Z2.0 F3000 ;Move Z Axis up
G92 E0
G92 E0
G1 F1500 E-6.5
;LAYER_COUNT:21
;LAYER:0
M107
G1 F300 Z0.65
G0 F6000 X108.747 Y94.216 Z0.65
;TYPE:SKIRT
G1 F300 Z0.3
G1 F1500 E0
G1 F900 X108.939 Y93.994 E0.01464
G1 X109.227 Y93.676 E0.03605
G1 X109.591 Y93.306 E0.06194
G1 X109.738 Y93.168 E0.072
G1 X109.971 Y92.959 E0.08762
G1 X110.319 Y92.663 E0.11041
G1 X110.739 Y92.335 E0.137
G1 X110.887 Y92.229 E0.14608
G1 X111.131 Y92.063 E0.1608
G1 X111.521 Y91.81 E0.18399
G1 X112.015 Y91.52 E0.21257
G1 X112.193 Y91.426 E0.22262
G1 X112.439 Y91.303 E0.23634
G1 X112.85 Y91.108 E0.25903
G1 X113.343 Y90.899 E0.28575
G1 X113.548 Y90.822 E0.29667
G1 X113.819 Y90.727 E0.311
G1 X114.228 Y90.594 E0.33246
G1 X114.743 Y90.45 E0.35914
G1 X114.926 Y90.407 E0.36851
G1 X115.237 Y90.342 E0.38437
G1 X115.701 Y90.257 E0.4079
G1 X116.23 Y90.182 E0.43456
G1 X116.424 Y90.163 E0.44428
G1 X116.724 Y90.141 E0.45929
G1 X117.178 Y90.118 E0.48197
G1 X117.726 Y90.114 E0.50931
G1 X117.926 Y90.121 E0.51929
G1 X118.209 Y90.137 E0.53343
G1 X118.662 Y90.173 E0.55611
G1 X119.202 Y90.239 E0.58325
G1 X119.395 Y90.271 E0.59301
G1 X119.683 Y90.326 E0.60763
G1 X120.133 Y90.422 E0.63059
G1 X120.682 Y90.565 E0.65889
G1 X120.867 Y90.622 E0.66855
G1 X121.147 Y90.715 E0.68327
G1 X121.584 Y90.872 E0.70644
G1 X122.1 Y91.083 E0.73425
G1 X122.293 Y91.172 E0.74485
G1 X122.506 Y91.275 E0.75666
G1 X122.873 Y91.461 E0.77718
G1 X123.319 Y91.71 E0.80267
G1 X123.494 Y91.817 E0.8129
G1 X123.788 Y92.008 E0.83039
G1 X124.168 Y92.27 E0.85342
G1 X124.591 Y92.588 E0.87982
G1 X124.757 Y92.724 E0.89053
G1 X124.988 Y92.923 E0.90574
G1 X125.315 Y93.218 E0.92771
G1 X125.709 Y93.605 E0.95527
G1 X125.847 Y93.753 E0.96536
G1 X126.041 Y93.971 E0.97992
G1 X126.337 Y94.319 E1.00271
G1 X126.665 Y94.739 E1.0293
G1 X126.771 Y94.887 E1.03838
G1 X126.938 Y95.132 E1.05317
G1 X127.187 Y95.516 E1.07601
G1 X127.466 Y95.989 E1.1034
G1 X127.564 Y96.173 E1.1138
G1 X127.695 Y96.435 E1.12842
G1 X127.887 Y96.839 E1.15074
G1 X128.095 Y97.326 E1.17715
G1 X128.172 Y97.53 E1.18803
G1 X128.27 Y97.811 E1.20288
G1 X128.404 Y98.223 E1.2245
G1 X128.542 Y98.712 E1.24984
G1 X128.587 Y98.9 E1.25949
G1 X128.657 Y99.232 E1.27642
G1 X128.742 Y99.694 E1.29985
G1 X128.818 Y100.234 E1.32706
G1 X128.837 Y100.43 E1.33688
G1 X128.859 Y100.721 E1.35144
G1 X128.882 Y101.171 E1.37392
G1 X128.886 Y101.713 E1.40096
G1 X128.872 Y102.093 E1.41993
G1 X128.857 Y102.356 E1.43308
G1 X128.708 Y104.601 E1.54533
G1 X128.608 Y107.271 E1.67863
G1 X128.583 Y109.918 E1.81069
G1 X128.632 Y112.532 E1.94113
G1 X128.881 Y117.154 E2.17206
G1 X128.886 Y117.72 E2.20029
G1 X128.879 Y117.923 E2.21043
G1 X128.863 Y118.212 E2.22487
G1 X128.827 Y118.662 E2.24739
G1 X128.763 Y119.183 E2.27358
G1 X128.731 Y119.379 E2.28349
G1 X128.676 Y119.672 E2.29836
G1 X128.584 Y120.107 E2.32054
G1 X128.445 Y120.65 E2.34851
G1 X128.384 Y120.85 E2.35894
G1 X128.289 Y121.137 E2.37402
G1 X128.136 Y121.565 E2.3967
G1 X127.922 Y122.087 E2.42484
G1 X127.829 Y122.289 E2.43594
G1 X127.722 Y122.511 E2.44823
G1 X127.528 Y122.893 E2.46961
G1 X127.271 Y123.351 E2.49581
G1 X127.178 Y123.502 E2.50466
G1 X126.999 Y123.777 E2.52103
G1 X126.731 Y124.166 E2.54459
G1 X126.413 Y124.589 E2.571
G1 X126.282 Y124.749 E2.58131
G1 X126.085 Y124.979 E2.59642
G1 X125.785 Y125.312 E2.61878
G1 X125.407 Y125.697 E2.6457
G1 X125.263 Y125.832 E2.65555
G1 X125.029 Y126.041 E2.6712
G1 X124.677 Y126.34 E2.69424
G1 X124.261 Y126.665 E2.72058
G1 X124.113 Y126.771 E2.72966
G1 X123.869 Y126.937 E2.74439
G1 X123.479 Y127.19 E2.76758
G1 X122.985 Y127.48 E2.79616
G1 X122.807 Y127.574 E2.8062
G1 X122.561 Y127.697 E2.81992
G1 X122.15 Y127.892 E2.84262
G1 X121.657 Y128.101 E2.86933
G1 X121.452 Y128.178 E2.88026
G1 X121.181 Y128.273 E2.89458
G1 X120.775 Y128.405 E2.91588
G1 X120.269 Y128.547 E2.9421
G1 X120.083 Y128.591 E2.95164
G1 X119.763 Y128.658 E2.96795
G1 X119.299 Y128.743 E2.99148
G1 X118.77 Y128.818 E3.01814
G1 X118.576 Y128.837 E3.02786
G1 X118.277 Y128.859 E3.04282
G1 X117.824 Y128.882 E3.06545
G1 X117.276 Y128.886 E3.09279
G1 X117.075 Y128.879 E3.10283
G1 X116.79 Y128.863 E3.11707
G1 X116.338 Y128.827 E3.13969
G1 X115.804 Y128.762 E3.16653
G1 X115.61 Y128.73 E3.17634
G1 X115.317 Y128.674 E3.19122
G1 X114.867 Y128.578 E3.21417
G1 X114.318 Y128.435 E3.24248
G1 X114.133 Y128.378 E3.25214
G1 X113.871 Y128.291 E3.26591
G1 X113.458 Y128.144 E3.28778
G1 X112.946 Y127.937 E3.31533
G1 X112.727 Y127.837 E3.32734
G1 X112.485 Y127.721 E3.34073
G1 X112.119 Y127.535 E3.36121
G1 X111.665 Y127.28 E3.38719
G1 X111.483 Y127.168 E3.39785
G1 X111.203 Y126.985 E3.41454
G1 X110.829 Y126.727 E3.43721
G1 X110.414 Y126.415 E3.46311
G1 X110.25 Y126.281 E3.47368
G1 X110.012 Y126.077 E3.48932
G1 X109.685 Y125.782 E3.51129
G1 X109.291 Y125.395 E3.53884
G1 X109.153 Y125.247 E3.54894
G1 X108.956 Y125.025 E3.56375
G1 X108.657 Y124.673 E3.58679
G1 X108.33 Y124.253 E3.61334
G1 X108.227 Y124.109 E3.62218
G1 X108.059 Y123.863 E3.63704
G1 X107.804 Y123.469 E3.66045
G1 X107.519 Y122.983 E3.68856
G1 X107.427 Y122.809 E3.69838
G1 X107.301 Y122.557 E3.71244
G1 X107.104 Y122.141 E3.7354
G1 X106.895 Y121.649 E3.76207
G1 X106.82 Y121.449 E3.77273
G1 X106.727 Y121.181 E3.78688
G1 X106.594 Y120.772 E3.80834
G1 X106.45 Y120.257 E3.83501
G1 X106.407 Y120.074 E3.84439
G1 X106.343 Y119.768 E3.85999
G1 X106.258 Y119.306 E3.88343
G1 X106.182 Y118.766 E3.91063
G1 X106.163 Y118.57 E3.92046
G1 X106.141 Y118.277 E3.93512
G1 X106.118 Y117.825 E3.9577
G1 X106.114 Y117.283 E3.98474
G1 X106.128 Y116.907 E4.00351
G1 X106.143 Y116.644 E4.01665
G1 X106.292 Y114.399 E4.1289
G1 X106.392 Y111.729 E4.2622
G1 X106.417 Y109.058 E4.39546
G1 X106.368 Y106.467 E4.52475
G1 X106.119 Y101.843 E4.75578
G1 X106.114 Y101.284 E4.78367
G1 X106.121 Y101.076 E4.79405
G1 X106.138 Y100.775 E4.80909
G1 X106.174 Y100.33 E4.83137
G1 X106.238 Y99.804 E4.8578
G1 X106.27 Y99.61 E4.86761
G1 X106.33 Y99.296 E4.88356
G1 X106.428 Y98.844 E4.90663
G1 X106.557 Y98.349 E4.93215
G1 X106.612 Y98.167 E4.94164
G1 X106.712 Y97.863 E4.95761
G1 X106.864 Y97.438 E4.98013
G1 X107.063 Y96.947 E5.00656
G1 X107.157 Y96.74 E5.0179
G1 X107.278 Y96.486 E5.03194
G1 X107.464 Y96.12 E5.05242
G1 X107.709 Y95.683 E5.07741
G1 X107.819 Y95.503 E5.08794
G1 X108.019 Y95.196 E5.10622
G1 X108.285 Y94.812 E5.12952
G1 X108.419 Y94.634 E5.14064
G0 F810 X108.61 Y94.382
G0 X108.747 Y94.216
G0 F6000 X109.055 Y94.471
G1 F900 X109.236 Y94.262 E5.15443
G1 X109.524 Y93.944 E5.17584
G1 X109.864 Y93.598 E5.20004
G1 X110.011 Y93.46 E5.2101
G1 X110.231 Y93.264 E5.2248
G1 X110.579 Y92.968 E5.24759
G1 X110.972 Y92.66 E5.2725
G1 X111.12 Y92.554 E5.28158
G1 X111.349 Y92.398 E5.29541
G1 X111.739 Y92.145 E5.3186
G1 X112.202 Y91.873 E5.34539
G1 X112.38 Y91.779 E5.35543
G1 X112.61 Y91.664 E5.36826
G1 X113.021 Y91.469 E5.39096
G1 X113.483 Y91.273 E5.41599
G1 X113.688 Y91.196 E5.42692
G1 X113.943 Y91.107 E5.44039
G1 X114.352 Y90.974 E5.46185
G1 X114.835 Y90.839 E5.48687
G1 X115.018 Y90.796 E5.49625
G1 X115.309 Y90.735 E5.51108
G1 X115.773 Y90.65 E5.53462
G1 X116.269 Y90.581 E5.5596
G1 X116.463 Y90.562 E5.56933
G1 X116.744 Y90.541 E5.58338
G1 X117.198 Y90.518 E5.60606
G1 X117.712 Y90.514 E5.63171
G1 X117.912 Y90.521 E5.64169
G1 X118.177 Y90.536 E5.65493
G1 X118.63 Y90.572 E5.67761
G1 X119.136 Y90.634 E5.70304
G1 X119.329 Y90.666 E5.7128
G1 X119.6 Y90.717 E5.72656
G1 X120.05 Y90.813 E5.74951
G1 X120.565 Y90.947 E5.77606
G1 X120.75 Y91.004 E5.78572
G1 X121.012 Y91.091 E5.79949
G1 X121.449 Y91.248 E5.82266
G1 X121.933 Y91.446 E5.84875
G1 X122.126 Y91.535 E5.85935
G1 X122.325 Y91.632 E5.8704
G1 X122.692 Y91.818 E5.89092
G1 X123.11 Y92.051 E5.9148
G1 X123.285 Y92.158 E5.92503
G1 X123.561 Y92.337 E5.94144
G1 X123.941 Y92.599 E5.96447
G1 X124.337 Y92.898 E5.98923
G1 X124.503 Y93.034 E5.99993
G1 X124.72 Y93.22 E6.01419
G1 X125.047 Y93.515 E6.03616
G1 X125.416 Y93.878 E6.06199
G1 X125.554 Y94.026 E6.07208
G1 X125.736 Y94.231 E6.08576
G1 X126.032 Y94.579 E6.10855
G1 X126.34 Y94.972 E6.13346
G1 X126.446 Y95.12 E6.14255
G1 X126.602 Y95.35 E6.15641
G1 X126.851 Y95.734 E6.17924
G1 X127.113 Y96.177 E6.20492
G1 X127.211 Y96.361 E6.21532
G1 X127.334 Y96.607 E6.22904
G1 X127.526 Y97.011 E6.25136
G1 X127.72 Y97.467 E6.27608
G1 X127.797 Y97.671 E6.28696
G1 X127.89 Y97.934 E6.30088
G1 X128.024 Y98.346 E6.32249
G1 X128.153 Y98.805 E6.34628
G1 X128.198 Y98.993 E6.35593
G1 X128.264 Y99.304 E6.37179
G1 X128.349 Y99.766 E6.39522
G1 X128.42 Y100.273 E6.42076
G1 X128.439 Y100.469 E6.43059
G1 X128.459 Y100.742 E6.44424
G1 X128.482 Y101.192 E6.46672
G1 X128.487 Y101.7 E6.49207
G1 X128.473 Y102.071 E6.51059
G1 X128.458 Y102.33 E6.52354
G1 X128.308 Y104.595 E6.63678
G1 X128.208 Y107.252 E6.76944
G1 X128.183 Y109.922 E6.90265
G1 X128.232 Y112.561 E7.03433
G1 X128.481 Y117.176 E7.26491
G1 X128.486 Y117.706 E7.29135
G1 X128.479 Y117.909 E7.30149
G1 X128.464 Y118.18 E7.31503
G1 X128.428 Y118.63 E7.33755
G1 X128.369 Y119.119 E7.36212
G1 X128.337 Y119.315 E7.37203
G1 X128.285 Y119.59 E7.38599
G1 X128.193 Y120.025 E7.40818
G1 X128.062 Y120.533 E7.43435
G1 X128.001 Y120.733 E7.44478
G1 X127.912 Y121.003 E7.45897
G1 X127.759 Y121.431 E7.48164
G1 X127.559 Y121.92 E7.508
G1 X127.466 Y122.122 E7.51909
G1 X127.366 Y122.33 E7.53061
G1 X127.172 Y122.712 E7.55198
G1 X126.931 Y123.141 E7.57653
G1 X126.838 Y123.292 E7.58538
G1 X126.67 Y123.55 E7.60074
G1 X126.402 Y123.939 E7.62431
G1 X126.103 Y124.336 E7.6491
G1 X125.972 Y124.496 E7.65942
G1 X125.788 Y124.711 E7.67354
G1 X125.488 Y125.044 E7.6959
G1 X125.134 Y125.405 E7.72112
G1 X124.99 Y125.54 E7.73097
G1 X124.77 Y125.736 E7.74567
G1 X124.418 Y126.035 E7.76871
G1 X124.028 Y126.34 E7.79341
G1 X123.88 Y126.446 E7.8025
G1 X123.651 Y126.602 E7.81632
G1 X123.261 Y126.855 E7.83951
G1 X122.798 Y127.127 E7.8663
G1 X122.62 Y127.221 E7.87635
G1 X122.39 Y127.336 E7.88917
G1 X121.979 Y127.531 E7.91187
G1 X121.517 Y127.727 E7.93691
G1 X121.312 Y127.804 E7.94783
G1 X121.057 Y127.893 E7.96131
G1 X120.651 Y128.025 E7.98261
G1 X120.177 Y128.158 E8.00717
G1 X119.991 Y128.202 E8.0167
G1 X119.691 Y128.265 E8.032
G1 X119.227 Y128.35 E8.05553
G1 X118.731 Y128.419 E8.08052
G1 X118.537 Y128.438 E8.09024
G1 X118.256 Y128.459 E8.1043
G1 X117.803 Y128.482 E8.12693
G1 X117.29 Y128.486 E8.15252
G1 X117.089 Y128.479 E8.16256
G1 X116.822 Y128.464 E8.1759
G1 X116.37 Y128.428 E8.19852
G1 X115.87 Y128.367 E8.22365
G1 X115.676 Y128.335 E8.23346
G1 X115.4 Y128.283 E8.24747
G1 X114.95 Y128.187 E8.27043
G1 X114.435 Y128.053 E8.29698
G1 X114.25 Y127.996 E8.30663
G1 X114.005 Y127.915 E8.31951
G1 X113.592 Y127.768 E8.34138
G1 X113.112 Y127.573 E8.36723
G1 X112.893 Y127.473 E8.37924
G1 X112.667 Y127.364 E8.39176
G1 X112.301 Y127.178 E8.41224
G1 X111.874 Y126.939 E8.43665
G1 X111.692 Y126.827 E8.44731
G1 X111.43 Y126.656 E8.46292
G1 X111.056 Y126.398 E8.48559
G1 X110.667 Y126.105 E8.50989
G1 X110.503 Y125.971 E8.52045
G1 X110.28 Y125.78 E8.5351
G1 X109.953 Y125.485 E8.55707
G1 X109.584 Y125.122 E8.5829
G1 X109.446 Y124.974 E8.59299
G1 X109.261 Y124.766 E8.60688
G1 X108.962 Y124.414 E8.62992
G1 X108.655 Y124.021 E8.6548
G1 X108.552 Y123.877 E8.66363
G1 X108.395 Y123.646 E8.67757
G1 X108.14 Y123.252 E8.70098
G1 X107.873 Y122.797 E8.7273
G1 X107.781 Y122.623 E8.73712
G1 X107.662 Y122.386 E8.75035
G1 X107.465 Y121.97 E8.77332
G1 X107.27 Y121.509 E8.79829
G1 X107.195 Y121.309 E8.80895
G1 X107.107 Y121.057 E8.82226
G1 X106.974 Y120.648 E8.84372
G1 X106.839 Y120.165 E8.86874
G1 X106.796 Y119.982 E8.87812
G1 X106.736 Y119.696 E8.8927
G1 X106.651 Y119.234 E8.91613
G1 X106.58 Y118.727 E8.94168
G1 X106.561 Y118.531 E8.9515
G1 X106.541 Y118.257 E8.96521
G1 X106.518 Y117.805 E8.98779
G1 X106.513 Y117.297 E9.01313
G1 X106.527 Y116.929 E9.0315
G1 X106.542 Y116.67 E9.04445
G1 X106.692 Y114.405 E9.1577
G1 X106.792 Y111.748 E9.29035
G1 X106.817 Y109.058 E9.42456
G1 X106.768 Y106.439 E9.55524
G1 X106.519 Y101.822 E9.78592
G1 X106.513 Y101.297 E9.81212
G1 X106.52 Y101.089 E9.8225
G1 X106.537 Y100.807 E9.83659
G1 X106.573 Y100.362 E9.85887
G1 X106.633 Y99.87 E9.8836
G1 X106.665 Y99.676 E9.8934
G1 X106.721 Y99.381 E9.90839
G1 X106.819 Y98.929 E9.93146
G1 X106.94 Y98.464 E9.95543
G1 X106.995 Y98.282 E9.96492
G1 X107.088 Y97.997 E9.97987
G1 X107.24 Y97.572 E10.00239
G1 X107.427 Y97.112 E10.02716
G1 X107.521 Y96.905 E10.03851
G1 X107.635 Y96.668 E10.05163
G1 X107.821 Y96.302 E10.07211
G1 X108.05 Y95.891 E10.09558
G1 X108.16 Y95.711 E10.10611
G1 X108.348 Y95.423 E10.12327
G1 X108.614 Y95.039 E10.14657
G1 X108.727 Y94.889 E10.15594
G0 F810 X108.918 Y94.637
G0 X109.055 Y94.471
G0 F6000 X109.364 Y94.725
G1 F900 X109.532 Y94.531 E10.16874
G1 X109.82 Y94.213 E10.19015
G1 X110.138 Y93.889 E10.2128
G1 X110.285 Y93.751 E10.22286
G1 X110.49 Y93.568 E10.23657
G1 X110.838 Y93.272 E10.25936
G1 X111.205 Y92.985 E10.2826
G1 X111.353 Y92.879 E10.29169
G1 X111.566 Y92.734 E10.30454
G1 X111.956 Y92.481 E10.32773
G1 X112.389 Y92.227 E10.35278
G1 X112.567 Y92.133 E10.36282
G1 X112.782 Y92.026 E10.3748
G1 X113.193 Y91.831 E10.3975
G1 X113.624 Y91.648 E10.42086
G1 X113.829 Y91.571 E10.43178
G1 X114.066 Y91.487 E10.44433
G1 X114.475 Y91.354 E10.46579
G1 X114.926 Y91.228 E10.48915
G1 X115.109 Y91.185 E10.49853
G1 X115.381 Y91.129 E10.51238
G1 X115.845 Y91.044 E10.53592
G1 X116.308 Y90.979 E10.55924
G1 X116.502 Y90.96 E10.56897
G1 X116.765 Y90.94 E10.58213
G1 X117.219 Y90.917 E10.6048
G1 X117.698 Y90.913 E10.6287
G1 X117.898 Y90.92 E10.63869
G1 X118.146 Y90.935 E10.65108
G1 X118.599 Y90.971 E10.67375
G1 X119.071 Y91.028 E10.69747
G1 X119.264 Y91.06 E10.70723
G1 X119.516 Y91.108 E10.72003
G1 X119.966 Y91.204 E10.74299
G1 X120.447 Y91.329 E10.76778
G1 X120.632 Y91.386 E10.77744
G1 X120.876 Y91.468 E10.79028
G1 X121.313 Y91.625 E10.81345
G1 X121.765 Y91.81 E10.83781
G1 X121.958 Y91.899 E10.84842
G1 X122.145 Y91.989 E10.85877
G1 X122.512 Y92.175 E10.8793
G1 X122.901 Y92.392 E10.90152
G1 X123.076 Y92.499 E10.91175
G1 X123.334 Y92.667 E10.92711
G1 X123.714 Y92.929 E10.95014
G1 X124.084 Y93.207 E10.97323
G1 X124.25 Y93.343 E10.98394
G1 X124.452 Y93.517 E10.99724
G1 X124.779 Y93.812 E11.01921
G1 X125.124 Y94.151 E11.04334
G1 X125.262 Y94.299 E11.05344
G1 X125.432 Y94.49 E11.06619
G1 X125.728 Y94.838 E11.08899
G1 X126.015 Y95.205 E11.11223
G1 X126.121 Y95.353 E11.12131
G1 X126.267 Y95.567 E11.13424
G1 X126.516 Y95.951 E11.15707
G1 X126.76 Y96.365 E11.18104
G1 X126.858 Y96.549 E11.19145
G1 X126.973 Y96.778 E11.20423
G1 X127.165 Y97.182 E11.22655
G1 X127.346 Y97.608 E11.24964
G1 X127.423 Y97.812 E11.26052
G1 X127.509 Y98.058 E11.27352
G1 X127.643 Y98.47 E11.29513
G1 X127.764 Y98.898 E11.31732
G1 X127.809 Y99.086 E11.32697
G1 X127.871 Y99.377 E11.34181
