;FLAVOR:Marlin
;TIME:2296
;Filament used: 1.38959m
;Layer height: 0.2
;MINX:85.65
;MINY:81.9
;MINZ:0.3
;MAXX:134.35
;MAXY:158.097
;MAXZ:10.25
;Generated with Cura_SteamEngine 4.4.1
M140 S60
M105
M190 S60
M104 S205
M105
M109 S205
M82 ;absolute extrusion mode
M201 X500.00 Y500.00 Z100.00 E5000.00 ;Setup machine max acceleration
M203 X500.00 Y500.00 Z10.00 E75.00 ;Setup machine max feedrate
M204 P500.00 R1000.00 T500.00 ;Setup Print/Retract/Travel acceleration
M205 X8.00 Y8.00 Z0.40 E5.00 ;Setup Jerk
M220 S100 ;Reset Feedrate
M221 S100 ;Reset Flowrate

G21 ; (metric values)
G90 ; (absolute positioning)
M82 ; (set extruder to absolute mode)
G28 ; (home all axis)
G29 ; (Auto Level)

G92 E0 ;Reset Extruder
G1 Z2.0 F3000 ;Move Z Axis up
G1 X1.1 Y50 Z0.28 F5000.0 ;Move to start position
G1 X1.1 Y200.0 Z0.28 F1500.0 E15 ;Draw the first line
G1 X1.4 Y200.0 Z0.28 F5000.0 ;Move to side a little
G1 X1.4 Y100 Z0.28 F1500.0 E30 ;Draw the second line
G92 E0 ;Reset Extruder
G1 Z2.0 F3000 ;Move Z Axis up
G92 E0
G92 E0
G1 F3000 E-6
;LAYER_COUNT:49
;LAYER:0
M107
G1 F300 Z0.65
G0 F6000 X101.021 Y86.856 Z0.65
;TYPE:SKIRT
G1 F300 Z0.3
G1 F3000 E0
G1 F1200 X101.181 Y86.672 E0.01217
G1 X101.403 Y86.432 E0.02848
G1 X101.578 Y86.253 E0.04096
G1 X101.622 Y86.208 E0.0441
G1 X103.809 Y84.021 E0.19841
G1 X103.864 Y83.968 E0.20222
G1 X104.347 Y83.498 E0.23584
G1 X104.853 Y83.06 E0.26923
G1 X105.408 Y82.687 E0.30259
G1 X106.004 Y82.382 E0.33599
G1 X106.631 Y82.151 E0.36933
G1 X107.282 Y81.996 E0.40272
G1 X108.142 Y81.912 E0.44583
G1 X108.702 Y81.901 E0.47377
G1 X108.812 Y81.9 E0.47926
G1 X114.043 Y81.9 E0.74023
G1 X114.123 Y81.901 E0.74423
G1 X114.821 Y81.911 E0.77905
G1 X115.488 Y81.96 E0.81242
G1 X116.145 Y82.089 E0.84582
G1 X116.781 Y82.295 E0.87918
G1 X117.389 Y82.576 E0.91259
G1 X117.958 Y82.926 E0.94592
G1 X118.482 Y83.343 E0.97933
G1 X118.952 Y83.819 E1.0127
G1 X119.362 Y84.347 E1.04606
G1 X119.707 Y84.921 E1.07947
G1 X119.901 Y85.333 E1.10219
G1 X120.202 Y86.045 E1.14075
G1 X121.283 Y88.526 E1.27577
G1 X122.411 Y90.927 E1.40812
G1 X123.622 Y93.328 E1.54228
G1 X124.882 Y95.658 E1.67443
G1 X126.225 Y97.98 E1.80826
G1 X127.629 Y100.257 E1.94171
G1 X129.078 Y102.467 E2.07356
G1 X130.623 Y104.682 E2.20829
G1 X132.195 Y106.807 E2.34016
G1 X132.396 Y107.063 E2.3564
G1 X132.445 Y107.127 E2.36042
G1 X133.194 Y108.11 E2.42208
G1 X133.567 Y108.665 E2.45544
G1 X133.871 Y109.261 E2.48882
G1 X134.102 Y109.889 E2.5222
G1 X134.256 Y110.54 E2.55558
G1 X134.337 Y111.332 E2.5953
G1 X134.347 Y111.658 E2.61157
G1 X134.35 Y111.83 E2.62015
G1 X134.35 Y112.27 E2.6421
G1 X134.349 Y112.35 E2.6461
G1 X134.339 Y113.054 E2.68122
G1 X134.331 Y113.293 E2.69315
G1 X134.173 Y116.06 E2.83142
G1 X134.096 Y118.744 E2.96538
G1 X134.096 Y121.399 E3.09784
G1 X134.171 Y124.078 E3.23155
G1 X134.329 Y126.987 E3.37689
G1 X134.337 Y127.225 E3.38878
G1 X134.343 Y127.732 E3.41407
G1 X134.343 Y127.815 E3.41821
G1 X134.341 Y128.48 E3.45139
G1 X134.299 Y129.148 E3.48478
G1 X134.178 Y129.805 E3.51811
G1 X133.979 Y130.444 E3.5515
G1 X133.705 Y131.055 E3.58491
G1 X133.198 Y131.853 E3.63208
G1 X132.42 Y132.876 E3.6962
G1 X130.769 Y135.094 E3.83414
G1 X129.253 Y137.255 E3.96584
G1 X127.767 Y139.506 E4.10041
G1 X126.374 Y141.752 E4.23226
G1 X125.027 Y144.066 E4.36584
G1 X123.735 Y146.438 E4.5006
G1 X122.542 Y148.787 E4.63204
G1 X121.392 Y151.217 E4.76616
G1 X120.321 Y153.655 E4.89901
G1 X119.905 Y154.639 E4.95231
G1 X119.608 Y155.238 E4.98567
G1 X119.242 Y155.798 E5.01905
G1 X118.811 Y156.31 E5.05244
G1 X118.323 Y156.767 E5.08579
G1 X117.784 Y157.163 E5.11916
G1 X117.201 Y157.492 E5.15256
G1 X116.583 Y157.748 E5.18593
G1 X115.939 Y157.93 E5.21932
G1 X115.278 Y158.033 E5.25269
G1 X114.944 Y158.055 E5.26939
G1 X114.347 Y158.076 E5.29919
G1 X114.169 Y158.079 E5.30808
G1 X108.977 Y158.097 E5.56711
G1 X108.903 Y158.097 E5.5708
G1 X108.195 Y158.09 E5.60612
G1 X107.527 Y158.043 E5.63953
G1 X106.87 Y157.917 E5.67291
G1 X106.233 Y157.714 E5.70626
G1 X105.624 Y157.436 E5.73966
G1 X105.053 Y157.088 E5.77302
G1 X104.343 Y156.502 E5.81895
G1 X103.925 Y156.095 E5.84806
G1 X103.871 Y156.042 E5.85183
G1 X101.77 Y153.94 E6.00011
G1 X101.713 Y153.882 E6.00416
G1 X101.246 Y153.401 E6.03761
G1 X100.81 Y152.894 E6.07097
G1 X100.437 Y152.338 E6.10437
G1 X100.118 Y151.709 E6.13956
G1 X99.579 Y150.453 E6.20775
G1 X98.393 Y147.776 E6.35382
G1 X97.247 Y145.385 E6.48611
G1 X96.023 Y143.006 E6.61958
G1 X94.74 Y140.677 E6.75224
G1 X93.379 Y138.364 E6.88613
G1 X91.958 Y136.099 E7.01953
G1 X90.496 Y133.906 E7.15102
G1 X88.927 Y131.695 E7.28628
G1 X87.365 Y129.616 E7.41602
G1 X86.83 Y128.923 E7.4597
G1 X86.454 Y128.37 E7.49306
G1 X86.146 Y127.776 E7.52644
G1 X85.911 Y127.15 E7.5598
G1 X85.752 Y126.5 E7.59318
G1 X85.663 Y125.62 E7.63731
G1 X85.651 Y125.058 E7.66536
G1 X85.65 Y124.938 E7.67134
G1 X85.65 Y115.207 E8.15682
G1 X85.651 Y115.127 E8.16082
G1 X85.661 Y114.429 E8.19564
G1 X85.71 Y113.762 E8.22901
G1 X85.839 Y113.105 E8.26241
G1 X86.045 Y112.469 E8.29577
G1 X86.326 Y111.861 E8.32918
G1 X86.804 Y111.117 E8.3733
G1 X88.634 Y108.712 E8.52407
G1 X90.205 Y106.522 E8.65854
G1 X91.687 Y104.328 E8.79063
G1 X93.118 Y102.072 E8.92391
G1 X94.506 Y99.742 E9.05922
G1 X95.782 Y97.456 E9.18983
G1 X97.024 Y95.074 E9.32386
G1 X98.184 Y92.686 E9.45631
G1 X99.29 Y90.238 E9.59032
G1 X99.825 Y88.958 E9.65954
G1 X99.856 Y88.887 E9.6634
G1 X100.111 Y88.3 E9.69533
G1 X100.413 Y87.703 E9.72871
G1 X100.698 Y87.278 E9.75424
G0 F1080 X100.785 Y87.147
G0 X101.021 Y86.856
G0 F6000 X101.323 Y87.119
G1 F1200 X101.483 Y86.935 E9.7664
G1 X101.689 Y86.712 E9.78155
G1 X101.864 Y86.533 E9.79404
G1 X101.905 Y86.491 E9.79697
G1 X104.092 Y84.304 E9.95127
G1 X104.143 Y84.254 E9.95484
G1 X104.626 Y83.784 E9.98846
G1 X105.115 Y83.364 E10.02062
G1 X105.652 Y83.008 E10.05276
G1 X106.229 Y82.721 E10.08491
G1 X106.837 Y82.507 E10.11707
G1 X107.467 Y82.371 E10.14923
G1 X108.15 Y82.312 E10.18343
G1 X108.71 Y82.301 E10.21137
G1 X108.812 Y82.3 E10.21646
G1 X114.043 Y82.3 E10.47744
G1 X114.117 Y82.301 E10.48113
G1 X114.815 Y82.311 E10.51596
G1 X115.458 Y82.36 E10.54813
G1 X116.09 Y82.488 E10.5803
G1 X116.701 Y82.694 E10.61247
G1 X117.282 Y82.973 E10.64462
G1 X117.824 Y83.322 E10.67678
G1 X118.318 Y83.736 E10.70894
G1 X118.758 Y84.208 E10.74113
G1 X119.136 Y84.73 E10.77329
G1 X119.532 Y85.489 E10.816
G1 X119.813 Y86.156 E10.85211
G1 X120.912 Y88.677 E10.98931
G1 X122.05 Y91.098 E11.12277
G1 X123.271 Y93.519 E11.25805
G1 X124.526 Y95.842 E11.38978
G1 X125.881 Y98.185 E11.52481
G1 X127.287 Y100.464 E11.65841
G1 X128.759 Y102.709 E11.79234
G1 X130.294 Y104.909 E11.92617
G1 X131.887 Y107.063 E12.05983
G1 X132.081 Y107.31 E12.0755
G1 X132.127 Y107.369 E12.07923
G1 X132.876 Y108.352 E12.14089
G1 X133.234 Y108.888 E12.17305
G1 X133.523 Y109.465 E12.20524
G1 X133.739 Y110.072 E12.23739
G1 X133.878 Y110.702 E12.26957
G1 X133.938 Y111.345 E12.30179
G1 X133.948 Y111.671 E12.31806
G1 X133.95 Y111.83 E12.326
G1 X133.95 Y112.27 E12.34795
G1 X133.949 Y112.344 E12.35164
G1 X133.939 Y113.048 E12.38677
G1 X133.932 Y113.271 E12.3979
G1 X133.773 Y116.062 E12.53737
G1 X133.696 Y118.733 E12.67068
G1 X133.696 Y121.41 E12.80424
G1 X133.771 Y124.111 E12.93904
G1 X133.929 Y127.009 E13.08384
G1 X133.937 Y127.229 E13.09482
G1 X133.943 Y127.736 E13.12012
G1 X133.943 Y127.814 E13.12401
G1 X133.941 Y128.479 E13.15719
G1 X133.899 Y129.122 E13.18933
G1 X133.778 Y129.755 E13.22149
G1 X133.579 Y130.368 E13.25364
G1 X133.306 Y130.952 E13.2858
G1 X132.88 Y131.611 E13.32495
G1 X132.067 Y132.68 E13.39195
G1 X130.454 Y134.847 E13.52673
G1 X128.908 Y137.051 E13.66104
G1 X127.436 Y139.28 E13.79431
G1 X126.031 Y141.546 E13.92733
G1 X124.68 Y143.868 E14.06135
G1 X123.393 Y146.229 E14.19551
G1 X122.167 Y148.642 E14.33054
G1 X121.035 Y151.035 E14.46261
G1 X119.953 Y153.499 E14.59687
G1 X119.537 Y154.483 E14.65017
G1 X119.249 Y155.06 E14.68234
G1 X118.893 Y155.597 E14.71449
G1 X118.472 Y156.086 E14.74668
G1 X117.995 Y156.519 E14.77882
G1 X117.467 Y156.89 E14.81101
G1 X116.898 Y157.192 E14.84315
G1 X116.296 Y157.422 E14.8753
G1 X115.67 Y157.575 E14.90745
G1 X114.93 Y157.655 E14.94459
G1 X114.333 Y157.676 E14.97439
G1 X114.168 Y157.679 E14.98262
G1 X108.976 Y157.697 E15.24165
G1 X108.907 Y157.697 E15.2451
G1 X108.199 Y157.69 E15.28042
G1 X107.556 Y157.643 E15.31259
G1 X106.923 Y157.518 E15.34478
G1 X106.311 Y157.315 E15.37694
G1 X105.729 Y157.038 E15.4091
G1 X105.186 Y156.691 E15.44125
G1 X104.622 Y156.216 E15.47804
G1 X104.204 Y155.809 E15.50715
G1 X104.154 Y155.759 E15.51067
G1 X102.053 Y153.657 E15.65895
G1 X102 Y153.603 E15.66272
G1 X101.533 Y153.122 E15.69617
G1 X101.114 Y152.633 E15.72829
G1 X100.758 Y152.095 E15.76048
G1 X100.486 Y151.551 E15.79082
G1 X99.945 Y150.291 E15.85923
G1 X98.756 Y147.607 E16.00569
G1 X97.62 Y145.236 E16.13686
G1 X96.364 Y142.797 E16.27373
G1 X95.093 Y140.488 E16.40522
G1 X93.72 Y138.155 E16.54028
G1 X92.303 Y135.895 E16.67336
G1 X90.794 Y133.634 E16.80897
G1 X89.258 Y131.469 E16.94141
G1 X87.707 Y129.404 E17.07026
G1 X87.147 Y128.679 E17.11596
G1 X86.785 Y128.145 E17.14815
G1 X86.492 Y127.571 E17.1803
G1 X86.273 Y126.965 E17.21244
G1 X86.13 Y126.336 E17.24463
G1 X86.063 Y125.611 E17.28095
G1 X86.051 Y125.049 E17.309
G1 X86.05 Y124.938 E17.31453
G1 X86.05 Y115.207 E17.80002
G1 X86.051 Y115.133 E17.80371
G1 X86.061 Y114.435 E17.83853
G1 X86.11 Y113.792 E17.87071
G1 X86.238 Y113.16 E17.90288
G1 X86.444 Y112.549 E17.93505
G1 X86.723 Y111.968 E17.9672
G1 X87.122 Y111.36 E18.00348
G1 X88.962 Y108.943 E18.15503
G1 X90.534 Y106.75 E18.28965
G1 X92.013 Y104.56 E18.42149
G1 X93.466 Y102.27 E18.5568
G1 X94.841 Y99.962 E18.69083
G1 X96.127 Y97.657 E18.82251
G1 X97.395 Y95.227 E18.95926
G1 X98.545 Y92.86 E19.09055
G1 X99.653 Y90.407 E19.22483
G1 X100.194 Y89.112 E19.29485
G1 X100.223 Y89.046 E19.29845
G1 X100.478 Y88.459 E19.33038
G1 X100.771 Y87.885 E19.36253
G1 X101.012 Y87.55 E19.38312
G0 F1080 X101.323 Y87.119
G1 F3000 E13.38312
G1 F300 Z0.65
;MESH:CableClip1.stl(4)
G0 F6000 X107.882 Y102.718 Z0.65
;TYPE:WALL-INNER
G1 F300 Z0.3
G1 F3000 E19.38312
G1 F1200 X106.25 Y101.086 E19.49827
G1 X106.25 Y90.914 E20.00575
G1 X107.887 Y89.277 E20.12125
G1 X107.831 Y89.432 E20.12947
G1 X107.785 Y89.622 E20.13922
G1 X107.761 Y89.805 E20.14843
G1 X107.751 Y89.965 E20.15643
G1 X107.753 Y102.159 E20.76479
G1 X107.759 Y102.201 E20.76691
G0 F1080 X107.781 Y102.365
G0 X107.824 Y102.547
G0 X107.882 Y102.718
G0 F6000 X108.257 Y102.578
G1 F1200 X108.317 Y102.713 E20.77428
G1 X108.388 Y102.84 E20.78154
G1 X108.47 Y102.962 E20.78887
G1 X108.567 Y103.079 E20.79645
G1 X108.671 Y103.182 E20.80376
G1 X108.78 Y103.274 E20.81087
G1 X108.899 Y103.353 E20.818
G1 X109.026 Y103.427 E20.82533
G1 X109.161 Y103.486 E20.83268
G1 X109.297 Y103.535 E20.83989
G1 X109.446 Y103.571 E20.84754
G1 X109.594 Y103.591 E20.85499
G1 X109.727 Y103.599 E20.86164
G1 X113.85 Y103.6 E21.06734
G1 X113.85 Y102.953 E21.09961
G1 X114.137 Y103.237 E21.11976
G1 X114.144 Y103.879 E21.15179
G1 X108.497 Y103.899 E21.43352
G1 X105.85 Y101.252 E21.62028
G1 X105.85 Y90.748 E22.14433
G1 X108.498 Y88.1 E22.33116
G1 X114.15 Y88.1 E22.61314
G1 X114.15 Y88.733 E22.64472
G1 X113.85 Y89.04 E22.66613
G1 X113.845 Y88.418 E22.69717
G1 X109.619 Y88.403 E22.908
G1 X109.458 Y88.425 E22.91611
G1 X109.313 Y88.459 E22.92354
G1 X109.172 Y88.507 E22.93097
G1 X109.037 Y88.567 E22.93834
G1 X108.91 Y88.638 E22.9456
G1 X108.788 Y88.72 E22.95294
G1 X108.671 Y88.817 E22.96052
G1 X108.568 Y88.921 E22.96782
G1 X108.476 Y89.03 E22.97494
G1 X108.397 Y89.149 E22.98206
G1 X108.323 Y89.276 E22.9894
G1 X108.264 Y89.411 E22.99675
G1 X108.215 Y89.547 E23.00396
G1 X108.179 Y89.696 E23.01161
G1 X108.159 Y89.844 E23.01906
G1 X108.151 Y89.977 E23.0257
G1 X108.153 Y102.057 E23.62838
G0 F1080 X108.153 Y102.132
G0 X108.175 Y102.292
G0 X108.209 Y102.437
G0 X108.257 Y102.578
G1 F3000 E17.62838
G0 F6000 X109.013 Y103.212
G0 X109.613 Y103.492
G0 X109.632 Y103.193
;TYPE:WALL-OUTER
G1 F3000 E23.62838
G1 F1200 X109.738 Y103.199 E23.63367
G1 X113.45 Y103.2 E23.81887
G1 X113.45 Y102.21 E23.86826
G1 X113.662 Y102.203 E23.87884
G1 X114.535 Y103.068 E23.94015
G1 X114.548 Y104.278 E24.00052
G1 X108.332 Y104.3 E24.31064
G1 X105.45 Y101.418 E24.51398
G1 X105.45 Y90.582 E25.0546
G1 X108.332 Y87.7 E25.25794
G1 X114.55 Y87.7 E25.56815
G1 X114.55 Y88.895 E25.62777
G1 X113.679 Y89.787 E25.68997
G1 X113.456 Y89.794 E25.7011
G1 X113.448 Y88.817 E25.74985
G1 X109.646 Y88.803 E25.93953
G1 X109.531 Y88.819 E25.94532
G1 X109.423 Y88.844 E25.95085
G1 X109.318 Y88.88 E25.95639
G1 X109.216 Y88.925 E25.96195
G1 X109.12 Y88.979 E25.96745
G1 X109.028 Y89.041 E25.97298
G1 X108.941 Y89.113 E25.97862
G1 X108.863 Y89.191 E25.98412
G1 X108.797 Y89.27 E25.98926
G1 X108.736 Y89.361 E25.99472
G1 X108.68 Y89.457 E26.00027
G1 X108.636 Y89.558 E26.00576
G1 X108.599 Y89.662 E26.01127
G1 X108.572 Y89.771 E26.01687
G1 X108.557 Y89.882 E26.02246
G1 X108.551 Y89.988 E26.02776
G1 X108.553 Y102.104 E26.63223
G1 X108.569 Y102.219 E26.63802
G1 X108.594 Y102.327 E26.64355
G1 X108.63 Y102.432 E26.64909
G1 X108.675 Y102.534 E26.65465
G1 X108.729 Y102.63 E26.66015
G1 X108.791 Y102.722 E26.66568
G1 X108.863 Y102.809 E26.67131
G1 X108.941 Y102.887 E26.67682
G1 X109.02 Y102.953 E26.68195
G1 X109.111 Y103.014 E26.68742
G1 X109.131 Y103.026 E26.68858
G0 F1080 X109.207 Y103.07
G0 X109.308 Y103.114
G0 X109.412 Y103.151
G0 X109.521 Y103.178
G0 X109.632 Y103.193
G0 F6000 X109.738 Y103.199
G0 X110.032 Y103.199
G0 X110.032 Y103.639
G0 X108.973 Y103.21
G0 X107.363 Y101.649
;TYPE:SKIN
G1 F1200 X106.64 Y100.926 E26.73959
G1 X106.64 Y91.074 E27.23111
G1 X107.361 Y90.353 E27.28198
G1 X107.363 Y101.117 E27.819
G0 F1080 X107.363 Y101.649
G0 F6000 X107.003 Y100.781
G1 F1200 X107 Y100.778 E27.81921
G1 X107 Y91.222 E28.29596
G1 X107.001 Y91.221 E28.29603
G1 X107.003 Y100.249 E28.74644
G0 F1080 X107.003 Y100.781
G1 F3000 E22.74644
G1 F300 Z0.65
;MESH:CableClip1.stl
G0 F6000 X107.003 Y100.781 Z0.65
G0 X107.887 Y113.277
;TYPE:WALL-INNER
G1 F300 Z0.3
G1 F3000 E28.74644
G1 F1200 X107.831 Y113.432 E28.75467
G1 X107.785 Y113.622 E28.76442
G1 X107.761 Y113.805 E28.77363
G1 X107.751 Y113.965 E28.78162
G1 X107.753 Y126.159 E29.38999
G1 X107.781 Y126.365 E29.40036
G1 X107.824 Y126.547 E29.40969
G1 X107.882 Y126.718 E29.4187
G1 X106.25 Y125.086 E29.53384
G1 X106.25 Y114.914 E30.04133
G1 X107.511 Y113.653 E30.1303
G0 F1080 X107.887 Y113.277
G0 F6000 X108.264 Y113.411
G1 F1200 X108.215 Y113.547 E30.13751
G1 X108.179 Y113.696 E30.14516
G1 X108.159 Y113.844 E30.15261
G1 X108.151 Y113.977 E30.15925
G1 X108.153 Y126.132 E30.76567
G1 X108.175 Y126.292 E30.77373
G1 X108.209 Y126.437 E30.78116
G1 X108.257 Y126.578 E30.78859
G1 X108.317 Y126.713 E30.79596
G1 X108.388 Y126.84 E30.80322
G1 X108.47 Y126.962 E30.81055
G1 X108.567 Y127.079 E30.81813
G1 X108.671 Y127.182 E30.82544
G1 X108.78 Y127.274 E30.83255
G1 X108.899 Y127.353 E30.83968
G1 X109.026 Y127.427 E30.84701
G1 X109.161 Y127.486 E30.85436
G1 X109.297 Y127.535 E30.86157
G1 X109.446 Y127.571 E30.86922
G1 X109.594 Y127.591 E30.87667
G1 X109.727 Y127.599 E30.88332
G1 X113.85 Y127.6 E31.08902
G1 X113.85 Y126.953 E31.1213
G1 X114.137 Y127.237 E31.14144
G1 X114.144 Y127.879 E31.17347
G1 X108.497 Y127.899 E31.4552
G1 X105.85 Y125.252 E31.64196
G1 X105.85 Y114.748 E32.16601
G1 X108.498 Y112.1 E32.35284
G1 X114.15 Y112.1 E32.63482
G1 X114.15 Y112.733 E32.6664
G1 X113.85 Y113.04 E32.68782
G1 X113.845 Y112.418 E32.71885
G1 X109.619 Y112.403 E32.92969
G1 X109.458 Y112.425 E32.93779
G1 X109.313 Y112.459 E32.94522
G1 X109.172 Y112.507 E32.95265
G1 X109.037 Y112.567 E32.96002
