;FLAVOR:Marlin
;TIME:2923
;Filament used: 2.1252m
;Layer height: 0.2
;MINX:89.4
;MINY:93.9
;MINZ:0.3
;MAXX:130.6
;MAXY:141.084
;MAXZ:18.25
;Generated with Cura_SteamEngine 4.4.1
M140 S60
M105
M190 S60
M104 S205
M105
M109 S205
M82 ;absolute extrusion mode
M201 X500.00 Y500.00 Z100.00 E5000.00 ;Setup machine max acceleration
M203 X500.00 Y500.00 Z10.00 E75.00 ;Setup machine max feedrate
M204 P500.00 R1000.00 T500.00 ;Setup Print/Retract/Travel acceleration
M205 X8.00 Y8.00 Z0.40 E5.00 ;Setup Jerk
M220 S100 ;Reset Feedrate
M221 S100 ;Reset Flowrate

G21 ; (metric values)
G90 ; (absolute positioning)
M82 ; (set extruder to absolute mode)
G28 ; (home all axis)
G29 ; (Auto Level)

G92 E0 ;Reset Extruder
G1 Z2.0 F3000 ;Move Z Axis up
G1 X1.1 Y50 Z0.28 F5000.0 ;Move to start position
G1 X1.1 Y200.0 Z0.28 F1500.0 E15 ;Draw the first line
G1 X1.4 Y200.0 Z0.28 F5000.0 ;Move to side a little
G1 X1.4 Y100 Z0.28 F1500.0 E30 ;Draw the second line
G92 E0 ;Reset Extruder
G1 Z2.0 F3000 ;Move Z Axis up
G92 E0
G92 E0
G1 F3000 E-6
;LAYER_COUNT:89
;LAYER:0
M107
G1 F300 Z0.65
G0 F6000 X91.322 Y95.295 Z0.65
;TYPE:SKIRT
G1 F300 Z0.3
G1 F3000 E0
G1 F1200 X91.851 Y94.885 E0.03339
G1 X92.425 Y94.542 E0.06675
G1 X93.035 Y94.269 E0.10009
G1 X93.674 Y94.071 E0.13347
G1 X94.333 Y93.95 E0.1669
G1 X94.853 Y93.911 E0.19291
G1 X95.173 Y93.902 E0.20888
G1 X95.33 Y93.9 E0.21672
G1 X124.293 Y93.9 E1.66169
G1 X124.373 Y93.901 E1.66568
G1 X125.071 Y93.911 E1.7005
G1 X125.738 Y93.96 E1.73387
G1 X126.395 Y94.089 E1.76727
G1 X127.031 Y94.295 E1.80063
G1 X127.639 Y94.576 E1.83404
G1 X128.208 Y94.926 E1.86737
G1 X128.732 Y95.343 E1.90078
G1 X129.202 Y95.819 E1.93416
G1 X129.612 Y96.347 E1.96751
G1 X129.957 Y96.921 E2.00092
G1 X130.23 Y97.532 E2.03431
G1 X130.428 Y98.171 E2.06768
G1 X130.549 Y98.829 E2.10106
G1 X130.589 Y99.353 E2.12728
G1 X130.598 Y99.673 E2.14325
G1 X130.6 Y99.831 E2.15113
G1 X130.597 Y120.419 E3.17827
G1 X130.594 Y120.615 E3.18805
G1 X130.565 Y121.44 E3.22924
G1 X130.553 Y121.65 E3.23973
G1 X130.507 Y122.282 E3.27134
G1 X130.488 Y122.487 E3.28161
G1 X130.424 Y123.069 E3.31083
G1 X130.399 Y123.265 E3.32068
G1 X130.334 Y123.711 E3.34317
G1 X130.301 Y123.915 E3.35348
G1 X130.195 Y124.492 E3.38275
G1 X130.154 Y124.695 E3.39308
G1 X130.026 Y125.271 E3.42252
G1 X129.978 Y125.468 E3.43263
G1 X129.867 Y125.894 E3.4546
G1 X129.813 Y126.087 E3.4646
G1 X129.629 Y126.702 E3.49662
G1 X129.565 Y126.904 E3.50719
G1 X129.399 Y127.391 E3.53286
G1 X129.332 Y127.575 E3.54263
G1 X129.138 Y128.085 E3.56985
G1 X129.057 Y128.286 E3.58067
G1 X128.843 Y128.789 E3.60794
G1 X128.762 Y128.97 E3.61783
G1 X128.537 Y129.451 E3.64432
G1 X128.449 Y129.632 E3.65436
G1 X128.18 Y130.157 E3.68379
G1 X128.079 Y130.345 E3.69444
G1 X127.801 Y130.84 E3.72277
G1 X127.701 Y131.01 E3.73261
G1 X127.48 Y131.373 E3.75381
G1 X127.374 Y131.541 E3.76372
G1 X127.017 Y132.083 E3.7961
G1 X126.891 Y132.266 E3.80718
G1 X126.577 Y132.704 E3.83407
G1 X126.465 Y132.854 E3.84341
G1 X126.129 Y133.291 E3.87091
G1 X125.991 Y133.464 E3.88195
G1 X125.705 Y133.807 E3.90423
G1 X125.58 Y133.952 E3.91378
G1 X125.086 Y134.505 E3.95078
G1 X124.946 Y134.657 E3.96109
G1 X124.667 Y134.947 E3.98116
G1 X124.52 Y135.094 E3.99154
G1 X124.148 Y135.453 E4.01733
G1 X123.999 Y135.591 E4.02746
G1 X123.483 Y136.054 E4.06205
G1 X123.323 Y136.193 E4.07262
G1 X123.009 Y136.454 E4.09299
G1 X122.859 Y136.574 E4.10258
G1 X122.335 Y136.98 E4.13565
G1 X122.161 Y137.109 E4.14645
G1 X121.779 Y137.382 E4.16988
G1 X121.618 Y137.493 E4.17963
G1 X121.161 Y137.796 E4.20699
G1 X120.983 Y137.909 E4.21751
G1 X120.48 Y138.216 E4.24691
G1 X120.31 Y138.316 E4.25675
G1 X119.841 Y138.58 E4.2836
G1 X119.649 Y138.683 E4.29447
G1 X119.138 Y138.945 E4.32312
G1 X118.967 Y139.029 E4.33262
G1 X118.561 Y139.22 E4.35501
G1 X118.363 Y139.309 E4.36584
G1 X117.752 Y139.568 E4.39895
G1 X117.577 Y139.638 E4.40835
G1 X117.169 Y139.795 E4.43016
G1 X116.974 Y139.866 E4.44051
G1 X116.411 Y140.059 E4.47021
G1 X116.209 Y140.124 E4.48079
G1 X115.601 Y140.307 E4.51247
G1 X115.404 Y140.363 E4.52269
G1 X115.06 Y140.453 E4.54043
G1 X114.869 Y140.499 E4.55023
G1 X114.156 Y140.659 E4.58669
G1 X113.944 Y140.702 E4.59748
G1 X113.477 Y140.788 E4.62117
G1 X113.29 Y140.82 E4.63063
G1 X112.781 Y140.896 E4.65631
G1 X112.555 Y140.925 E4.66768
G1 X111.897 Y140.996 E4.7007
G1 X111.703 Y141.013 E4.71041
G1 X111.209 Y141.049 E4.73512
G1 X111.016 Y141.06 E4.74477
G1 X110.52 Y141.079 E4.76953
G1 X110.317 Y141.083 E4.77966
G1 X109.805 Y141.084 E4.8052
G1 X109.604 Y141.081 E4.81523
G1 X109.016 Y141.061 E4.84459
G1 X108.807 Y141.05 E4.85503
G1 X108.247 Y141.01 E4.88304
G1 X108.031 Y140.99 E4.89386
G1 X107.407 Y140.921 E4.92518
G1 X107.2 Y140.894 E4.9356
G1 X106.755 Y140.828 E4.95804
G1 X106.559 Y140.796 E4.96795
G1 X105.991 Y140.691 E4.99677
G1 X105.789 Y140.649 E5.00706
G1 X105.238 Y140.526 E5.03522
G1 X105.044 Y140.48 E5.04517
G1 X104.561 Y140.354 E5.07008
G1 X104.366 Y140.299 E5.08018
G1 X103.836 Y140.14 E5.10779
G1 X103.643 Y140.078 E5.1179
G1 X103.087 Y139.889 E5.1472
G1 X102.899 Y139.822 E5.15716
G1 X102.415 Y139.638 E5.18299
G1 X102.216 Y139.558 E5.19369
G1 X101.712 Y139.344 E5.22101
G1 X101.533 Y139.264 E5.23079
G1 X101.053 Y139.04 E5.25722
G1 X100.87 Y138.95 E5.26739
G1 X100.358 Y138.688 E5.29609
G1 X100.162 Y138.583 E5.30718
G1 X99.645 Y138.292 E5.33678
G1 X99.464 Y138.186 E5.34724
G1 X99.089 Y137.956 E5.36919
G1 X98.934 Y137.857 E5.37836
G1 X98.37 Y137.485 E5.41207
G1 X98.19 Y137.361 E5.42298
G1 X97.851 Y137.118 E5.44379
G1 X97.695 Y137.002 E5.45348
G1 X97.184 Y136.608 E5.48568
G1 X97.024 Y136.48 E5.4959
G1 X96.699 Y136.21 E5.51698
G1 X96.547 Y136.079 E5.52699
G1 X95.994 Y135.585 E5.56398
G1 X95.842 Y135.445 E5.57429
G1 X95.552 Y135.166 E5.59437
G1 X95.405 Y135.019 E5.60474
G1 X95.046 Y134.647 E5.63053
G1 X94.908 Y134.498 E5.64067
G1 X94.445 Y133.982 E5.67525
G1 X94.306 Y133.822 E5.68583
G1 X94.045 Y133.508 E5.7062
G1 X93.925 Y133.358 E5.71578
G1 X93.519 Y132.834 E5.74885
G1 X93.387 Y132.657 E5.75987
G1 X93.128 Y132.294 E5.78212
G1 X93.02 Y132.135 E5.79171
G1 X92.664 Y131.598 E5.82385
G1 X92.552 Y131.424 E5.83417
G1 X92.329 Y131.059 E5.85551
G1 X92.228 Y130.886 E5.86551
G1 X91.897 Y130.298 E5.89917
G1 X91.795 Y130.107 E5.90997
G1 X91.579 Y129.686 E5.93358
G1 X91.491 Y129.508 E5.94349
G1 X91.271 Y129.039 E5.96933
G1 X91.189 Y128.857 E5.97929
G1 X90.935 Y128.261 E6.01161
G1 X90.861 Y128.076 E6.02155
G1 X90.704 Y127.668 E6.04336
G1 X90.632 Y127.47 E6.05388
G1 X90.44 Y126.909 E6.08346
G1 X90.374 Y126.706 E6.09411
G1 X90.19 Y126.093 E6.12604
G1 X90.14 Y125.913 E6.13536
G1 X90.047 Y125.561 E6.15352
G1 X89.998 Y125.36 E6.16384
G1 X89.847 Y124.689 E6.19816
G1 X89.8 Y124.462 E6.20972
G1 X89.706 Y123.945 E6.23594
G1 X89.677 Y123.77 E6.24479
G1 X89.608 Y123.308 E6.26809
G1 X89.581 Y123.093 E6.2789
G1 X89.509 Y122.438 E6.31178
G1 X89.491 Y122.243 E6.32155
G1 X89.452 Y121.721 E6.34766
G1 X89.44 Y121.514 E6.35801
G1 X89.408 Y120.663 E6.4005
G1 X89.404 Y120.493 E6.40898
G1 X89.4 Y119.929 E6.43712
G1 X89.4 Y100.174 E7.4227
G1 X89.401 Y100.09 E7.42689
G1 X89.411 Y99.425 E7.46007
G1 X89.461 Y98.758 E7.49344
G1 X89.59 Y98.101 E7.52684
G1 X89.796 Y97.465 E7.5602
G1 X90.077 Y96.858 E7.59357
G1 X90.429 Y96.288 E7.62699
G1 X90.846 Y95.765 E7.66036
G1 X90.943 Y95.669 E7.66717
G0 F1080 X91.322 Y95.295
G0 F6000 X91.711 Y95.49
G1 F1200 X92.233 Y95.112 E7.69933
G1 X92.799 Y94.803 E7.7315
G1 X93.398 Y94.565 E7.76365
G1 X94.022 Y94.404 E7.79581
G1 X94.864 Y94.311 E7.83807
G1 X95.184 Y94.302 E7.85404
G1 X95.33 Y94.3 E7.86132
G1 X124.293 Y94.3 E9.30629
G1 X124.367 Y94.301 E9.30999
G1 X125.065 Y94.311 E9.34481
G1 X125.708 Y94.36 E9.37699
G1 X126.34 Y94.488 E9.40916
G1 X126.951 Y94.694 E9.44133
G1 X127.532 Y94.973 E9.47348
G1 X128.074 Y95.322 E9.50564
G1 X128.568 Y95.736 E9.5378
G1 X129.008 Y96.208 E9.56999
G1 X129.386 Y96.73 E9.60214
G1 X129.696 Y97.295 E9.6343
G1 X129.934 Y97.894 E9.66645
G1 X130.096 Y98.518 E9.69862
G1 X130.189 Y99.364 E9.74108
G1 X130.198 Y99.684 E9.75705
G1 X130.2 Y99.831 E9.76438
G1 X130.197 Y120.419 E10.79152
G1 X130.194 Y120.601 E10.8006
G1 X130.165 Y121.426 E10.84179
G1 X130.154 Y121.62 E10.85148
G1 X130.108 Y122.252 E10.8831
G1 X130.091 Y122.443 E10.89266
G1 X130.027 Y123.025 E10.92188
G1 X130.004 Y123.207 E10.93103
G1 X129.939 Y123.653 E10.95351
G1 X129.907 Y123.843 E10.96313
G1 X129.801 Y124.42 E10.99239
G1 X129.763 Y124.608 E11.00196
G1 X129.635 Y125.184 E11.0314
G1 X129.591 Y125.367 E11.04079
G1 X129.48 Y125.793 E11.06275
G1 X129.43 Y125.972 E11.07203
G1 X129.246 Y126.587 E11.10405
G1 X129.186 Y126.775 E11.1139
G1 X129.02 Y127.262 E11.13957
G1 X128.958 Y127.433 E11.14864
G1 X128.764 Y127.943 E11.17587
G1 X128.689 Y128.13 E11.18592
G1 X128.475 Y128.633 E11.21319
G1 X128.4 Y128.8 E11.22232
G1 X128.175 Y129.281 E11.24881
G1 X128.093 Y129.449 E11.25814
G1 X127.824 Y129.974 E11.28757
G1 X127.73 Y130.149 E11.29748
G1 X127.452 Y130.644 E11.32581
G1 X127.36 Y130.802 E11.33493
G1 X127.139 Y131.165 E11.35613
G1 X127.04 Y131.321 E11.36535
G1 X126.683 Y131.863 E11.39773
G1 X126.566 Y132.033 E11.40802
G1 X126.252 Y132.471 E11.43491
G1 X126.148 Y132.611 E11.44361
G1 X125.812 Y133.048 E11.47111
G1 X125.684 Y133.208 E11.48134
G1 X125.398 Y133.551 E11.50362
G1 X125.282 Y133.685 E11.51246
G1 X124.788 Y134.238 E11.54945
G1 X124.657 Y134.379 E11.55905
G1 X124.378 Y134.669 E11.57913
G1 X124.242 Y134.806 E11.58876
G1 X123.87 Y135.165 E11.61455
G1 X123.732 Y135.293 E11.62394
G1 X123.216 Y135.756 E11.65853
G1 X123.067 Y135.885 E11.66836
G1 X122.753 Y136.146 E11.68874
G1 X122.614 Y136.258 E11.69764
G1 X122.09 Y136.664 E11.73071
G1 X121.928 Y136.784 E11.74077
G1 X121.546 Y137.057 E11.7642
G1 X121.396 Y137.16 E11.77327
G1 X120.939 Y137.463 E11.80063
G1 X120.775 Y137.568 E11.81034
G1 X120.272 Y137.875 E11.83974
G1 X120.114 Y137.967 E11.84887
G1 X119.645 Y138.231 E11.87572
G1 X119.466 Y138.327 E11.88585
G1 X118.955 Y138.589 E11.9145
G1 X118.797 Y138.667 E11.92329
G1 X118.391 Y138.858 E11.94568
G1 X118.206 Y138.941 E11.95579
G1 X117.595 Y139.2 E11.9889
G1 X117.433 Y139.265 E11.99761
G1 X117.025 Y139.422 E12.01942
G1 X116.844 Y139.488 E12.02903
G1 X116.281 Y139.681 E12.05872
G1 X116.094 Y139.741 E12.06852
G1 X115.486 Y139.924 E12.1002
G1 X115.303 Y139.976 E12.10969
G1 X114.959 Y140.066 E12.12743
G1 X114.782 Y140.109 E12.13652
G1 X114.069 Y140.269 E12.17297
G1 X113.872 Y140.309 E12.183
G1 X113.405 Y140.395 E12.20669
G1 X113.231 Y140.424 E12.21549
G1 X112.722 Y140.5 E12.24117
G1 X112.512 Y140.527 E12.25173
G1 X111.854 Y140.598 E12.28475
G1 X111.674 Y140.614 E12.29377
G1 X111.18 Y140.65 E12.31848
G1 X111.001 Y140.66 E12.32742
G1 X110.505 Y140.679 E12.35219
G1 X110.316 Y140.683 E12.36162
G1 X109.804 Y140.684 E12.38716
G1 X109.617 Y140.681 E12.39649
G1 X109.029 Y140.661 E12.42584
G1 X108.836 Y140.651 E12.43549
G1 X108.276 Y140.611 E12.46349
G1 X108.074 Y140.592 E12.47362
G1 X107.45 Y140.523 E12.50494
G1 X107.259 Y140.499 E12.51454
G1 X106.814 Y140.433 E12.53699
G1 X106.632 Y140.402 E12.5462
G1 X106.064 Y140.297 E12.57501
G1 X105.876 Y140.259 E12.58458
G1 X105.325 Y140.136 E12.61275
G1 X105.145 Y140.093 E12.62198
G1 X104.662 Y139.967 E12.64689
G1 X104.481 Y139.916 E12.65627
G1 X103.951 Y139.757 E12.68387
G1 X103.771 Y139.699 E12.69331
G1 X103.215 Y139.51 E12.72261
G1 X103.041 Y139.448 E12.73182
G1 X102.557 Y139.264 E12.75766
G1 X102.373 Y139.189 E12.76757
G1 X101.869 Y138.975 E12.79489
G1 X101.702 Y138.901 E12.804
G1 X101.222 Y138.677 E12.83043
G1 X101.052 Y138.594 E12.83986
G1 X100.54 Y138.332 E12.86856
G1 X100.358 Y138.234 E12.87887
G1 X99.841 Y137.943 E12.90847
G1 X99.673 Y137.845 E12.91817
G1 X99.298 Y137.615 E12.94012
G1 X99.154 Y137.523 E12.94864
G1 X98.59 Y137.151 E12.98235
G1 X98.423 Y137.036 E12.99247
G1 X98.084 Y136.793 E13.01328
G1 X97.939 Y136.685 E13.0223
G1 X97.428 Y136.291 E13.05449
G1 X97.28 Y136.173 E13.06393
G1 X96.955 Y135.903 E13.08501
G1 X96.814 Y135.781 E13.09431
G1 X96.261 Y135.287 E13.13131
G1 X96.12 Y135.156 E13.14091
G1 X95.83 Y134.877 E13.16099
G1 X95.693 Y134.741 E13.17062
G1 X95.334 Y134.369 E13.19641
G1 X95.206 Y134.231 E13.2058
G1 X94.743 Y133.715 E13.24039
G1 X94.614 Y133.566 E13.25022
G1 X94.353 Y133.252 E13.27059
G1 X94.241 Y133.113 E13.2795
G1 X93.835 Y132.589 E13.31257
G1 X93.713 Y132.424 E13.32281
G1 X93.454 Y132.061 E13.34505
G1 X93.353 Y131.914 E13.35395
G1 X92.997 Y131.377 E13.3861
G1 X92.894 Y131.215 E13.39567
G1 X92.671 Y130.85 E13.41701
G1 X92.577 Y130.69 E13.42627
G1 X92.246 Y130.102 E13.45994
G1 X92.15 Y129.925 E13.46998
G1 X91.934 Y129.504 E13.49359
G1 X91.853 Y129.338 E13.5028
G1 X91.633 Y128.869 E13.52865
G1 X91.557 Y128.7 E13.53789
G1 X91.303 Y128.104 E13.57021
G1 X91.234 Y127.932 E13.57946
G1 X91.077 Y127.524 E13.60127
G1 X91.01 Y127.341 E13.61099
G1 X90.818 Y126.78 E13.64058
G1 X90.758 Y126.591 E13.65047
G1 X90.574 Y125.978 E13.6824
G1 X90.527 Y125.811 E13.69105
G1 X90.434 Y125.459 E13.70922
G1 X90.388 Y125.273 E13.71878
G1 X90.237 Y124.602 E13.75309
G1 X90.194 Y124.39 E13.76388
G1 X90.1 Y123.873 E13.7901
G1 X90.073 Y123.711 E13.79829
G1 X90.004 Y123.249 E13.8216
G1 X89.978 Y123.049 E13.83166
G1 X89.906 Y122.394 E13.86454
G1 X89.889 Y122.213 E13.8736
G1 X89.85 Y121.691 E13.89972
G1 X89.84 Y121.499 E13.90931
G1 X89.808 Y120.648 E13.9518
G1 X89.804 Y120.49 E13.95968
G1 X89.8 Y119.926 E13.98782
G1 X89.8 Y100.174 E14.97325
G1 X89.801 Y100.096 E14.97715
G1 X89.811 Y99.431 E15.01033
G1 X89.86 Y98.788 E15.0425
G1 X89.989 Y98.156 E15.07468
G1 X90.195 Y97.545 E15.10685
G1 X90.475 Y96.965 E15.13898
G1 X90.825 Y96.423 E15.17117
G1 X91.239 Y95.929 E15.20332
G1 X91.322 Y95.852 E15.20897
G0 F1080 X91.711 Y95.49
G1 F3000 E9.20897
G1 F300 Z0.65
;MESH:Lead_Screw_Stabalizer_Hole_12mm.stl
G0 F6000 X107.619 Y127.082 Z0.65
;TYPE:WALL-INNER
G1 F300 Z0.3
G1 F3000 E15.20897
G1 F1200 X108.003 Y127.21 E15.22917
G1 X108.392 Y127.311 E15.24922
G1 X108.787 Y127.394 E15.26936
G1 X109.188 Y127.453 E15.28958
G1 X109.588 Y127.486 E15.3096
G1 X109.988 Y127.499 E15.32957
G1 X110.392 Y127.491 E15.34973
G1 X110.797 Y127.457 E15.37
G1 X111.197 Y127.398 E15.39018
G1 X111.591 Y127.318 E15.41023
G1 X111.98 Y127.216 E15.4303
G1 X112.367 Y127.088 E15.45063
G1 X112.741 Y126.941 E15.47068
G1 X113.106 Y126.774 E15.49071
G1 X113.463 Y126.585 E15.51086
G1 X113.808 Y126.375 E15.53101
G1 X114.141 Y126.146 E15.55117
G1 X114.459 Y125.896 E15.57135
G1 X114.761 Y125.631 E15.5914
G1 X115.049 Y125.349 E15.61151
G1 X115.32 Y125.049 E15.63168
G1 X115.574 Y124.735 E15.65183
G1 X115.808 Y124.406 E15.67197
G1 X116.023 Y124.066 E15.69204
G1 X116.218 Y123.714 E15.71211
G1 X116.395 Y123.35 E15.73231
G1 X116.548 Y122.975 E15.75251
G1 X116.679 Y122.594 E15.77261
G1 X116.788 Y122.207 E15.79267
G1 X116.876 Y121.813 E15.81281
G1 X116.94 Y121.411 E15.83312
G1 X116.98 Y121.011 E15.85318
G1 X116.998 Y120.612 E15.8731
G1 X116.995 Y120.208 E15.89326
G1 X116.965 Y119.805 E15.91342
G1 X116.915 Y119.404 E15.93358
G1 X116.839 Y119.005 E15.95385
G1 X116.742 Y118.615 E15.9739
G1 X116.621 Y118.23 E15.99403
G1 X116.481 Y117.853 E16.01409
G1 X116.318 Y117.485 E16.03417
G1 X116.132 Y117.122 E16.05452
G1 X115.928 Y116.778 E16.07448
G1 X115.706 Y116.443 E16.09453
G1 X115.461 Y116.119 E16.11479
G1 X115.198 Y115.813 E16.13492
G1 X114.922 Y115.523 E16.15489
G1 X114.627 Y115.246 E16.17508
G1 X114.313 Y114.986 E16.19542
G1 X113.99 Y114.749 E16.21541
G1 X113.653 Y114.529 E16.23549
G1 X113.303 Y114.328 E16.25562
G1 X112.941 Y114.148 E16.27579
G1 X112.571 Y113.99 E16.29587
G1 X112.19 Y113.852 E16.31608
G1 X111.803 Y113.737 E16.33622
G1 X111.412 Y113.644 E16.35628
G1 X111.012 Y113.574 E16.37654
