;FLAVOR:Marlin
;TIME:1732
;Filament used: 1.06104m
;Layer height: 0.2
;MINX:67.767
;MINY:105.265
;MINZ:0.3
;MAXX:152.233
;MAXY:129.735
;MAXZ:5.25
;Generated with Cura_SteamEngine 4.4.1
M140 S60
M105
M190 S60
M104 S205
M105
M109 S205
M82 ;absolute extrusion mode
M201 X500.00 Y500.00 Z100.00 E5000.00 ;Setup machine max acceleration
M203 X500.00 Y500.00 Z10.00 E75.00 ;Setup machine max feedrate
M204 P500.00 R1000.00 T500.00 ;Setup Print/Retract/Travel acceleration
M205 X8.00 Y8.00 Z0.40 E5.00 ;Setup Jerk
M220 S100 ;Reset Feedrate
M221 S100 ;Reset Flowrate

G21 ; (metric values)
G90 ; (absolute positioning)
M82 ; (set extruder to absolute mode)
G28 ; (home all axis)
G29 ; (Auto Level)

G92 E0 ;Reset Extruder
G1 Z2.0 F3000 ;Move Z Axis up
G1 X1.1 Y50 Z0.28 F5000.0 ;Move to start position
G1 X1.1 Y200.0 Z0.28 F1500.0 E15 ;Draw the first line
G1 X1.4 Y200.0 Z0.28 F5000.0 ;Move to side a little
G1 X1.4 Y100 Z0.28 F1500.0 E30 ;Draw the second line
G92 E0 ;Reset Extruder
G1 Z2.0 F3000 ;Move Z Axis up
G92 E0
G92 E0
G1 F3000 E-6
;LAYER_COUNT:24
;LAYER:0
M107
G1 F300 Z0.65
G0 F6000 X73.003 Y107.462 Z0.65
;TYPE:SKIRT
G1 F300 Z0.3
G1 F3000 E0
G1 F1200 X73.477 Y107.15 E0.02831
G1 X73.886 Y106.905 E0.0521
G1 X74.334 Y106.662 E0.07752
G1 X74.552 Y106.55 E0.08975
G1 X74.936 Y106.363 E0.11106
G1 X75.368 Y106.175 E0.13457
G1 X75.898 Y105.97 E0.16292
G1 X76.532 Y105.767 E0.19613
G1 X77.397 Y105.546 E0.24067
G1 X77.832 Y105.453 E0.26286
G1 X78.122 Y105.403 E0.27754
G1 X78.664 Y105.337 E0.30478
G1 X79.525 Y105.274 E0.34785
G1 X80.243 Y105.268 E0.38368
G1 X81.112 Y105.316 E0.4271
G1 X81.602 Y105.364 E0.45166
G1 X82.074 Y105.432 E0.47545
G1 X82.272 Y105.464 E0.48546
G1 X86.031 Y106.144 E0.67604
G1 X89.836 Y106.755 E0.8683
G1 X91.543 Y106.994 E0.9543
G1 X95.37 Y107.452 E1.14659
G1 X97.016 Y107.617 E1.22912
G1 X100.855 Y107.922 E1.42125
G1 X102.512 Y108.021 E1.50407
G1 X106.385 Y108.176 E1.69745
G1 X108.044 Y108.21 E1.78023
G1 X111.982 Y108.209 E1.9767
G1 X113.716 Y108.173 E2.06323
G1 X117.474 Y108.022 E2.25087
G1 X119.173 Y107.921 E2.33578
G1 X123.03 Y107.612 E2.52882
G1 X124.681 Y107.447 E2.6116
G1 X128.603 Y106.976 E2.80868
G1 X130.258 Y106.742 E2.89207
G1 X134.01 Y106.137 E3.08167
G1 X136.941 Y105.605 E3.23029
G1 X137.052 Y105.586 E3.23591
G1 X138.333 Y105.38 E3.30064
G1 X138.798 Y105.325 E3.324
G1 X139.457 Y105.275 E3.35697
G1 X140.141 Y105.265 E3.3911
G1 X141.001 Y105.305 E3.43405
G1 X141.728 Y105.387 E3.47055
G1 X142.331 Y105.495 E3.50111
G1 X142.615 Y105.553 E3.51558
G1 X143.057 Y105.656 E3.53822
G1 X143.502 Y105.779 E3.56125
G1 X144.142 Y105.985 E3.59479
G1 X144.8 Y106.244 E3.63007
G1 X145.471 Y106.558 E3.66703
G1 X145.926 Y106.797 E3.69268
G1 X146.524 Y107.147 E3.72724
G1 X147.082 Y107.52 E3.76073
G1 X147.635 Y107.94 E3.79537
G1 X148.056 Y108.294 E3.82282
G1 X148.456 Y108.665 E3.85004
G1 X148.616 Y108.82 E3.86115
G1 X148.852 Y109.057 E3.87784
G1 X149.183 Y109.419 E3.90231
G1 X149.603 Y109.922 E3.935
G1 X149.894 Y110.303 E3.95892
G1 X150.228 Y110.781 E3.98801
G1 X150.584 Y111.363 E4.02205
G1 X150.979 Y112.107 E4.06407
G1 X151.205 Y112.586 E4.0905
G1 X151.396 Y113.046 E4.11535
G1 X151.565 Y113.51 E4.13998
G1 X151.738 Y114.059 E4.1687
G1 X151.858 Y114.503 E4.19165
G1 X151.991 Y115.089 E4.22163
G1 X152.077 Y115.563 E4.24566
G1 X152.17 Y116.237 E4.2796
G1 X152.223 Y116.936 E4.31458
G1 X152.233 Y117.783 E4.35684
G1 X152.192 Y118.524 E4.39386
G1 X152.097 Y119.306 E4.43316
G1 X152.013 Y119.809 E4.45861
G1 X151.877 Y120.441 E4.49086
G1 X151.773 Y120.848 E4.51182
G1 X151.688 Y121.136 E4.5268
G1 X151.522 Y121.617 E4.55218
G1 X151.247 Y122.31 E4.58938
G1 X151.038 Y122.774 E4.61477
G1 X150.726 Y123.39 E4.64922
G1 X150.379 Y123.981 E4.68341
G1 X149.995 Y124.553 E4.71778
G1 X149.685 Y124.973 E4.74383
G1 X149.37 Y125.359 E4.76868
G1 X149.218 Y125.536 E4.78032
G1 X148.861 Y125.938 E4.80714
G1 X148.534 Y126.277 E4.83064
G1 X148.348 Y126.454 E4.84345
G1 X148.019 Y126.744 E4.86533
G1 X147.449 Y127.207 E4.90197
G1 X146.997 Y127.538 E4.92992
G1 X146.523 Y127.85 E4.95823
G1 X146.114 Y128.095 E4.98202
G1 X145.666 Y128.338 E5.00744
G1 X145.448 Y128.45 E5.01967
G1 X145.064 Y128.637 E5.04098
G1 X144.632 Y128.825 E5.06449
G1 X144.107 Y129.028 E5.09257
G1 X143.732 Y129.158 E5.11237
G1 X143.54 Y129.217 E5.12239
G1 X143.21 Y129.307 E5.13945
G1 X142.531 Y129.471 E5.1743
G1 X142.171 Y129.546 E5.19265
G1 X141.882 Y129.596 E5.20728
G1 X141.336 Y129.663 E5.23473
G1 X140.475 Y129.726 E5.2778
G1 X139.757 Y129.732 E5.31362
G1 X138.888 Y129.684 E5.35704
G1 X138.409 Y129.637 E5.38105
G1 X138.05 Y129.586 E5.39914
G1 X137.896 Y129.562 E5.40692
G1 X137.527 Y129.499 E5.42559
G1 X137.471 Y129.489 E5.42843
G1 X133.985 Y128.858 E5.60518
G1 X130.165 Y128.246 E5.79819
G1 X128.457 Y128.006 E5.88424
G1 X124.63 Y127.548 E6.07653
G1 X122.984 Y127.383 E6.15906
G1 X119.145 Y127.078 E6.35119
G1 X117.488 Y126.979 E6.43401
G1 X113.615 Y126.824 E6.62739
G1 X111.956 Y126.79 E6.71017
G1 X108.018 Y126.791 E6.90664
G1 X106.284 Y126.827 E6.99317
G1 X102.526 Y126.978 E7.18081
G1 X100.827 Y127.079 E7.26572
G1 X96.97 Y127.388 E7.45876
G1 X95.319 Y127.553 E7.54154
G1 X91.397 Y128.024 E7.73862
G1 X89.742 Y128.258 E7.82201
G1 X85.99 Y128.863 E8.01161
G1 X83.059 Y129.395 E8.16023
G1 X82.948 Y129.414 E8.16585
G1 X81.667 Y129.62 E8.23058
G1 X81.198 Y129.675 E8.25414
G1 X80.533 Y129.725 E8.28741
G1 X79.851 Y129.735 E8.32144
G1 X78.997 Y129.695 E8.36409
G1 X78.272 Y129.613 E8.40049
G1 X77.669 Y129.505 E8.43105
G1 X77.385 Y129.447 E8.44551
G1 X76.943 Y129.344 E8.46816
G1 X76.498 Y129.221 E8.49119
G1 X75.858 Y129.015 E8.52473
G1 X75.2 Y128.756 E8.56001
G1 X74.527 Y128.441 E8.59708
G1 X74.071 Y128.201 E8.62279
G1 X73.475 Y127.852 E8.65725
G1 X72.918 Y127.48 E8.69067
G1 X72.365 Y127.06 E8.72531
G1 X71.944 Y126.706 E8.75275
G1 X71.544 Y126.335 E8.77997
G1 X71.384 Y126.18 E8.79109
G1 X71.148 Y125.943 E8.80777
G1 X70.814 Y125.577 E8.83249
G1 X70.394 Y125.073 E8.86522
G1 X70.11 Y124.702 E8.88853
G1 X69.775 Y124.224 E8.91765
G1 X69.415 Y123.636 E8.95205
G1 X69.02 Y122.892 E8.99408
G1 X68.792 Y122.409 E9.02072
G1 X68.601 Y121.948 E9.04562
G1 X68.433 Y121.485 E9.07019
G1 X68.261 Y120.938 E9.0988
G1 X68.14 Y120.488 E9.12205
G1 X68.006 Y119.893 E9.15247
G1 X67.921 Y119.423 E9.1763
G1 X67.829 Y118.751 E9.21014
G1 X67.777 Y118.058 E9.24481
G1 X67.767 Y117.217 E9.28677
G1 X67.808 Y116.474 E9.3239
G1 X67.903 Y115.693 E9.36315
G1 X67.987 Y115.191 E9.38854
G1 X68.123 Y114.559 E9.4208
G1 X68.227 Y114.152 E9.44175
G1 X68.312 Y113.864 E9.45673
G1 X68.478 Y113.383 E9.48212
G1 X68.753 Y112.69 E9.51932
G1 X68.962 Y112.226 E9.54471
G1 X69.274 Y111.61 E9.57916
G1 X69.621 Y111.019 E9.61335
G1 X70.005 Y110.447 E9.64772
G1 X70.315 Y110.027 E9.67376
G1 X70.63 Y109.641 E9.69862
G1 X70.784 Y109.462 E9.7104
G1 X71.144 Y109.057 E9.73743
G1 X71.47 Y108.719 E9.76086
G1 X71.653 Y108.545 E9.77346
G1 X71.981 Y108.256 E9.79527
G1 X72.551 Y107.793 E9.83191
G1 X72.574 Y107.776 E9.83333
G0 F1080 X73.003 Y107.462
G0 F6000 X73.223 Y107.796
G1 F1200 X73.697 Y107.484 E9.86164
G1 X74.077 Y107.257 E9.88373
G1 X74.525 Y107.014 E9.90915
G1 X74.727 Y106.91 E9.92049
G1 X75.111 Y106.723 E9.9418
G1 X75.512 Y106.548 E9.96363
G1 X76.042 Y106.343 E9.99198
G1 X76.631 Y106.155 E10.02282
G1 X77.496 Y105.934 E10.06736
G1 X77.899 Y105.848 E10.08792
G1 X78.189 Y105.798 E10.1026
G1 X78.694 Y105.736 E10.12799
G1 X79.555 Y105.673 E10.17106
G1 X80.221 Y105.667 E10.20429
G1 X81.09 Y105.715 E10.24771
G1 X81.544 Y105.76 E10.27047
G1 X82.016 Y105.828 E10.29426
G1 X82.201 Y105.858 E10.30361
G1 X85.946 Y106.535 E10.49348
G1 X89.767 Y107.149 E10.68655
G1 X91.496 Y107.391 E10.77365
G1 X95.332 Y107.851 E10.9664
G1 X96.94 Y108.011 E11.04702
G1 X100.853 Y108.323 E11.24286
G1 X102.523 Y108.422 E11.32633
G1 X106.361 Y108.576 E11.51796
G1 X108.036 Y108.61 E11.60154
G1 X111.99 Y108.609 E11.79881
G1 X113.69 Y108.574 E11.88364
G1 X117.515 Y108.42 E12.07462
G1 X119.229 Y108.318 E12.16029
G1 X123.052 Y108.012 E12.35163
G1 X124.72 Y107.845 E12.43526
G1 X128.65 Y107.373 E12.63274
G1 X130.287 Y107.142 E12.71522
G1 X134.138 Y106.521 E12.90983
G1 X137.012 Y105.999 E13.05556
G1 X137.115 Y105.981 E13.06077
G1 X138.396 Y105.775 E13.1255
G1 X138.829 Y105.724 E13.14726
G1 X139.488 Y105.674 E13.18023
G1 X140.123 Y105.665 E13.21191
G1 X140.983 Y105.705 E13.25486
G1 X141.658 Y105.78 E13.28875
G1 X142.261 Y105.888 E13.31931
G1 X142.524 Y105.943 E13.33271
G1 X142.966 Y106.046 E13.35536
G1 X143.379 Y106.16 E13.37673
G1 X144.019 Y106.366 E13.41027
G1 X144.63 Y106.606 E13.44302
G1 X145.301 Y106.92 E13.47999
G1 X145.724 Y107.142 E13.50382
G1 X146.322 Y107.492 E13.53839
G1 X146.84 Y107.839 E13.56949
G1 X147.393 Y108.259 E13.60414
G1 X147.784 Y108.587 E13.6296
G1 X148.184 Y108.958 E13.65682
G1 X148.333 Y109.102 E13.66716
G1 X148.569 Y109.339 E13.68384
G1 X148.875 Y109.675 E13.70651
G1 X149.295 Y110.178 E13.73921
G1 X149.567 Y110.533 E13.76152
G1 X149.901 Y111.011 E13.79061
G1 X150.231 Y111.551 E13.82219
G1 X150.626 Y112.295 E13.86421
G1 X150.835 Y112.739 E13.88869
G1 X151.026 Y113.199 E13.91354
G1 X151.184 Y113.63 E13.93644
G1 X151.357 Y114.179 E13.96516
G1 X151.468 Y114.591 E13.98645
G1 X151.601 Y115.177 E14.01643
G1 X151.681 Y115.617 E14.03874
G1 X151.774 Y116.291 E14.07268
G1 X151.823 Y116.941 E14.10521
G1 X151.833 Y117.788 E14.14747
G1 X151.795 Y118.476 E14.18184
G1 X151.7 Y119.258 E14.22114
G1 X151.622 Y119.725 E14.24476
G1 X151.486 Y120.357 E14.27702
G1 X151.389 Y120.735 E14.29649
G1 X151.304 Y121.023 E14.31147
G1 X151.15 Y121.469 E14.33501
G1 X150.875 Y122.162 E14.3722
G1 X150.681 Y122.594 E14.39583
G1 X150.369 Y123.21 E14.43028
G1 X150.047 Y123.758 E14.46199
G1 X149.663 Y124.33 E14.49636
G1 X149.375 Y124.72 E14.52055
G1 X149.06 Y125.106 E14.54541
G1 X148.919 Y125.271 E14.55623
G1 X148.562 Y125.673 E14.58306
G1 X148.259 Y125.987 E14.60483
G1 X148.073 Y126.164 E14.61764
G1 X147.767 Y126.433 E14.63796
G1 X147.197 Y126.896 E14.6746
G1 X146.777 Y127.204 E14.70058
G1 X146.303 Y127.516 E14.72889
G1 X145.923 Y127.743 E14.75098
G1 X145.475 Y127.986 E14.7764
G1 X145.273 Y128.09 E14.78774
G1 X144.889 Y128.277 E14.80905
G1 X144.487 Y128.452 E14.83092
G1 X143.962 Y128.655 E14.859
G1 X143.614 Y128.776 E14.87739
G1 X143.422 Y128.835 E14.88741
G1 X143.116 Y128.919 E14.90324
G1 X142.437 Y129.083 E14.93809
G1 X142.102 Y129.152 E14.95515
G1 X141.813 Y129.202 E14.96978
G1 X141.306 Y129.264 E14.99527
G1 X140.445 Y129.327 E15.03834
G1 X139.779 Y129.333 E15.07157
G1 X138.91 Y129.285 E15.11499
G1 X138.466 Y129.241 E15.13725
G1 X138.107 Y129.19 E15.15534
G1 X137.963 Y129.168 E15.1626
G1 X137.594 Y129.105 E15.18128
G1 X137.543 Y129.096 E15.18386
G1 X134.025 Y128.459 E15.36223
G1 X130.242 Y127.853 E15.55337
G1 X128.504 Y127.609 E15.64093
G1 X124.668 Y127.149 E15.83368
G1 X123.06 Y126.989 E15.9143
G1 X119.147 Y126.677 E16.11014
G1 X117.477 Y126.578 E16.1936
G1 X113.639 Y126.424 E16.38524
G1 X111.964 Y126.39 E16.46882
G1 X108.01 Y126.391 E16.66609
G1 X106.31 Y126.426 E16.75092
G1 X102.485 Y126.58 E16.9419
G1 X100.771 Y126.682 E17.02756
G1 X96.948 Y126.988 E17.21891
G1 X95.28 Y127.155 E17.30254
G1 X91.35 Y127.627 E17.50002
G1 X89.713 Y127.858 E17.5825
G1 X85.862 Y128.479 E17.7771
G1 X82.988 Y129.001 E17.92283
G1 X82.885 Y129.019 E17.92805
G1 X81.604 Y129.225 E17.99278
G1 X81.168 Y129.276 E18.01468
G1 X80.503 Y129.326 E18.04795
G1 X79.87 Y129.335 E18.07954
G1 X79.016 Y129.295 E18.12219
G1 X78.342 Y129.22 E18.15602
G1 X77.739 Y129.112 E18.18659
G1 X77.476 Y129.057 E18.19999
G1 X77.034 Y128.954 E18.22263
G1 X76.621 Y128.84 E18.24401
G1 X75.981 Y128.634 E18.27755
G1 X75.37 Y128.394 E18.3103
G1 X74.697 Y128.079 E18.34737
G1 X74.273 Y127.856 E18.37127
G1 X73.677 Y127.507 E18.40573
G1 X73.16 Y127.161 E18.43677
G1 X72.607 Y126.741 E18.47141
G1 X72.216 Y126.413 E18.49687
G1 X71.816 Y126.042 E18.52409
G1 X71.667 Y125.898 E18.53443
G1 X71.431 Y125.661 E18.55112
G1 X71.121 Y125.321 E18.57407
G1 X70.701 Y124.817 E18.6068
G1 X70.438 Y124.472 E18.62845
G1 X70.103 Y123.994 E18.65757
G1 X69.768 Y123.448 E18.68952
G1 X69.373 Y122.704 E18.73155
G1 X69.162 Y122.256 E18.75626
G1 X68.971 Y121.795 E18.78115
G1 X68.814 Y121.365 E18.80399
G1 X68.642 Y120.818 E18.8326
G1 X68.53 Y120.4 E18.85419
G1 X68.396 Y119.805 E18.88461
G1 X68.317 Y119.368 E18.90677
G1 X68.225 Y118.696 E18.94061
G1 X68.177 Y118.053 E18.97278
G1 X68.167 Y117.212 E19.01474
G1 X68.205 Y116.522 E19.04921
G1 X68.3 Y115.741 E19.08847
G1 X68.378 Y115.275 E19.11204
G1 X68.514 Y114.643 E19.14429
G1 X68.611 Y114.265 E19.16376
G1 X68.696 Y113.977 E19.17874
G1 X68.85 Y113.531 E19.20228
G1 X69.125 Y112.838 E19.23948
G1 X69.319 Y112.406 E19.2631
G1 X69.631 Y111.79 E19.29755
G1 X69.953 Y111.242 E19.32926
G1 X70.337 Y110.67 E19.36364
G1 X70.625 Y110.28 E19.38782
G1 X70.94 Y109.894 E19.41268
G1 X71.082 Y109.727 E19.42362
G1 X71.442 Y109.322 E19.45065
G1 X71.746 Y109.009 E19.47242
G1 X71.929 Y108.835 E19.48502
G1 X72.233 Y108.567 E19.50523
G1 X72.794 Y108.111 E19.5413
G0 F1080 X72.803 Y108.104
G0 X73.223 Y107.796
G1 F3000 E13.5413
G1 F300 Z0.65
;MESH:wrench_V1_V2.stl
G0 F6000 X83.244 Y121.036 Z0.65
;TYPE:WALL-INNER
G1 F300 Z0.3
G1 F3000 E19.5413
G1 F1200 X83.393 Y120.893 E19.55161
G1 X83.536 Y120.744 E19.56191
G1 X83.673 Y120.588 E19.57227
G1 X83.808 Y120.422 E19.58294
G1 X83.933 Y120.25 E19.59355
G1 X84.049 Y120.076 E19.60398
G1 X84.155 Y119.899 E19.61428
G1 X84.257 Y119.716 E19.62473
G1 X84.348 Y119.53 E19.63506
G1 X84.435 Y119.337 E19.64562
G1 X84.51 Y119.139 E19.65618
G1 X84.579 Y118.938 E19.66679
G1 X84.685 Y118.543 E19.68719
G1 X84.726 Y118.331 E19.69796
G1 X84.757 Y118.128 E19.70821
G1 X84.782 Y117.918 E19.71876
G1 X84.795 Y117.707 E19.72931
G1 X84.799 Y117.5 E19.73964
G1 X84.795 Y117.28 E19.75061
G1 X84.759 Y116.885 E19.7704
G1 X84.726 Y116.67 E19.78125
G1 X84.685 Y116.457 E19.79207
G1 X84.579 Y116.062 E19.81248
G1 X84.51 Y115.861 E19.82308
G1 X84.435 Y115.663 E19.83364
G1 X84.348 Y115.47 E19.84421
G1 X84.257 Y115.284 E19.85454
G1 X84.155 Y115.101 E19.86499
G1 X84.049 Y114.924 E19.87528
G1 X83.933 Y114.75 E19.88572
G1 X83.808 Y114.578 E19.89632
G1 X83.673 Y114.412 E19.907
G1 X83.536 Y114.256 E19.91736
G1 X83.393 Y114.107 E19.92766
G1 X83.244 Y113.964 E19.93796
G1 X83.088 Y113.827 E19.94832
G1 X82.922 Y113.692 E19.959
G1 X82.75 Y113.567 E19.9696
G1 X82.576 Y113.451 E19.98004
G1 X82.399 Y113.345 E19.99033
G1 X82.216 Y113.243 E20.00078
G1 X82.03 Y113.152 E20.01111
G1 X81.837 Y113.065 E20.02167
G1 X81.639 Y112.99 E20.03224
G1 X81.438 Y112.921 E20.04284
G1 X81.043 Y112.815 E20.06324
G1 X80.831 Y112.774 E20.07402
G1 X80.628 Y112.743 E20.08426
G1 X80.418 Y112.718 E20.09481
G1 X80.207 Y112.705 E20.10536
G1 X80 Y112.701 E20.11569
G1 X79.783 Y112.705 E20.12652
G1 X79.382 Y112.742 E20.14661
G1 X79.17 Y112.774 E20.1573
G1 X78.957 Y112.815 E20.16813
G1 X78.562 Y112.921 E20.18853
G1 X78.361 Y112.99 E20.19913
G1 X78.163 Y113.065 E20.20969
G1 X77.97 Y113.152 E20.22026
G1 X77.784 Y113.243 E20.23059
G1 X77.601 Y113.345 E20.24104
G1 X77.424 Y113.451 E20.25133
G1 X77.25 Y113.567 E20.26177
G1 X77.078 Y113.692 E20.27237
G1 X76.912 Y113.827 E20.28305
G1 X76.756 Y113.964 E20.29341
G1 X76.607 Y114.107 E20.30371
G1 X76.464 Y114.256 E20.31401
G1 X76.327 Y114.412 E20.32437
G1 X76.192 Y114.578 E20.33505
G1 X76.067 Y114.75 E20.34565
G1 X75.951 Y114.924 E20.35609
G1 X75.845 Y115.101 E20.36638
G1 X75.743 Y115.284 E20.37683
G1 X75.652 Y115.47 E20.38716
G1 X75.565 Y115.663 E20.39772
G1 X75.49 Y115.861 E20.40829
G1 X75.421 Y116.062 E20.41889
G1 X75.315 Y116.457 E20.43929
G1 X75.274 Y116.669 E20.45007
G1 X75.243 Y116.872 E20.46031
G1 X75.218 Y117.082 E20.47086
