;FLAVOR:Marlin
;TIME:2668
;Filament used: 2.00627m
;Layer height: 0.2
;MINX:90.882
;MINY:100.898
;MINZ:0.3
;MAXX:129.114
;MAXY:139.123
;MAXZ:15.45
;Generated with Cura_SteamEngine 4.4.1
M140 S60
M105
M190 S60
M104 S205
M105
M109 S205
M82 ;absolute extrusion mode
M201 X500.00 Y500.00 Z100.00 E5000.00 ;Setup machine max acceleration
M203 X500.00 Y500.00 Z10.00 E75.00 ;Setup machine max feedrate
M204 P500.00 R1000.00 T500.00 ;Setup Print/Retract/Travel acceleration
M205 X8.00 Y8.00 Z0.40 E5.00 ;Setup Jerk
M220 S100 ;Reset Feedrate
M221 S100 ;Reset Flowrate

G21 ; (metric values)
G90 ; (absolute positioning)
M82 ; (set extruder to absolute mode)
G28 ; (home all axis)
G29 ; (Auto Level)

G92 E0 ;Reset Extruder
G1 Z2.0 F3000 ;Move Z Axis up
G1 X1.1 Y50 Z0.28 F5000.0 ;Move to start position
G1 X1.1 Y200.0 Z0.28 F1500.0 E15 ;Draw the first line
G1 X1.4 Y200.0 Z0.28 F5000.0 ;Move to side a little
G1 X1.4 Y100 Z0.28 F1500.0 E30 ;Draw the second line
G92 E0 ;Reset Extruder
G1 Z2.0 F3000 ;Move Z Axis up
G92 E0
G92 E0
G1 F3000 E-6
;LAYER_COUNT:75
;LAYER:0
M107
G1 F300 Z0.65
G0 F6000 X96.521 Y106.431 Z0.65
;TYPE:SKIRT
G1 F300 Z0.3
G1 F3000 E0
G1 F1200 X97.406 Y105.622 E0.05982
G1 X97.533 Y105.51 E0.06827
G1 X98.104 Y105.017 E0.1059
G1 X98.773 Y104.516 E0.1476
G1 X99.373 Y104.129 E0.18322
G1 X99.553 Y104.017 E0.1938
G1 X100.766 Y103.294 E0.26425
G1 X100.836 Y103.253 E0.2683
G1 X101.421 Y102.915 E0.30201
G1 X102.034 Y102.606 E0.33625
G1 X102.368 Y102.461 E0.35442
G1 X102.589 Y102.37 E0.36634
G1 X102.829 Y102.277 E0.37919
G1 X102.894 Y102.253 E0.38264
G1 X103.522 Y102.018 E0.41609
G1 X103.607 Y101.986 E0.42063
G1 X104.324 Y101.73 E0.45861
G1 X104.954 Y101.544 E0.49138
G1 X105.85 Y101.331 E0.53733
G1 X106.033 Y101.29 E0.54668
G1 X106.784 Y101.136 E0.58493
G1 X107.278 Y101.056 E0.6099
G1 X107.814 Y100.992 E0.63683
G1 X107.987 Y100.974 E0.64551
G1 X108.609 Y100.918 E0.67666
G1 X109.37 Y100.898 E0.71464
G1 X110.34 Y100.934 E0.76307
G1 X110.486 Y100.941 E0.77036
G1 X112.013 Y101.035 E0.84669
G1 X112.096 Y101.041 E0.85084
G1 X112.732 Y101.089 E0.88266
G1 X113.27 Y101.154 E0.9097
G1 X113.545 Y101.2 E0.92361
G1 X113.727 Y101.234 E0.93285
G1 X113.953 Y101.279 E0.94434
G1 X114.187 Y101.33 E0.95629
G1 X114.826 Y101.484 E0.98908
G1 X115.019 Y101.534 E0.99903
G1 X115.312 Y101.615 E1.0142
G1 X115.653 Y101.72 E1.032
G1 X116.367 Y101.964 E1.06964
G1 X116.499 Y102.011 E1.07663
G1 X117.162 Y102.255 E1.11188
G1 X117.619 Y102.445 E1.13657
G1 X118.26 Y102.743 E1.17184
G1 X118.409 Y102.815 E1.18009
G1 X118.848 Y103.034 E1.20457
G1 X119.332 Y103.304 E1.23222
G1 X120.419 Y103.978 E1.29603
G1 X120.545 Y104.058 E1.30347
G1 X120.89 Y104.284 E1.32405
G1 X121.084 Y104.417 E1.33578
G1 X121.533 Y104.737 E1.36329
G1 X121.822 Y104.956 E1.38138
G1 X122.176 Y105.242 E1.40409
G1 X122.326 Y105.367 E1.41383
G1 X122.743 Y105.727 E1.44131
G1 X123.009 Y105.972 E1.45936
G1 X123.243 Y106.2 E1.47566
G1 X123.378 Y106.335 E1.48518
G1 X123.586 Y106.551 E1.50014
G1 X123.629 Y106.597 E1.50328
G1 X123.96 Y106.948 E1.52735
G1 X124.014 Y107.006 E1.53131
G1 X124.419 Y107.447 E1.56118
G1 X124.667 Y107.735 E1.58014
G1 X124.894 Y108.016 E1.59816
G1 X125.009 Y108.162 E1.60743
G1 X125.391 Y108.666 E1.63898
G1 X125.48 Y108.786 E1.64644
G1 X125.967 Y109.463 E1.68804
G1 X126.365 Y110.097 E1.72539
G1 X126.945 Y111.162 E1.78589
G1 X127.037 Y111.338 E1.7958
G1 X127.339 Y111.939 E1.82936
G1 X127.426 Y112.119 E1.83933
G1 X127.57 Y112.431 E1.85647
G1 X127.865 Y113.207 E1.89789
G1 X128.019 Y113.716 E1.92442
G1 X128.044 Y113.803 E1.92894
G1 X128.55 Y115.571 E2.02069
G1 X128.575 Y115.658 E2.0252
G1 X128.703 Y116.132 E2.0497
G1 X128.788 Y116.494 E2.06825
G1 X128.87 Y116.895 E2.08867
G1 X128.978 Y117.688 E2.1286
G1 X129.003 Y118.054 E2.1469
G1 X129.01 Y118.171 E2.15275
G1 X129.085 Y119.711 E2.22967
G1 X129.088 Y119.789 E2.23356
G1 X129.114 Y120.518 E2.26996
G1 X129.085 Y121.357 E2.31184
G1 X129 Y122.169 E2.35257
G1 X128.972 Y122.4 E2.36418
G1 X128.823 Y123.434 E2.4163
G1 X128.74 Y123.885 E2.43918
G1 X128.669 Y124.203 E2.45543
G1 X128.625 Y124.385 E2.46478
G1 X128.511 Y124.83 E2.48769
G1 X128.466 Y124.998 E2.49637
G1 X128.337 Y125.447 E2.51968
G1 X128.237 Y125.76 E2.53607
G1 X128.091 Y126.18 E2.55826
G1 X128.059 Y126.271 E2.56307
G1 X127.864 Y126.804 E2.59138
G1 X127.832 Y126.889 E2.59591
G1 X127.572 Y127.568 E2.63219
G1 X127.403 Y127.965 E2.65371
G1 X127.264 Y128.262 E2.67007
G1 X127.162 Y128.469 E2.68159
G1 X127.064 Y128.659 E2.69225
G1 X127.014 Y128.756 E2.6977
G1 X126.717 Y129.307 E2.72893
G1 X126.6 Y129.513 E2.74075
G1 X126.48 Y129.716 E2.75251
G1 X126.329 Y129.958 E2.76674
G1 X125.961 Y130.518 E2.80017
G1 X125.914 Y130.59 E2.80446
G1 X125.712 Y130.888 E2.82242
G1 X125.658 Y130.966 E2.82716
G1 X125.292 Y131.488 E2.85896
G1 X124.972 Y131.904 E2.88515
G1 X124.329 Y132.669 E2.935
G1 X124.162 Y132.859 E2.94762
G1 X123.881 Y133.166 E2.96839
G1 X123.586 Y133.467 E2.98941
G1 X122.956 Y134.065 E3.03275
G1 X122.8 Y134.207 E3.04327
G1 X122.462 Y134.506 E3.06579
G1 X122.324 Y134.625 E3.07488
G1 X121.979 Y134.912 E3.09727
G1 X121.426 Y135.321 E3.13158
G1 X121.059 Y135.561 E3.15346
G1 X120.934 Y135.64 E3.16084
G1 X119.332 Y136.632 E3.25484
G1 X119.254 Y136.679 E3.25939
G1 X118.701 Y137.01 E3.29154
G1 X117.938 Y137.396 E3.3342
G1 X116.964 Y137.804 E3.38689
G1 X116.728 Y137.897 E3.39954
G1 X116.382 Y138.025 E3.41795
G1 X116.204 Y138.088 E3.42737
G1 X115.678 Y138.264 E3.45504
G1 X115.32 Y138.371 E3.47368
G1 X114.795 Y138.511 E3.50079
G1 X114.644 Y138.55 E3.50857
G1 X113.845 Y138.741 E3.54955
G1 X113.221 Y138.855 E3.5812
G1 X112.403 Y138.961 E3.62235
G1 X112.298 Y138.974 E3.62763
G1 X111.859 Y139.023 E3.64967
G1 X111.779 Y139.031 E3.65368
G1 X111.066 Y139.101 E3.68942
G1 X110.197 Y139.123 E3.73279
G1 X109.434 Y139.087 E3.7709
G1 X109.247 Y139.076 E3.78025
G1 X107.873 Y138.968 E3.84901
G1 X107.796 Y138.961 E3.85286
G1 X107.141 Y138.901 E3.88568
G1 X106.593 Y138.825 E3.91328
G1 X106.216 Y138.755 E3.93241
G1 X105.996 Y138.71 E3.94361
G1 X105.72 Y138.648 E3.95773
G1 X105.586 Y138.616 E3.9646
G1 X104.943 Y138.456 E3.99766
G1 X104.492 Y138.325 E4.02109
G1 X103.848 Y138.11 E4.05496
G1 X103.722 Y138.067 E4.0616
G1 X103.46 Y137.973 E4.07549
G1 X103.405 Y137.952 E4.07843
G1 X102.775 Y137.719 E4.11194
G1 X102.315 Y137.527 E4.13681
G1 X101.806 Y137.289 E4.16484
G1 X101.66 Y137.219 E4.17292
G1 X101.105 Y136.941 E4.20389
G1 X100.724 Y136.732 E4.22557
G1 X100.445 Y136.566 E4.24176
G1 X100.335 Y136.499 E4.24819
G1 X100.058 Y136.326 E4.26448
G1 X99.994 Y136.286 E4.26825
G1 X99.438 Y135.929 E4.30121
G1 X99.378 Y135.89 E4.30478
G1 X98.762 Y135.484 E4.34159
G1 X98.201 Y135.065 E4.37652
G1 X97.93 Y134.837 E4.39419
G1 X97.805 Y134.729 E4.40243
G1 X97.225 Y134.213 E4.44116
G1 X97.161 Y134.155 E4.44547
G1 X96.651 Y133.688 E4.47997
G1 X96.314 Y133.354 E4.50364
G1 X96.067 Y133.089 E4.52172
G1 X95.958 Y132.969 E4.5298
G1 X95.498 Y132.448 E4.56448
G1 X95.441 Y132.383 E4.56879
G1 X95.098 Y131.983 E4.59508
G1 X94.857 Y131.682 E4.61432
G1 X94.63 Y131.38 E4.63317
G1 X94.331 Y130.944 E4.65954
G1 X94.224 Y130.772 E4.66965
G1 X94.126 Y130.608 E4.67918
G1 X93.1 Y128.835 E4.78138
G1 X93.054 Y128.755 E4.78598
G1 X92.709 Y128.137 E4.82129
G1 X92.407 Y127.513 E4.85588
G1 X92.254 Y127.103 E4.87771
G1 X91.878 Y125.971 E4.93722
G1 X91.831 Y125.823 E4.94497
G1 X91.566 Y124.95 E4.99048
G1 X91.542 Y124.868 E4.99475
G1 X91.34 Y124.167 E5.03114
G1 X91.221 Y123.679 E5.0562
G1 X91.165 Y123.398 E5.0705
G1 X91.117 Y123.128 E5.08418
G1 X91.045 Y122.655 E5.10805
G1 X90.995 Y122.221 E5.12985
G1 X90.918 Y121.238 E5.17904
G1 X90.906 Y121.037 E5.18908
G1 X90.882 Y120.501 E5.21585
G1 X90.883 Y119.951 E5.24329
G1 X90.924 Y119.08 E5.28679
G1 X90.93 Y118.974 E5.29209
G1 X90.969 Y118.372 E5.32219
G1 X90.974 Y118.295 E5.32604
G1 X91.031 Y117.561 E5.36277
G1 X91.124 Y116.875 E5.3973
G1 X91.203 Y116.529 E5.41501
G1 X91.423 Y115.675 E5.45901
G1 X91.462 Y115.53 E5.4665
G1 X91.907 Y113.966 E5.54762
G1 X91.93 Y113.886 E5.55178
G1 X92.128 Y113.225 E5.5862
G1 X92.485 Y112.312 E5.63511
G1 X92.919 Y111.424 E5.68442
G1 X92.97 Y111.322 E5.69011
G1 X93.113 Y111.043 E5.70575
G1 X93.153 Y110.967 E5.71004
G1 X93.472 Y110.366 E5.74398
G1 X93.777 Y109.856 E5.77363
G1 X94.262 Y109.127 E5.81731
G1 X94.392 Y108.938 E5.82876
G1 X94.675 Y108.546 E5.85288
G1 X94.874 Y108.286 E5.86921
G1 X95.064 Y108.051 E5.88429
G1 X95.172 Y107.922 E5.89268
G1 X95.558 Y107.471 E5.9223
G1 X95.622 Y107.396 E5.92722
G1 X96.075 Y106.884 E5.96133
G1 X96.148 Y106.81 E5.96651
G0 F1080 X96.521 Y106.431
G0 F6000 X96.791 Y106.727
G1 F1200 X97.676 Y105.918 E6.02633
G1 X97.794 Y105.812 E6.03425
G1 X98.365 Y105.319 E6.07188
G1 X98.99 Y104.852 E6.11081
G1 X99.59 Y104.465 E6.14643
G1 X99.758 Y104.361 E6.15628
G1 X100.971 Y103.638 E6.22674
G1 X101.036 Y103.599 E6.23052
G1 X101.621 Y103.261 E6.26422
G1 X102.193 Y102.973 E6.29617
G1 X102.527 Y102.828 E6.31434
G1 X102.734 Y102.743 E6.3255
G1 X102.974 Y102.65 E6.33835
G1 X103.034 Y102.627 E6.34155
G1 X103.662 Y102.392 E6.375
G1 X103.742 Y102.363 E6.37925
G1 X104.459 Y102.107 E6.41723
G1 X105.047 Y101.933 E6.44783
G1 X105.943 Y101.72 E6.49377
G1 X106.113 Y101.682 E6.50246
G1 X106.864 Y101.528 E6.54071
G1 X107.325 Y101.453 E6.56401
G1 X107.861 Y101.389 E6.59094
G1 X108.023 Y101.373 E6.59906
G1 X108.645 Y101.317 E6.63022
G1 X109.355 Y101.298 E6.66566
G1 X110.325 Y101.334 E6.71408
G1 X110.461 Y101.341 E6.72088
G1 X111.988 Y101.435 E6.7972
G1 X112.065 Y101.44 E6.80105
G1 X112.701 Y101.488 E6.83287
G1 X113.204 Y101.549 E6.85815
G1 X113.479 Y101.595 E6.87206
G1 X113.649 Y101.626 E6.88068
G1 X113.875 Y101.671 E6.89218
G1 X114.093 Y101.719 E6.90332
G1 X114.732 Y101.873 E6.93611
G1 X114.912 Y101.919 E6.94538
G1 X115.205 Y102 E6.96055
G1 X115.524 Y102.099 E6.97721
G1 X116.238 Y102.343 E7.01485
G1 X116.361 Y102.387 E7.02137
G1 X117.024 Y102.631 E7.05662
G1 X117.451 Y102.808 E7.07968
G1 X118.092 Y103.106 E7.11494
G1 X118.231 Y103.173 E7.12264
G1 X118.67 Y103.392 E7.14712
G1 X119.121 Y103.644 E7.17289
G1 X120.208 Y104.318 E7.2367
G1 X120.326 Y104.393 E7.24368
G1 X120.671 Y104.619 E7.26425
G1 X120.852 Y104.743 E7.2752
G1 X121.301 Y105.063 E7.30271
G1 X121.57 Y105.267 E7.31955
G1 X121.924 Y105.553 E7.34226
G1 X122.064 Y105.67 E7.35136
G1 X122.481 Y106.03 E7.37884
G1 X122.73 Y106.258 E7.39569
G1 X122.964 Y106.486 E7.41199
G1 X123.09 Y106.613 E7.42091
G1 X123.298 Y106.829 E7.43587
G1 X123.338 Y106.871 E7.43877
G1 X123.669 Y107.222 E7.46284
G1 X123.72 Y107.276 E7.46654
G1 X124.125 Y107.717 E7.49641
G1 X124.356 Y107.986 E7.5141
G1 X124.583 Y108.267 E7.53212
G1 X124.69 Y108.403 E7.54076
G1 X125.072 Y108.907 E7.57231
G1 X125.155 Y109.02 E7.5793
G1 X125.642 Y109.697 E7.62091
G1 X126.014 Y110.289 E7.65579
G1 X126.594 Y111.354 E7.71629
G1 X126.68 Y111.518 E7.72553
G1 X126.982 Y112.119 E7.75909
G1 X127.063 Y112.286 E7.76835
G1 X127.207 Y112.598 E7.78549
G1 X127.482 Y113.323 E7.82418
G1 X127.636 Y113.832 E7.85071
G1 X127.66 Y113.913 E7.85492
G1 X128.166 Y115.681 E7.94667
G1 X128.188 Y115.762 E7.95086
G1 X128.316 Y116.236 E7.97535
G1 X128.396 Y116.574 E7.99268
G1 X128.478 Y116.975 E8.0131
G1 X128.579 Y117.715 E8.05036
G1 X128.604 Y118.081 E8.06867
G1 X128.61 Y118.191 E8.07416
G1 X128.685 Y119.731 E8.15108
G1 X128.688 Y119.803 E8.15468
G1 X128.714 Y120.532 E8.19107
G1 X128.688 Y121.315 E8.23016
G1 X128.603 Y122.127 E8.27089
G1 X128.576 Y122.343 E8.28175
G1 X128.427 Y123.377 E8.33387
G1 X128.349 Y123.798 E8.35523
G1 X128.278 Y124.116 E8.37149
G1 X128.238 Y124.286 E8.3802
G1 X128.124 Y124.731 E8.40312
G1 X128.081 Y124.887 E8.41119
G1 X127.952 Y125.336 E8.4345
G1 X127.86 Y125.629 E8.44982
G1 X127.714 Y126.049 E8.472
G1 X127.683 Y126.134 E8.47652
G1 X127.488 Y126.667 E8.50483
G1 X127.459 Y126.746 E8.50903
G1 X127.199 Y127.425 E8.5453
G1 X127.041 Y127.796 E8.56542
G1 X126.902 Y128.093 E8.58178
G1 X126.807 Y128.286 E8.59251
G1 X126.709 Y128.476 E8.60318
G1 X126.661 Y128.566 E8.60827
G1 X126.364 Y129.117 E8.6395
G1 X126.256 Y129.31 E8.65053
G1 X126.136 Y129.513 E8.6623
G1 X125.995 Y129.738 E8.67554
G1 X125.627 Y130.298 E8.70897
G1 X125.582 Y130.365 E8.713
G1 X125.38 Y130.663 E8.73096
G1 X125.33 Y130.736 E8.73538
G1 X124.964 Y131.258 E8.76718
G1 X124.666 Y131.646 E8.79159
G1 X124.023 Y132.411 E8.84145
G1 X123.867 Y132.589 E8.85326
G1 X123.586 Y132.896 E8.87402
G1 X123.31 Y133.177 E8.89367
G1 X122.68 Y133.775 E8.93701
G1 X122.535 Y133.907 E8.94679
G1 X122.197 Y134.206 E8.9693
G1 X122.068 Y134.317 E8.97779
G1 X121.723 Y134.604 E9.00018
G1 X121.207 Y134.986 E9.03221
G1 X120.84 Y135.226 E9.05409
G1 X120.723 Y135.3 E9.061
G1 X119.121 Y136.292 E9.155
G1 X119.049 Y136.336 E9.15921
G1 X118.496 Y136.667 E9.19137
G1 X117.784 Y137.027 E9.23117
G1 X116.81 Y137.435 E9.28385
G1 X116.589 Y137.522 E9.2957
G1 X116.243 Y137.65 E9.31411
G1 X116.077 Y137.709 E9.3229
G1 X115.551 Y137.885 E9.35057
G1 X115.217 Y137.985 E9.36797
G1 X114.692 Y138.125 E9.39507
G1 X114.551 Y138.161 E9.40233
G1 X113.752 Y138.352 E9.44332
G1 X113.17 Y138.459 E9.47284
G1 X112.352 Y138.565 E9.51399
G1 X112.253 Y138.576 E9.51896
G1 X111.814 Y138.625 E9.541
G1 X111.74 Y138.633 E9.54471
G1 X111.027 Y138.703 E9.58046
G1 X110.216 Y138.724 E9.62093
G1 X109.453 Y138.688 E9.65904
G1 X109.278 Y138.677 E9.66779
G1 X107.904 Y138.569 E9.73655
G1 X107.832 Y138.563 E9.74015
G1 X107.177 Y138.503 E9.77297
G1 X106.666 Y138.432 E9.79871
G1 X106.289 Y138.362 E9.81784
G1 X106.084 Y138.32 E9.82828
G1 X105.808 Y138.258 E9.84239
G1 X105.683 Y138.228 E9.8488
G1 X105.04 Y138.068 E9.88186
G1 X104.619 Y137.946 E9.90373
G1 X103.975 Y137.731 E9.9376
G1 X103.857 Y137.69 E9.94383
G1 X103.595 Y137.596 E9.95772
G1 X103.543 Y137.577 E9.96048
G1 X102.913 Y137.344 E9.99399
G1 X102.484 Y137.165 E10.01718
G1 X101.975 Y136.927 E10.04522
G1 X101.839 Y136.861 E10.05276
G1 X101.284 Y136.583 E10.08373
G1 X100.929 Y136.389 E10.10391
G1 X100.65 Y136.223 E10.12011
G1 X100.547 Y136.16 E10.12613
G1 X100.27 Y135.987 E10.14242
G1 X100.21 Y135.949 E10.14597
G1 X99.654 Y135.592 E10.17893
G1 X99.598 Y135.556 E10.18225
G1 X98.982 Y135.15 E10.21906
G1 X98.459 Y134.759 E10.25164
G1 X98.188 Y134.531 E10.26931
G1 X98.071 Y134.43 E10.27702
G1 X97.491 Y133.914 E10.31575
G1 X97.431 Y133.86 E10.31978
G1 X96.921 Y133.393 E10.35428
G1 X96.607 Y133.081 E10.37636
G1 X96.36 Y132.816 E10.39443
G1 X96.258 Y132.704 E10.40199
G1 X95.798 Y132.183 E10.43667
G1 X95.745 Y132.122 E10.4407
G1 X95.402 Y131.722 E10.46699
G1 X95.177 Y131.442 E10.48491
G1 X94.95 Y131.14 E10.50376
G1 X94.671 Y130.733 E10.52837
G1 X94.564 Y130.561 E10.53848
G1 X94.472 Y130.408 E10.54739
G1 X93.446 Y128.635 E10.64958
G1 X93.403 Y128.56 E10.6539
G1 X93.058 Y127.942 E10.68921
G1 X92.768 Y127.339 E10.72259
G1 X92.633 Y126.977 E10.74187
G1 X92.257 Y125.845 E10.80138
G1 X92.213 Y125.707 E10.8086
G1 X91.948 Y124.834 E10.85412
G1 X91.926 Y124.758 E10.85807
G1 X91.724 Y124.057 E10.89446
G1 X91.613 Y123.6 E10.91792
G1 X91.557 Y123.319 E10.93222
G1 X91.513 Y123.068 E10.94493
G1 X91.441 Y122.595 E10.9688
G1 X91.394 Y122.189 E10.98919
G1 X91.317 Y121.206 E11.03839
G1 X91.306 Y121.019 E11.04773
G1 X91.282 Y120.483 E11.0745
G1 X91.282 Y119.97 E11.10009
G1 X91.323 Y119.099 E11.1436
G1 X91.329 Y119 E11.14854
G1 X91.368 Y118.398 E11.17864
G1 X91.373 Y118.326 E11.18224
G1 X91.43 Y117.592 E11.21897
G1 X91.59 Y116.629 E11.26767
G1 X91.81 Y115.775 E11.31167
G1 X91.847 Y115.639 E11.3187
G1 X92.292 Y114.075 E11.39983
G1 X92.314 Y114.001 E11.40368
G1 X92.512 Y113.34 E11.4381
G1 X92.845 Y112.488 E11.48374
G1 X93.279 Y111.6 E11.53305
G1 X93.326 Y111.505 E11.53834
G1 X93.469 Y111.226 E11.55398
G1 X93.507 Y111.155 E11.558
