;FLAVOR:Marlin
;TIME:4590
;Filament used: 2.89852m
;Layer height: 0.2
;MINX:61.788
;MINY:76.046
;MINZ:0.3
;MAXX:158.212
;MAXY:158.96
;MAXZ:4.25
;Generated with Cura_SteamEngine 4.4.1
M140 S60
M105
M190 S60
M104 S205
M105
M109 S205
M82 ;absolute extrusion mode
M201 X500.00 Y500.00 Z100.00 E5000.00 ;Setup machine max acceleration
M203 X500.00 Y500.00 Z10.00 E75.00 ;Setup machine max feedrate
M204 P500.00 R1000.00 T500.00 ;Setup Print/Retract/Travel acceleration
M205 X8.00 Y8.00 Z0.40 E5.00 ;Setup Jerk
M220 S100 ;Reset Feedrate
M221 S100 ;Reset Flowrate

G21 ; (metric values)
G90 ; (absolute positioning)
M82 ; (set extruder to absolute mode)
G28 ; (home all axis)
G29 ; (Auto Level)

G92 E0 ;Reset Extruder
G1 Z2.0 F3000 ;Move Z Axis up
G1 X1.1 Y50 Z0.28 F5000.0 ;Move to start position
G1 X1.1 Y200.0 Z0.28 F1500.0 E15 ;Draw the first line
G1 X1.4 Y200.0 Z0.28 F5000.0 ;Move to side a little
G1 X1.4 Y100 Z0.28 F1500.0 E30 ;Draw the second line
G92 E0 ;Reset Extruder
G1 Z2.0 F3000 ;Move Z Axis up
G92 E0
G92 E0
G1 F3000 E-6
;LAYER_COUNT:19
;LAYER:0
M107
G1 F300 Z0.65
G0 F6000 X67.04 Y77.562 Z0.65
;TYPE:SKIRT
G1 F300 Z0.3
G1 F3000 E0
G1 F1200 X67.552 Y77.17 E0.03217
G1 X68.261 Y76.77 E0.07278
G1 X68.476 Y76.67 E0.08461
G1 X68.615 Y76.608 E0.09221
G1 X68.822 Y76.519 E0.10345
G1 X69.429 Y76.301 E0.13563
G1 X70.2 Y76.14 E0.17492
G1 X70.406 Y76.113 E0.18529
G1 X70.608 Y76.091 E0.19542
G1 X70.87 Y76.067 E0.20855
G1 X71.448 Y76.046 E0.23741
G1 X71.995 Y76.057 E0.2647
G1 X75.859 Y76.056 E0.45748
G1 X76.323 Y76.047 E0.48063
G1 X76.908 Y76.069 E0.50984
G1 X77.186 Y76.095 E0.52377
G1 X77.26 Y76.102 E0.52747
G1 X80.04 Y76.402 E0.66697
G1 X82.745 Y76.617 E0.80235
G1 X85.383 Y76.751 E0.93413
G1 X88.089 Y76.812 E1.06917
G1 X90.766 Y76.796 E1.20273
G1 X93.439 Y76.706 E1.33616
G1 X96.112 Y76.539 E1.46978
G1 X98.836 Y76.291 E1.60624
G1 X100.766 Y76.077 E1.70312
G1 X101.444 Y76.046 E1.73698
G1 X101.995 Y76.057 E1.76447
G1 X105.859 Y76.056 E1.95725
G1 X106.323 Y76.047 E1.9804
G1 X106.908 Y76.069 E2.00961
G1 X107.186 Y76.095 E2.02354
G1 X107.26 Y76.102 E2.02725
G1 X110.04 Y76.402 E2.16675
G1 X112.745 Y76.617 E2.30213
G1 X115.383 Y76.751 E2.43391
G1 X118.089 Y76.812 E2.56894
G1 X120.766 Y76.796 E2.7025
G1 X123.439 Y76.706 E2.83593
G1 X126.112 Y76.539 E2.96955
G1 X128.842 Y76.291 E3.10631
G1 X130.771 Y76.077 E3.20314
G1 X131.448 Y76.046 E3.23695
G1 X131.995 Y76.057 E3.26425
G1 X135.859 Y76.056 E3.45702
G1 X136.323 Y76.047 E3.48018
G1 X136.905 Y76.068 E3.50923
G1 X137.174 Y76.093 E3.52271
G1 X137.39 Y76.118 E3.53356
G1 X137.597 Y76.146 E3.54398
G1 X138.229 Y76.272 E3.57613
G1 X139.021 Y76.551 E3.61802
G1 X139.424 Y76.731 E3.64004
G1 X139.995 Y77.03 E3.6722
G1 X140.682 Y77.527 E3.7145
G1 X140.889 Y77.704 E3.72809
G1 X141.069 Y77.865 E3.74014
G1 X141.216 Y78.003 E3.7502
G1 X141.658 Y78.472 E3.78235
G1 X142.142 Y79.162 E3.8244
G1 X142.365 Y79.542 E3.84638
G1 X142.656 Y80.117 E3.87853
G1 X142.897 Y80.806 E3.91495
G1 X142.951 Y81.004 E3.92519
G1 X143.089 Y81.692 E3.9602
G1 X143.247 Y82.89 E4.02048
G1 X143.266 Y83.052 E4.02862
G1 X143.554 Y85.924 E4.17262
G1 X143.864 Y88.631 E4.30856
G1 X144.237 Y91.24 E4.44005
G1 X144.699 Y93.92 E4.57572
G1 X145.224 Y96.526 E4.70835
G1 X145.835 Y99.168 E4.84364
G1 X146.51 Y101.751 E4.97683
G1 X147.261 Y104.326 E5.11065
G1 X148.083 Y106.877 E5.24437
G1 X148.974 Y109.392 E5.37748
G1 X149.943 Y111.9 E5.51162
G1 X150.984 Y114.385 E5.64604
G1 X152.08 Y116.808 E5.77871
G1 X153.26 Y119.228 E5.91303
G1 X154.506 Y121.611 E6.04719
G1 X155.81 Y123.943 E6.18049
G1 X157.029 Y125.986 E6.29918
G1 X157.214 Y126.324 E6.31841
G1 X157.414 Y126.724 E6.34072
G1 X157.666 Y127.318 E6.37291
G1 X157.803 Y127.772 E6.39657
G1 X157.925 Y128.253 E6.42132
G1 X158.073 Y129.184 E6.46836
G1 X158.098 Y129.558 E6.48706
G1 X158.109 Y129.795 E6.49889
G1 X158.117 Y130.174 E6.51781
G1 X158.118 Y130.234 E6.5208
G1 X158.212 Y140.064 E7.01124
G1 X158.212 Y140.178 E7.01693
G1 X158.201 Y141.076 E7.06173
G1 X158.197 Y141.218 E7.06882
G1 X158.174 Y141.797 E7.09773
G1 X158.159 Y142.032 E7.10948
G1 X158.108 Y142.631 E7.13947
G1 X158.08 Y142.891 E7.15252
G1 X157.992 Y143.538 E7.18509
G1 X157.951 Y143.787 E7.19768
G1 X157.838 Y144.395 E7.22854
G1 X157.788 Y144.634 E7.24072
G1 X157.648 Y145.23 E7.27126
G1 X157.583 Y145.479 E7.2841
G1 X157.402 Y146.108 E7.31676
G1 X157.328 Y146.345 E7.32914
G1 X157.129 Y146.93 E7.35997
G1 X157.044 Y147.161 E7.37225
G1 X156.825 Y147.717 E7.40206
G1 X156.722 Y147.961 E7.41528
G1 X156.445 Y148.571 E7.4487
G1 X156.34 Y148.788 E7.46073
G1 X156.064 Y149.328 E7.49098
G1 X155.942 Y149.553 E7.50375
G1 X155.624 Y150.106 E7.53558
G1 X155.493 Y150.321 E7.54814
G1 X155.173 Y150.82 E7.57771
G1 X155.042 Y151.015 E7.58943
G1 X154.658 Y151.558 E7.62261
G1 X154.501 Y151.768 E7.63569
G1 X154.12 Y152.253 E7.66646
G1 X153.957 Y152.451 E7.67926
G1 X153.541 Y152.93 E7.71091
G1 X153.369 Y153.118 E7.72362
G1 X152.932 Y153.574 E7.75513
G1 X152.757 Y153.748 E7.76745
G1 X152.287 Y154.194 E7.79977
G1 X152.096 Y154.367 E7.81263
G1 X151.635 Y154.763 E7.84295
G1 X151.442 Y154.92 E7.85536
G1 X150.949 Y155.304 E7.88654
G1 X150.748 Y155.453 E7.89902
G1 X150.207 Y155.834 E7.93203
G1 X150.002 Y155.972 E7.94436
G1 X149.5 Y156.291 E7.97403
G1 X149.275 Y156.426 E7.98713
G1 X148.705 Y156.749 E8.01981
G1 X148.495 Y156.861 E8.03169
G1 X147.983 Y157.121 E8.06033
G1 X147.75 Y157.233 E8.07323
G1 X147.141 Y157.505 E8.10651
G1 X146.914 Y157.6 E8.11878
G1 X146.336 Y157.826 E8.14975
G1 X146.094 Y157.914 E8.16259
G1 X145.497 Y158.114 E8.194
G1 X145.262 Y158.186 E8.20627
G1 X144.658 Y158.357 E8.23759
G1 X144.408 Y158.421 E8.25046
G1 X143.796 Y158.562 E8.28179
G1 X143.559 Y158.611 E8.29387
G1 X142.943 Y158.723 E8.3251
G1 X142.679 Y158.764 E8.33843
G1 X142.044 Y158.846 E8.37038
G1 X141.799 Y158.872 E8.38267
G1 X141.184 Y158.922 E8.41345
G1 X140.939 Y158.936 E8.42569
G1 X140.289 Y158.958 E8.45814
G1 X140.035 Y158.96 E8.47081
G1 X139.438 Y158.951 E8.5006
G1 X139.185 Y158.941 E8.51323
G1 X138.526 Y158.899 E8.54618
G1 X138.277 Y158.878 E8.55864
G1 X137.288 Y158.767 E8.6083
G1 X137.237 Y158.761 E8.61086
G1 X135.128 Y158.503 E8.71686
G1 X132.503 Y158.258 E8.84839
G1 X129.795 Y158.082 E8.98378
G1 X127.156 Y157.985 E9.11553
G1 X124.447 Y157.963 E9.25069
G1 X121.771 Y158.016 E9.38422
G1 X119.098 Y158.144 E9.51773
G1 X116.419 Y158.349 E9.65177
G1 X112.692 Y158.762 E9.83885
G1 X112.067 Y158.844 E9.8703
G1 X111.813 Y158.871 E9.88304
G1 X111.183 Y158.922 E9.91458
G1 X110.939 Y158.936 E9.92677
G1 X110.289 Y158.958 E9.95922
G1 X110.035 Y158.96 E9.97189
G1 X109.438 Y158.951 E10.00168
G1 X109.185 Y158.941 E10.01431
G1 X108.526 Y158.899 E10.04726
G1 X108.277 Y158.878 E10.05972
G1 X107.288 Y158.767 E10.10937
G1 X107.237 Y158.761 E10.11194
G1 X105.128 Y158.503 E10.21794
G1 X102.503 Y158.258 E10.34947
G1 X99.795 Y158.082 E10.48486
G1 X97.156 Y157.985 E10.61661
G1 X94.447 Y157.963 E10.75176
G1 X91.771 Y158.016 E10.8853
G1 X89.098 Y158.144 E11.0188
G1 X86.419 Y158.349 E11.15285
G1 X82.692 Y158.762 E11.33993
G1 X82.067 Y158.844 E11.37138
G1 X81.813 Y158.871 E11.38412
G1 X81.183 Y158.922 E11.41566
G1 X80.939 Y158.936 E11.42785
G1 X80.291 Y158.958 E11.4602
G1 X80.037 Y158.96 E11.47287
G1 X79.438 Y158.951 E11.50276
G1 X79.185 Y158.941 E11.51539
G1 X78.526 Y158.899 E11.54833
G1 X78.276 Y158.877 E11.56085
G1 X77.68 Y158.81 E11.59078
G1 X77.428 Y158.776 E11.60346
G1 X76.781 Y158.671 E11.63616
G1 X76.541 Y158.626 E11.64835
G1 X75.953 Y158.502 E11.67833
G1 X75.695 Y158.441 E11.69155
G1 X75.068 Y158.275 E11.72391
G1 X74.841 Y158.209 E11.73571
G1 X74.252 Y158.024 E11.76651
G1 X74.012 Y157.942 E11.77916
G1 X73.423 Y157.725 E11.81048
G1 X73.185 Y157.631 E11.82324
G1 X72.588 Y157.377 E11.85561
G1 X72.36 Y157.273 E11.86811
G1 X71.841 Y157.022 E11.89687
G1 X71.626 Y156.912 E11.90892
G1 X71.049 Y156.599 E11.94167
G1 X70.825 Y156.47 E11.95457
G1 X70.276 Y156.136 E11.98663
G1 X70.059 Y155.997 E11.99949
G1 X69.552 Y155.653 E12.03005
G1 X69.348 Y155.507 E12.04257
G1 X68.829 Y155.117 E12.07496
G1 X68.636 Y154.964 E12.08725
G1 X68.158 Y154.568 E12.11821
G1 X67.968 Y154.403 E12.13077
G1 X67.506 Y153.981 E12.16199
G1 X67.32 Y153.802 E12.17486
G1 X66.876 Y153.354 E12.20633
G1 X66.709 Y153.178 E12.21844
G1 X66.301 Y152.726 E12.24881
G1 X66.136 Y152.534 E12.26144
G1 X65.732 Y152.04 E12.29328
G1 X65.576 Y151.84 E12.30594
G1 X65.207 Y151.341 E12.3369
G1 X65.063 Y151.135 E12.34944
G1 X64.7 Y150.591 E12.38207
G1 X64.563 Y150.376 E12.39479
G1 X64.238 Y149.833 E12.42636
G1 X64.12 Y149.625 E12.43829
G1 X63.849 Y149.121 E12.46684
G1 X63.731 Y148.887 E12.47991
G1 X63.452 Y148.299 E12.51238
G1 X63.35 Y148.069 E12.52494
G1 X63.098 Y147.464 E12.55763
G1 X63.009 Y147.237 E12.5698
G1 X62.798 Y146.655 E12.60068
G1 X62.715 Y146.407 E12.61373
G1 X62.528 Y145.797 E12.64556
G1 X62.46 Y145.552 E12.65825
G1 X62.31 Y144.961 E12.68867
G1 X62.253 Y144.712 E12.70141
G1 X62.173 Y144.316 E12.72157
G1 X62.072 Y143.429 E12.7661
G1 X62.048 Y142.559 E12.80953
G1 X62.046 Y142.468 E12.81407
G1 X61.788 Y116.686 E14.1004
G1 X61.788 Y111.104 E14.37889
G1 X61.789 Y111.028 E14.38268
G1 X61.799 Y110.343 E14.41686
G1 X61.811 Y110.05 E14.43149
G1 X61.837 Y109.685 E14.44974
G1 X61.849 Y109.541 E14.45695
G1 X61.917 Y108.855 E14.49134
G1 X61.918 Y108.85 E14.4916
G1 X64.529 Y82.783 E15.79859
G1 X64.537 Y82.704 E15.80256
G1 X64.605 Y82.116 E15.83209
G1 X64.675 Y81.676 E15.85432
G1 X64.77 Y81.209 E15.87809
G1 X64.938 Y80.587 E15.91023
G1 X65.15 Y80.055 E15.93881
G1 X65.242 Y79.857 E15.9497
G1 X65.502 Y79.368 E15.97733
G1 X65.656 Y79.112 E15.99223
G1 X66.022 Y78.581 E16.02441
G1 X66.571 Y77.984 E16.06487
G1 X66.643 Y77.917 E16.06978
G0 F1080 X66.728 Y77.838
G0 X66.855 Y77.723
G0 X67.04 Y77.562
G1 F3000 E10.06978
G1 F300 Z0.65
;MESH:CurtainClip_17mm.stl(1)
G0 F6000 X71.572 Y82.354 Z0.65
;TYPE:WALL-INNER
G1 F300 Z0.3
G1 F3000 E16.06978
G1 F1200 X71.67 Y82.461 E16.07702
G1 X71.778 Y82.704 E16.09028
G1 X72.55 Y85.411 E16.23072
G1 X72.593 Y85.657 E16.24318
G1 X72.585 Y85.873 E16.25397
G1 X72.532 Y86.075 E16.26438
G1 X72.435 Y86.267 E16.27512
G1 X72.266 Y86.477 E16.28856
G1 X71.054 Y87.688 E16.37404
G1 X71.818 Y88.474 E16.42873
G1 X73.027 Y89.703 E16.51474
G1 X71.014 Y91.683 E16.65561
G1 X71.783 Y92.474 E16.71065
G1 X72.993 Y93.703 E16.79669
G1 X70.978 Y95.682 E16.9376
G1 X71.748 Y96.474 E16.9927
G1 X72.958 Y97.703 E17.07875
G1 X70.939 Y99.685 E17.2199
G1 X72.92 Y101.706 E17.36109
G1 X70.909 Y103.682 E17.50175
G1 X71.645 Y104.439 E17.55442
G1 X72.667 Y105.477 E17.6271
G1 X72.837 Y105.697 E17.64097
G1 X72.933 Y105.905 E17.6524
G1 X72.979 Y106.128 E17.66376
G1 X72.974 Y106.355 E17.67508
G1 X72.915 Y106.579 E17.68664
G1 X72.815 Y106.772 E17.69749
G1 X72.663 Y106.946 E17.70901
G1 X71.914 Y107.494 E17.75531
G1 X71.46 Y108.026 E17.79021
G1 X71.142 Y108.648 E17.82506
G1 X70.974 Y109.327 E17.85995
G1 X70.971 Y110.027 E17.89488
G1 X71.128 Y110.709 E17.92979
G1 X71.437 Y111.336 E17.96467
G1 X71.884 Y111.876 E17.99964
G1 X72.444 Y112.296 E18.03456
G1 X73.086 Y112.575 E18.06949
G1 X73.652 Y112.677 E18.09818
G1 X74.031 Y112.677 E18.11709
G1 X74.322 Y112.661 E18.13163
G1 X74.992 Y112.461 E18.16651
G1 X75.6 Y112.115 E18.20141
G1 X76.109 Y111.634 E18.23635
G1 X76.495 Y111.05 E18.27128
G1 X76.735 Y110.393 E18.30617
G1 X76.809 Y109.756 E18.33817
G1 X76.809 Y106.806 E18.48534
G1 X76.755 Y106.262 E18.51262
G1 X76.58 Y105.692 E18.54236
G1 X76.297 Y105.171 E18.57194
G1 X75.948 Y104.751 E18.59919
G1 X74.863 Y103.684 E18.67511
G1 X76.846 Y101.668 E18.81619
G1 X74.827 Y99.686 E18.95734
G1 X76.811 Y97.666 E19.0986
G1 X74.792 Y95.685 E19.23972
G1 X76.778 Y93.662 E19.38115
G1 X75.983 Y92.889 E19.43647
G1 X74.757 Y91.685 E19.5222
G1 X76.743 Y89.662 E19.66363
G1 X75.948 Y88.889 E19.71895
G1 X74.729 Y87.692 E19.80419
G1 X75.79 Y86.632 E19.87901
G1 X76.166 Y85.811 E19.92406
G1 X75.927 Y85 E19.96624
G1 X75.692 Y84.594 E19.98965
G1 X75.627 Y84.384 E20.00062
G1 X75.61 Y84.151 E20.01227
G1 X75.656 Y83.876 E20.02618
G1 X76.002 Y82.664 E20.08906
G1 X76.097 Y82.461 E20.10025
G1 X76.196 Y82.354 E20.10752
G1 X76.333 Y82.276 E20.11538
G1 X76.475 Y82.247 E20.12261
G1 X76.629 Y82.263 E20.13034
G1 X76.769 Y82.326 E20.138
G1 X76.876 Y82.421 E20.14514
G1 X76.957 Y82.559 E20.15312
G1 X77.009 Y82.791 E20.16498
G1 X79.751 Y110.175 E21.53801
G1 X79.756 Y111.172 E21.58775
G1 X79.579 Y112.11 E21.63537
G1 X79.23 Y112.994 E21.68279
G1 X78.715 Y113.799 E21.73046
G1 X78.065 Y114.485 E21.77761
G1 X77.289 Y115.042 E21.82527
G1 X76.429 Y115.437 E21.87248
G1 X75.493 Y115.665 E21.92055
G1 X74.095 Y115.736 E21.99038
G1 X73.925 Y115.765 E21.99899
G1 X73.714 Y115.765 E22.00951
G1 X72.787 Y115.819 E22.05584
G1 X72.471 Y115.856 E22.07171
G1 X72.13 Y115.936 E22.08919
G1 X71.803 Y116.056 E22.10656
G1 X71.49 Y116.212 E22.12401
G1 X71.198 Y116.404 E22.14145
G1 X70.931 Y116.627 E22.1588
G1 X70.69 Y116.882 E22.17631
G1 X70.483 Y117.161 E22.19364
G1 X70.306 Y117.464 E22.21115
G1 X70.169 Y117.786 E22.2286
G1 X70.067 Y118.119 E22.24598
G1 X70.007 Y118.467 E22.2636
G1 X69.99 Y118.776 E22.27904
G1 X69.988 Y129.544 E22.81625
G1 X69.951 Y129.892 E22.83371
G1 X69.954 Y130.33 E22.85557
G1 X70.049 Y139.921 E23.33409
G1 X70.017 Y140.432 E23.35963
G1 X70.014 Y141.009 E23.38842
G1 X70.045 Y141.585 E23.4172
G1 X70.109 Y142.158 E23.44596
G1 X70.206 Y142.727 E23.47476
G1 X70.334 Y143.29 E23.50356
G1 X70.496 Y143.845 E23.53241
G1 X70.689 Y144.388 E23.56116
G1 X70.914 Y144.92 E23.58998
G1 X71.168 Y145.438 E23.61876
G1 X71.453 Y145.94 E23.64756
G1 X71.765 Y146.425 E23.67633
G1 X72.105 Y146.893 E23.70519
G1 X72.471 Y147.339 E23.73397
G1 X72.864 Y147.763 E23.76282
G1 X73.28 Y148.163 E23.79161
G1 X73.717 Y148.539 E23.82037
G1 X74.175 Y148.889 E23.84913
G1 X74.653 Y149.213 E23.87794
G1 X75.152 Y149.509 E23.90688
G1 X75.663 Y149.773 E23.93558
G1 X76.19 Y150.01 E23.96441
G1 X76.73 Y150.215 E23.99322
G1 X77.279 Y150.388 E24.02194
G1 X77.839 Y150.531 E24.05078
G1 X78.407 Y150.64 E24.07963
G1 X78.979 Y150.715 E24.10841
G1 X79.555 Y150.759 E24.13723
G1 X80.132 Y150.768 E24.16602
G1 X80.709 Y150.745 E24.19483
G1 X81.283 Y150.687 E24.22362
G1 X81.853 Y150.598 E24.2524
G1 X82.418 Y150.474 E24.28126
G1 X82.972 Y150.32 E24.30994
G1 X83.519 Y150.134 E24.33877
G1 X84.055 Y149.915 E24.36765
G1 X84.574 Y149.667 E24.39635
G1 X85.082 Y149.389 E24.42524
G1 X85.57 Y149.082 E24.45401
G1 X86.04 Y148.747 E24.4828
G1 X86.491 Y148.386 E24.51162
G1 X86.918 Y147.999 E24.54037
G1 X87.324 Y147.59 E24.56912
G1 X87.707 Y147.157 E24.59797
G1 X88.062 Y146.701 E24.6268
G1 X88.391 Y146.226 E24.65562
G1 X88.692 Y145.734 E24.6844
G1 X88.964 Y145.225 E24.71319
G1 X89.207 Y144.701 E24.74201
G1 X89.417 Y144.164 E24.77077
G1 X89.598 Y143.616 E24.79957
G1 X89.748 Y143.057 E24.82844
G1 X89.862 Y142.492 E24.8572
G1 X89.945 Y141.921 E24.88599
G1 X89.997 Y141.345 E24.91484
G1 X90.012 Y140.742 E24.94493
G1 X90.008 Y139.386 E25.01258
G1 X89.913 Y129.777 E25.492
G1 X89.921 Y129.65 E25.49835
G1 X89.94 Y129.541 E25.50387
G1 X89.976 Y129.426 E25.50988
G1 X90.026 Y129.313 E25.51605
G1 X90.089 Y129.206 E25.52224
G1 X90.16 Y129.115 E25.528
G1 X90.242 Y129.031 E25.53386
G1 X90.33 Y128.961 E25.53947
G1 X90.448 Y128.887 E25.54642
G1 X90.551 Y128.839 E25.55209
G1 X90.652 Y128.806 E25.55739
G1 X90.78 Y128.781 E25.56389
G1 X90.892 Y128.773 E25.56949
G1 X91.023 Y128.778 E25.57604
G1 X91.145 Y128.798 E25.5822
G1 X91.25 Y128.829 E25.58766
G1 X91.353 Y128.873 E25.59325
G1 X91.463 Y128.936 E25.59958
G1 X91.559 Y129.009 E25.60559
G1 X91.646 Y129.093 E25.61163
G1 X91.712 Y129.175 E25.61688
G1 X91.788 Y129.292 E25.62384
G1 X91.841 Y129.404 E25.63002
G1 X91.873 Y129.498 E25.63498
