;FLAVOR:Marlin
;TIME:7576
;Filament used: 4.74191m
;Layer height: 0.2
;MINX:52.789
;MINY:83.93
;MINZ:0.3
;MAXX:167.205
;MAXY:151.081
;MAXZ:4.25
;Generated with Cura_SteamEngine 4.4.1
M140 S60
M105
M190 S60
M104 S205
M105
M109 S205
M82 ;absolute extrusion mode
M201 X500.00 Y500.00 Z100.00 E5000.00 ;Setup machine max acceleration
M203 X500.00 Y500.00 Z10.00 E75.00 ;Setup machine max feedrate
M204 P500.00 R1000.00 T500.00 ;Setup Print/Retract/Travel acceleration
M205 X8.00 Y8.00 Z0.40 E5.00 ;Setup Jerk
M220 S100 ;Reset Feedrate
M221 S100 ;Reset Flowrate

G21 ; (metric values)
G90 ; (absolute positioning)
M82 ; (set extruder to absolute mode)
G28 ; (home all axis)
G29 ; (Auto Level)

G92 E0 ;Reset Extruder
G1 Z2.0 F3000 ;Move Z Axis up
G1 X1.1 Y50 Z0.28 F5000.0 ;Move to start position
G1 X1.1 Y200.0 Z0.28 F1500.0 E15 ;Draw the first line
G1 X1.4 Y200.0 Z0.28 F5000.0 ;Move to side a little
G1 X1.4 Y100 Z0.28 F1500.0 E30 ;Draw the second line
G92 E0 ;Reset Extruder
G1 Z2.0 F3000 ;Move Z Axis up
G92 E0
G92 E0
G1 F3000 E-6
;LAYER_COUNT:19
;LAYER:0
M107
G1 F300 Z0.65
G0 F6000 X58.795 Y85.062 Z0.65
;TYPE:SKIRT
G1 F300 Z0.3
G1 F3000 E0
G1 F1200 X59.516 Y84.654 E0.04133
G1 X59.731 Y84.554 E0.05316
G1 X59.873 Y84.491 E0.06091
G1 X60.078 Y84.403 E0.07204
G1 X60.685 Y84.186 E0.1042
G1 X61.435 Y84.027 E0.14245
G1 X61.643 Y83.999 E0.15292
G1 X61.866 Y83.974 E0.16412
G1 X62.13 Y83.95 E0.17734
G1 X62.701 Y83.93 E0.20585
G1 X64.061 Y83.956 E0.27371
G1 X66.393 Y83.976 E0.39006
G1 X67.503 Y83.963 E0.44544
G1 X67.702 Y83.965 E0.45537
G1 X68.121 Y83.976 E0.47628
G1 X68.251 Y83.981 E0.48277
G1 X70.366 Y84.089 E0.58843
G1 X73.073 Y84.151 E0.72351
G1 X75.748 Y84.135 E0.85697
G1 X78.425 Y84.044 E0.99061
G1 X80.112 Y83.949 E1.0749
G1 X80.433 Y83.941 E1.09092
G1 X81.591 Y83.947 E1.1487
G1 X81.669 Y83.948 E1.15259
G1 X82.074 Y83.956 E1.1728
G1 X84.393 Y83.976 E1.2885
G1 X85.503 Y83.963 E1.34388
G1 X85.702 Y83.965 E1.35381
G1 X86.121 Y83.976 E1.37472
G1 X86.251 Y83.981 E1.38121
G1 X88.366 Y84.089 E1.48687
G1 X91.073 Y84.151 E1.62195
G1 X93.748 Y84.135 E1.75541
G1 X96.425 Y84.044 E1.88905
G1 X98.112 Y83.949 E1.97334
G1 X98.433 Y83.941 E1.98936
G1 X99.591 Y83.947 E2.04714
G1 X99.619 Y83.947 E2.04853
G1 X102.403 Y83.976 E2.18744
G1 X103.503 Y83.963 E2.24232
G1 X103.702 Y83.965 E2.25225
G1 X104.121 Y83.976 E2.27316
G1 X104.251 Y83.981 E2.27965
G1 X106.366 Y84.089 E2.3853
G1 X109.073 Y84.151 E2.52039
G1 X111.748 Y84.135 E2.65385
G1 X114.425 Y84.044 E2.78748
G1 X116.112 Y83.949 E2.87178
G1 X116.433 Y83.941 E2.8878
G1 X117.591 Y83.947 E2.94558
G1 X117.669 Y83.948 E2.94947
G1 X118.074 Y83.956 E2.96968
G1 X120.393 Y83.976 E3.08538
G1 X121.503 Y83.963 E3.14076
G1 X121.702 Y83.965 E3.15069
G1 X122.121 Y83.976 E3.1716
G1 X122.251 Y83.981 E3.17809
G1 X124.366 Y84.089 E3.28374
G1 X127.073 Y84.151 E3.41883
G1 X129.748 Y84.135 E3.55229
G1 X132.425 Y84.044 E3.68592
G1 X134.112 Y83.949 E3.77022
G1 X134.433 Y83.941 E3.78624
G1 X135.591 Y83.947 E3.84402
G1 X135.669 Y83.948 E3.84791
G1 X136.074 Y83.956 E3.86812
G1 X138.393 Y83.976 E3.98382
G1 X139.503 Y83.963 E4.0392
G1 X139.702 Y83.965 E4.04913
G1 X140.121 Y83.976 E4.07004
G1 X140.251 Y83.981 E4.07653
G1 X142.366 Y84.089 E4.18218
G1 X145.073 Y84.151 E4.31727
G1 X147.748 Y84.135 E4.45073
G1 X150.425 Y84.044 E4.58436
G1 X152.112 Y83.949 E4.66866
G1 X152.433 Y83.941 E4.68468
G1 X153.591 Y83.947 E4.74246
G1 X153.669 Y83.948 E4.74635
G1 X154.074 Y83.956 E4.76656
G1 X156.393 Y83.976 E4.88226
G1 X157.503 Y83.963 E4.93764
G1 X157.933 Y83.976 E4.9591
G1 X158.315 Y84.003 E4.97821
G1 X158.622 Y84.034 E4.9936
G1 X158.821 Y84.06 E5.00361
G1 X159.454 Y84.183 E5.03579
G1 X160.145 Y84.415 E5.07215
G1 X160.33 Y84.492 E5.08215
G1 X160.523 Y84.577 E5.09267
G1 X160.749 Y84.682 E5.1051
G1 X161.316 Y84.989 E5.13727
G1 X161.937 Y85.446 E5.17574
G1 X162.144 Y85.623 E5.18932
G1 X162.324 Y85.784 E5.20137
G1 X162.471 Y85.922 E5.21143
G1 X162.913 Y86.391 E5.24358
G1 X163.371 Y87.038 E5.28313
G1 X163.488 Y87.233 E5.29448
G1 X163.551 Y87.341 E5.30072
G1 X163.66 Y87.533 E5.31173
G1 X163.943 Y88.112 E5.34388
G1 X164.183 Y88.839 E5.38208
G1 X164.239 Y89.063 E5.3936
G1 X164.35 Y89.647 E5.42325
G1 X164.491 Y90.721 E5.4773
G1 X164.509 Y90.879 E5.48523
G1 X167.11 Y116.828 E6.78632
G1 X167.164 Y117.449 E6.81742
G1 X167.183 Y117.774 E6.83366
G1 X167.204 Y118.649 E6.87733
G1 X167.205 Y118.825 E6.88611
G1 X167.201 Y119.233 E6.90646
G1 X167.178 Y119.673 E6.92844
G1 X167.086 Y120.643 E6.97706
G1 X166.872 Y123.303 E7.11019
G1 X166.732 Y125.982 E7.24403
G1 X166.667 Y128.699 E7.37962
G1 X166.67 Y130.787 E7.48379
G1 X166.688 Y132.223 E7.55544
G1 X166.688 Y132.288 E7.55868
G1 X166.689 Y143.137 E8.09994
G1 X166.689 Y143.209 E8.10353
G1 X166.678 Y144.007 E8.14335
G1 X166.642 Y144.546 E8.1703
G1 X166.6 Y144.901 E8.18813
G1 X166.44 Y145.706 E8.22908
G1 X166.367 Y145.964 E8.24246
G1 X166.168 Y146.535 E8.27263
G1 X166.089 Y146.726 E8.28294
G1 X165.849 Y147.229 E8.31074
G1 X165.747 Y147.416 E8.32137
G1 X165.466 Y147.873 E8.34814
G1 X165.347 Y148.046 E8.35861
G1 X165.031 Y148.46 E8.38459
G1 X164.898 Y148.617 E8.39486
G1 X164.324 Y149.196 E8.43554
G1 X164.05 Y149.432 E8.45358
G1 X163.478 Y149.86 E8.48922
G1 X163.3 Y149.975 E8.49979
G1 X162.737 Y150.291 E8.532
G1 X162.482 Y150.414 E8.54613
G1 X161.76 Y150.698 E8.58483
G1 X161.44 Y150.797 E8.60155
G1 X160.677 Y150.971 E8.64059
G1 X160.471 Y151.002 E8.65098
G1 X159.928 Y151.055 E8.6782
G1 X159.546 Y151.072 E8.69728
G1 X159.365 Y151.077 E8.70631
G1 X159.05 Y151.08 E8.72203
G1 X159.001 Y151.08 E8.72447
G1 X150.702 Y151.081 E9.13851
G1 X150.625 Y151.08 E9.14235
G1 X149.738 Y151.067 E9.18661
G1 X149.621 Y151.064 E9.19245
G1 X149.412 Y151.056 E9.20288
G1 X146.706 Y150.989 E9.33793
G1 X143.987 Y151 E9.47358
G1 X142.303 Y151.045 E9.55763
G1 X141.503 Y151.074 E9.59756
G1 X141.365 Y151.077 E9.60445
G1 X141.05 Y151.08 E9.62017
G1 X141.001 Y151.08 E9.62261
G1 X132.702 Y151.081 E10.03665
G1 X132.625 Y151.08 E10.04049
G1 X131.738 Y151.067 E10.08475
G1 X131.621 Y151.064 E10.09059
G1 X131.412 Y151.056 E10.10102
G1 X128.706 Y150.989 E10.23607
G1 X125.987 Y151 E10.37172
G1 X124.303 Y151.045 E10.45577
G1 X123.503 Y151.074 E10.4957
G1 X123.365 Y151.077 E10.50259
G1 X123.05 Y151.08 E10.51831
G1 X123.001 Y151.08 E10.52075
G1 X114.702 Y151.081 E10.93479
G1 X114.625 Y151.08 E10.93863
G1 X113.738 Y151.067 E10.98289
G1 X113.621 Y151.064 E10.98873
G1 X113.412 Y151.056 E10.99916
G1 X110.706 Y150.989 E11.13421
G1 X107.987 Y151 E11.26986
G1 X106.303 Y151.045 E11.3539
G1 X105.503 Y151.074 E11.39384
G1 X105.365 Y151.077 E11.40073
G1 X105.05 Y151.08 E11.41645
G1 X105.001 Y151.08 E11.41889
G1 X96.702 Y151.081 E11.83293
G1 X96.625 Y151.08 E11.83677
G1 X95.738 Y151.067 E11.88103
G1 X95.621 Y151.064 E11.88687
G1 X95.412 Y151.056 E11.8973
G1 X92.706 Y150.989 E12.03235
G1 X89.987 Y151 E12.168
G1 X88.303 Y151.045 E12.25204
G1 X87.503 Y151.074 E12.29198
G1 X87.365 Y151.077 E12.29887
G1 X87.05 Y151.08 E12.31458
G1 X87.001 Y151.08 E12.31703
G1 X78.702 Y151.081 E12.73107
G1 X78.625 Y151.08 E12.73491
G1 X77.738 Y151.067 E12.77917
G1 X77.621 Y151.064 E12.78501
G1 X77.412 Y151.056 E12.79544
G1 X74.706 Y150.989 E12.93049
G1 X71.987 Y151 E13.06614
G1 X70.303 Y151.045 E13.15018
G1 X69.503 Y151.074 E13.19012
G1 X69.365 Y151.077 E13.19701
G1 X69.05 Y151.08 E13.21272
G1 X69.001 Y151.08 E13.21517
G1 X60.702 Y151.081 E13.62921
G1 X60.626 Y151.08 E13.633
G1 X59.859 Y151.069 E13.67127
G1 X59.342 Y151.036 E13.69711
G1 X58.993 Y150.996 E13.71464
G1 X58.217 Y150.847 E13.75406
G1 X57.986 Y150.784 E13.76601
G1 X57.397 Y150.585 E13.79703
G1 X57.173 Y150.494 E13.80909
G1 X56.65 Y150.247 E13.83794
G1 X56.462 Y150.145 E13.84861
G1 X55.946 Y149.824 E13.87893
G1 X55.763 Y149.695 E13.8901
G1 X55.342 Y149.365 E13.91679
G1 X55.186 Y149.229 E13.92712
G1 X54.673 Y148.714 E13.96338
G1 X54.446 Y148.452 E13.98068
G1 X54.014 Y147.877 E14.01656
G1 X53.905 Y147.709 E14.02655
G1 X53.621 Y147.214 E14.05502
G1 X53.52 Y147.013 E14.06624
G1 X53.272 Y146.437 E14.09753
G1 X53.18 Y146.181 E14.1111
G1 X52.995 Y145.535 E14.14463
G1 X52.947 Y145.316 E14.15581
G1 X52.837 Y144.534 E14.19521
G1 X52.804 Y144.017 E14.22106
G1 X52.793 Y143.734 E14.23518
G1 X52.79 Y143.411 E14.2513
G1 X52.79 Y143.363 E14.25369
G1 X52.789 Y121.544 E15.34225
G1 X52.79 Y121.471 E15.34589
G1 X52.8 Y120.762 E15.38127
G1 X52.811 Y120.478 E15.39545
G1 X52.834 Y120.144 E15.41215
G1 X52.848 Y119.983 E15.42021
G1 X55.784 Y90.666 E16.89016
G1 X55.792 Y90.592 E16.89387
G1 X55.859 Y90.007 E16.92325
G1 X55.932 Y89.552 E16.94624
G1 X56.028 Y89.085 E16.97003
G1 X56.196 Y88.463 E17.00217
G1 X56.397 Y87.959 E17.02924
G1 X56.489 Y87.759 E17.04022
G1 X56.757 Y87.252 E17.06883
G1 X56.911 Y86.996 E17.08374
G1 X57.277 Y86.465 E17.11591
G1 X57.838 Y85.857 E17.15719
G1 X57.996 Y85.711 E17.16792
G1 X58.101 Y85.617 E17.17495
G1 X58.285 Y85.456 E17.18715
G1 X58.374 Y85.387 E17.19277
G0 F1080 X58.795 Y85.062
G1 F3000 E11.19277
G1 F300 Z0.65
;MESH:CurtainClip_5mm.stl(5)
G0 F6000 X67.203 Y96.808 Z0.65
;TYPE:WALL-INNER
G1 F300 Z0.3
G1 F3000 E17.19277
G1 F1200 X65.984 Y95.611 E17.278
G1 X67.045 Y94.551 E17.35282
G1 X67.421 Y93.73 E17.39788
G1 X67.182 Y92.919 E17.44006
G1 X66.947 Y92.513 E17.46346
G1 X66.882 Y92.303 E17.47443
G1 X66.865 Y92.07 E17.48608
G1 X66.911 Y91.795 E17.49999
G1 X67.259 Y90.579 E17.5631
G1 X67.353 Y90.379 E17.57412
G1 X67.451 Y90.273 E17.58132
G1 X67.588 Y90.195 E17.58919
G1 X67.73 Y90.166 E17.59642
G1 X67.884 Y90.182 E17.60414
G1 X68.025 Y90.245 E17.61185
G1 X68.13 Y90.339 E17.61888
G1 X68.212 Y90.478 E17.62693
G1 X68.259 Y90.689 E17.63772
G1 X71.006 Y118.094 E19.01181
G1 X71.011 Y119.091 E19.06155
G1 X70.834 Y120.029 E19.10917
G1 X70.485 Y120.913 E19.15659
G1 X69.996 Y121.679 E19.20193
G1 X69.304 Y122.416 E19.25236
G1 X68.544 Y122.961 E19.29902
G1 X67.684 Y123.356 E19.34624
G1 X66.748 Y123.584 E19.3943
G1 X65.456 Y123.649 E19.45884
G1 X65.205 Y123.649 E19.47136
G1 X63.796 Y123.717 E19.54174
G1 X63.497 Y123.75 E19.55675
G1 X63.178 Y123.82 E19.57304
G1 X62.871 Y123.925 E19.58923
G1 X62.578 Y124.061 E19.60534
G1 X62.298 Y124.23 E19.62166
G1 X62.041 Y124.427 E19.63781
G1 X61.807 Y124.649 E19.65391
G1 X61.597 Y124.897 E19.67012
G1 X61.414 Y125.167 E19.68639
G1 X61.263 Y125.453 E19.70253
G1 X61.143 Y125.753 E19.71865
G1 X61.057 Y126.068 E19.73494
G1 X61.005 Y126.39 E19.75121
G1 X60.99 Y126.677 E19.76555
G1 X60.989 Y139.907 E20.4256
G1 X61.004 Y140.181 E20.43929
G1 X61.052 Y140.504 E20.45558
G1 X61.135 Y140.811 E20.47144
G1 X61.247 Y141.102 E20.487
G1 X61.39 Y141.381 E20.50264
G1 X61.559 Y141.642 E20.51815
G1 X61.755 Y141.888 E20.53385
G1 X61.982 Y142.115 E20.54986
G1 X62.228 Y142.311 E20.56556
G1 X62.489 Y142.48 E20.58107
G1 X62.768 Y142.623 E20.59671
G1 X63.059 Y142.735 E20.61227
G1 X63.364 Y142.818 E20.62804
G1 X63.677 Y142.865 E20.64383
G1 X63.962 Y142.881 E20.65807
G1 X65.516 Y142.881 E20.7356
G1 X65.801 Y142.865 E20.74984
G1 X66.113 Y142.818 E20.76558
G1 X66.419 Y142.735 E20.7814
G1 X66.709 Y142.623 E20.79691
G1 X66.989 Y142.48 E20.81259
G1 X67.252 Y142.311 E20.82819
G1 X67.497 Y142.113 E20.8439
G1 X67.72 Y141.89 E20.85964
G1 X67.918 Y141.645 E20.87535
G1 X68.088 Y141.382 E20.89098
G1 X68.231 Y141.104 E20.90657
G1 X68.344 Y140.809 E20.92234
G1 X68.425 Y140.505 E20.93803
G1 X68.473 Y140.195 E20.95368
G1 X68.489 Y139.908 E20.96802
G1 X68.489 Y131.71 E21.37702
G1 X68.496 Y131.569 E21.38406
G1 X68.513 Y131.467 E21.38922
G1 X68.539 Y131.374 E21.39404
G1 X68.592 Y131.244 E21.40105
G1 X68.63 Y131.171 E21.40515
G1 X68.692 Y131.079 E21.41069
G1 X68.764 Y130.994 E21.41624
G1 X68.848 Y130.915 E21.422
G1 X68.929 Y130.854 E21.42706
G1 X69.018 Y130.799 E21.43228
G1 X69.112 Y130.756 E21.43743
G1 X69.221 Y130.72 E21.44316
G1 X69.32 Y130.698 E21.44822
G1 X69.445 Y130.684 E21.45449
G1 X69.547 Y130.684 E21.45958
G1 X69.645 Y130.695 E21.4645
G1 X69.764 Y130.721 E21.47058
G1 X69.858 Y130.752 E21.47552
G1 X69.956 Y130.798 E21.48092
G1 X70.048 Y130.854 E21.48629
G1 X70.123 Y130.911 E21.49099
G1 X70.219 Y131.002 E21.49759
G1 X70.285 Y131.079 E21.50265
G1 X70.339 Y131.159 E21.50747
G1 X70.395 Y131.264 E21.5134
G1 X70.436 Y131.367 E21.51893
G1 X70.465 Y131.469 E21.52422
G1 X70.483 Y131.578 E21.52974
G1 X70.488 Y131.683 E21.53498
G1 X70.489 Y143.833 E22.14115
G1 X70.482 Y143.981 E22.14854
G1 X70.462 Y144.102 E22.15466
G1 X70.442 Y144.181 E22.15872
G1 X70.403 Y144.284 E22.16422
G1 X70.352 Y144.382 E22.16973
G1 X70.289 Y144.48 E22.17554
G1 X70.24 Y144.541 E22.17945
G1 X70.165 Y144.616 E22.18474
G1 X70.071 Y144.692 E22.19077
G1 X69.987 Y144.747 E22.19578
G1 X69.889 Y144.796 E22.20124
G1 X69.802 Y144.83 E22.2059
G1 X69.697 Y144.859 E22.21134
G1 X69.606 Y144.873 E22.21593
G1 X69.45 Y144.88 E22.22372
G1 X60.036 Y144.881 E22.69339
G1 X59.879 Y144.874 E22.70123
G1 X59.79 Y144.86 E22.70572
G1 X59.677 Y144.829 E22.71157
G1 X59.582 Y144.793 E22.71664
G1 X59.488 Y144.745 E22.7219
G1 X59.398 Y144.687 E22.72725
G1 X59.318 Y144.622 E22.73239
G1 X59.248 Y144.552 E22.73733
G1 X59.183 Y144.472 E22.74247
G1 X59.125 Y144.382 E22.74781
G1 X59.077 Y144.287 E22.75312
G1 X59.04 Y144.191 E22.75825
G1 X59.01 Y144.08 E22.76399
G1 X58.995 Y143.981 E22.76899
G1 X58.99 Y143.89 E22.77353
G1 X58.989 Y120.885 E23.92126
G1 X62.015 Y90.669 E25.43628
G1 X62.066 Y90.443 E25.44784
G1 X62.147 Y90.305 E25.45582
G1 X62.254 Y90.21 E25.46296
G1 X62.394 Y90.147 E25.47062
G1 X62.548 Y90.131 E25.47834
G1 X62.69 Y90.16 E25.48558
G1 X62.827 Y90.238 E25.49344
G1 X62.925 Y90.345 E25.50068
G1 X63.033 Y90.588 E25.51395
G1 X63.805 Y93.295 E25.65438
G1 X63.848 Y93.541 E25.66684
G1 X63.84 Y93.757 E25.67763
G1 X63.787 Y93.959 E25.68805
G1 X63.69 Y94.151 E25.69878
G1 X63.521 Y94.361 E25.71223
G1 X62.309 Y95.572 E25.7977
G1 X63.073 Y96.358 E25.85239
G1 X64.282 Y97.587 E25.9384
G1 X62.269 Y99.567 E26.07927
G1 X63.038 Y100.358 E26.13431
G1 X64.248 Y101.587 E26.22035
G1 X62.233 Y103.566 E26.36126
G1 X63.003 Y104.358 E26.41637
G1 X64.213 Y105.587 E26.50241
G1 X62.194 Y107.569 E26.64356
G1 X64.175 Y109.59 E26.78475
G1 X62.164 Y111.566 E26.92541
G1 X62.9 Y112.323 E26.97808
G1 X63.922 Y113.361 E27.05076
G1 X64.092 Y113.581 E27.06463
G1 X64.188 Y113.789 E27.07606
G1 X64.234 Y114.012 E27.08742
G1 X64.229 Y114.239 E27.09875
G1 X64.17 Y114.463 E27.1103
G1 X64.07 Y114.656 E27.12115
G1 X63.918 Y114.83 E27.13267
G1 X63.169 Y115.378 E27.17897
G1 X62.715 Y115.91 E27.21387
G1 X62.397 Y116.532 E27.24872
G1 X62.229 Y117.211 E27.28362
G1 X62.226 Y117.911 E27.31854
G1 X62.383 Y118.593 E27.35345
G1 X62.692 Y119.22 E27.38833
G1 X63.139 Y119.76 E27.4233
G1 X63.699 Y120.18 E27.45822
G1 X64.341 Y120.459 E27.49315
G1 X64.958 Y120.57 E27.52442
G1 X65.596 Y120.57 E27.55625
G1 X66.245 Y120.382 E27.58996
G1 X66.855 Y120.034 E27.625
G1 X67.364 Y119.553 E27.65994
G1 X67.75 Y118.969 E27.69487
G1 X67.99 Y118.312 E27.72976
G1 X68.064 Y117.675 E27.76176
G1 X68.064 Y114.725 E27.90893
G1 X68.01 Y114.181 E27.93621
G1 X67.835 Y113.611 E27.96595
G1 X67.552 Y113.09 E27.99553
G1 X67.203 Y112.67 E28.02278
G1 X66.118 Y111.603 E28.0987
G1 X68.101 Y109.587 E28.23978
G1 X66.082 Y107.605 E28.38093
G1 X68.066 Y105.585 E28.52219
G1 X66.047 Y103.604 E28.6633
G1 X68.033 Y101.581 E28.80474
G1 X67.238 Y100.808 E28.86006
G1 X66.012 Y99.604 E28.94579
G1 X67.998 Y97.581 E29.08722
G1 X67.584 Y97.179 E29.11601
G0 F1080 X67.203 Y96.808
G0 F6000 X66.924 Y97.095
G1 F1200 X65.416 Y95.613 E29.2215
G1 X66.711 Y94.319 E29.31283
G1 X66.995 Y93.699 E29.34685
G1 X66.812 Y93.078 E29.37915
G1 X66.578 Y92.674 E29.40244
G1 X66.486 Y92.376 E29.418
G1 X66.463 Y92.049 E29.43436
G1 X66.52 Y91.707 E29.45166
G1 X66.882 Y90.441 E29.51735
