;FLAVOR:Marlin
;TIME:11893
;Filament used: 7.82152m
;Layer height: 0.2
;MINX:60.8
;MINY:55.511
;MINZ:0.3
;MAXX:166.2
;MAXY:181.693
;MAXZ:37.1
;Generated with Cura_SteamEngine 4.4.1
M140 S60
M105
M190 S60
M104 S205
M105
M109 S205
M82 ;absolute extrusion mode
M201 X500.00 Y500.00 Z100.00 E5000.00 ;Setup machine max acceleration
M203 X500.00 Y500.00 Z10.00 E75.00 ;Setup machine max feedrate
M204 P500.00 R1000.00 T500.00 ;Setup Print/Retract/Travel acceleration
M205 X8.00 Y8.00 Z0.40 E5.00 ;Setup Jerk
M220 S100 ;Reset Feedrate
M221 S100 ;Reset Flowrate

G21 ; (metric values)
G90 ; (absolute positioning)
M82 ; (set extruder to absolute mode)
G28 ; (home all axis)
G29 ; (Auto Level)

G92 E0 ;Reset Extruder
G1 Z2.0 F3000 ;Move Z Axis up
G1 X1.1 Y50 Z0.28 F5000.0 ;Move to start position
G1 X1.1 Y200.0 Z0.28 F1500.0 E15 ;Draw the first line
G1 X1.4 Y200.0 Z0.28 F5000.0 ;Move to side a little
G1 X1.4 Y100 Z0.28 F1500.0 E30 ;Draw the second line
G92 E0 ;Reset Extruder
G1 Z2.0 F3000 ;Move Z Axis up
G92 E0
G92 E0
G1 F3000 E-6
;LAYER_COUNT:185
;LAYER:0
M107
G1 F300 Z0.65
G0 F6000 X67.218 Y57.614 Z0.65
;TYPE:SKIRT
G1 F300 Z0.3
G1 F3000 E0
G1 F1200 X67.637 Y57.124 E0.03217
G1 X68.113 Y56.69 E0.0643
G1 X68.639 Y56.318 E0.09644
G1 X69.208 Y56.013 E0.12865
G1 X69.809 Y55.782 E0.16077
G1 X70.435 Y55.626 E0.19296
G1 X70.905 Y55.562 E0.21663
G1 X71.237 Y55.532 E0.23326
G1 X71.705 Y55.511 E0.25663
G1 X79.918 Y55.511 E0.66638
G1 X79.992 Y55.512 E0.67007
G1 X80.69 Y55.522 E0.7049
G1 X81.333 Y55.571 E0.73707
G1 X81.965 Y55.699 E0.76924
G1 X82.538 Y55.889 E0.79936
G1 X83.345 Y56.21 E0.84269
G1 X83.431 Y56.245 E0.84732
G1 X84.307 Y56.612 E0.8947
G1 X86.805 Y57.576 E1.02829
G1 X89.344 Y58.473 E1.16263
G1 X91.882 Y59.292 E1.29568
G1 X94.448 Y60.038 E1.429
G1 X97.08 Y60.725 E1.56471
G1 X99.671 Y61.324 E1.69739
G1 X102.309 Y61.853 E1.83162
G1 X104.927 Y62.303 E1.96414
G1 X107.62 Y62.687 E2.09986
G1 X110.246 Y62.987 E2.23172
G1 X112.941 Y63.218 E2.36667
G1 X115.586 Y63.37 E2.49885
G1 X118.29 Y63.447 E2.6338
G1 X120.966 Y63.449 E2.76731
G1 X123.643 Y63.374 E2.90092
G1 X126.315 Y63.225 E3.03443
G1 X129.009 Y62.997 E3.16932
G1 X131.643 Y62.699 E3.30157
G1 X134.349 Y62.316 E3.43791
G1 X136.952 Y61.87 E3.56967
G1 X139.574 Y61.346 E3.70307
G1 X139.923 Y61.268 E3.72091
G1 X140.048 Y61.242 E3.72728
G1 X140.365 Y61.179 E3.74341
G1 X141.22 Y61.081 E3.78634
G1 X141.546 Y61.071 E3.80261
G1 X141.705 Y61.069 E3.81055
G1 X149.918 Y61.069 E4.22029
G1 X149.994 Y61.07 E4.22409
G1 X150.675 Y61.08 E4.25807
G1 X151.318 Y61.129 E4.29024
G1 X151.95 Y61.258 E4.32242
G1 X152.561 Y61.463 E4.35457
G1 X153.142 Y61.743 E4.38675
G1 X153.683 Y62.092 E4.41887
G1 X154.178 Y62.506 E4.45106
G1 X154.617 Y62.978 E4.48322
G1 X154.995 Y63.501 E4.51542
G1 X155.366 Y64.202 E4.55498
G1 X156.952 Y67.842 E4.75307
G1 X158.084 Y70.252 E4.88591
G1 X159.709 Y73.435 E5.06421
G1 X160.08 Y74.13 E5.10352
G1 X160.373 Y74.786 E5.13936
G1 X160.561 Y75.298 E5.16657
G1 X160.61 Y75.437 E5.17392
G1 X160.722 Y75.771 E5.1915
G1 X160.818 Y76.091 E5.20817
G1 X160.883 Y76.336 E5.22081
G1 X161.012 Y76.985 E5.25382
G1 X161.114 Y77.754 E5.29253
G1 X161.134 Y77.933 E5.30151
G1 X161.163 Y78.23 E5.3164
G1 X161.187 Y78.645 E5.33714
G1 X161.199 Y79.339 E5.37177
G1 X161.2 Y79.429 E5.37626
G1 X161.2 Y115.875 E7.19456
G1 X161.238 Y118.55 E7.32803
G1 X161.351 Y121.224 E7.46155
G1 X161.541 Y123.898 E7.59529
G1 X161.808 Y126.588 E7.73016
G1 X162.147 Y129.238 E7.86345
G1 X162.565 Y131.901 E7.99793
G1 X163.047 Y134.493 E8.12946
G1 X163.611 Y137.115 E8.26327
G1 X164.259 Y139.759 E8.39908
G1 X164.971 Y142.345 E8.5329
G1 X165.846 Y145.216 E8.68264
G1 X166.03 Y146.074 E8.72641
G1 X166.103 Y146.646 E8.75518
G1 X166.12 Y146.797 E8.76276
G1 X166.162 Y147.226 E8.78427
G1 X166.183 Y147.537 E8.79982
G1 X166.194 Y147.828 E8.81435
G1 X166.198 Y147.986 E8.82223
G1 X166.2 Y148.263 E8.83605
G1 X166.2 Y166.043 E9.7231
G1 X166.199 Y166.117 E9.72679
G1 X166.189 Y166.815 E9.76162
G1 X166.166 Y167.241 E9.78291
G1 X166.117 Y167.748 E9.80832
G1 X166.099 Y167.905 E9.8162
G1 X166.036 Y168.4 E9.8411
G1 X165.916 Y169.033 E9.87324
G1 X165.821 Y169.358 E9.89013
G1 X165.69 Y169.759 E9.91118
G1 X165.631 Y169.929 E9.92016
G1 X165.434 Y170.468 E9.94879
G1 X165.176 Y171.059 E9.98096
G1 X165.011 Y171.355 E9.99787
G1 X164.784 Y171.734 E10.01991
G1 X164.704 Y171.863 E10.02748
G1 X164.408 Y172.326 E10.0549
G1 X164.028 Y172.847 E10.08707
G1 X163.789 Y173.115 E10.10498
G1 X163.413 Y173.509 E10.13215
G1 X163.279 Y173.644 E10.14164
G1 X162.935 Y173.979 E10.1656
G1 X162.446 Y174.4 E10.19779
G1 X162.14 Y174.614 E10.21642
G1 X161.706 Y174.896 E10.24224
G1 X161.575 Y174.979 E10.24998
G1 X161.164 Y175.229 E10.27398
G1 X160.301 Y175.65 E10.32189
G1 X159.846 Y175.822 E10.34615
G1 X159.646 Y175.893 E10.35674
G1 X159.137 Y176.062 E10.3835
G1 X158.513 Y176.227 E10.4157
G1 X158.153 Y176.286 E10.4339
G1 X157.665 Y176.348 E10.45844
G1 X157.511 Y176.365 E10.46617
G1 X157.015 Y176.413 E10.49103
G1 X156.594 Y176.436 E10.51207
G1 X155.943 Y176.446 E10.54455
G1 X155.864 Y176.447 E10.54849
G1 X141.367 Y176.449 E11.27175
G1 X138.692 Y176.487 E11.40522
G1 X136.016 Y176.601 E11.53885
G1 X133.315 Y176.793 E11.67394
G1 X130.679 Y177.055 E11.8061
G1 X128.001 Y177.398 E11.9408
G1 X125.337 Y177.816 E12.07533
G1 X122.727 Y178.302 E12.20778
G1 X120.095 Y178.869 E12.34211
G1 X117.539 Y179.496 E12.47341
G1 X114.892 Y180.224 E12.61037
G1 X112.179 Y181.057 E12.75196
G1 X111.022 Y181.43 E12.81261
G1 X110.398 Y181.59 E12.84474
G1 X109.618 Y181.677 E12.8839
G1 X109.292 Y181.689 E12.90018
G1 X109.101 Y181.693 E12.90971
G1 X72.141 Y181.693 E14.75365
G1 X72.066 Y181.692 E14.75739
G1 X71.371 Y181.682 E14.79207
G1 X70.728 Y181.633 E14.82424
G1 X70.097 Y181.505 E14.85636
G1 X69.486 Y181.299 E14.88853
G1 X68.905 Y181.02 E14.92069
G1 X68.363 Y180.67 E14.95287
G1 X67.868 Y180.257 E14.98504
G1 X67.429 Y179.785 E15.0172
G1 X67.051 Y179.263 E15.04935
G1 X66.741 Y178.697 E15.08155
G1 X66.503 Y178.098 E15.1137
G1 X66.341 Y177.474 E15.14587
G1 X66.248 Y176.641 E15.18768
G1 X66.238 Y176.312 E15.2041
G1 X66.236 Y176.154 E15.21199
G1 X66.236 Y157.731 E16.13111
G1 X66.198 Y155.056 E16.26458
G1 X66.085 Y152.383 E16.39806
G1 X65.895 Y149.708 E16.53185
G1 X65.628 Y147.017 E16.66677
G1 X65.289 Y144.367 E16.80005
G1 X64.871 Y141.704 E16.93454
G1 X64.389 Y139.112 E17.06607
G1 X63.814 Y136.442 E17.20233
G1 X63.189 Y133.892 E17.33332
G1 X62.411 Y131.071 E17.47931
G1 X62.263 Y130.322 E17.5174
G1 X62.194 Y129.759 E17.5457
G1 X62.168 Y129.497 E17.55883
G1 X62.039 Y127.69 E17.64922
G1 X61.769 Y125.011 E17.78355
G1 X61.435 Y122.41 E17.91438
G1 X61.214 Y121.063 E17.98248
G1 X61.202 Y120.985 E17.98642
G1 X60.986 Y119.529 E18.05985
G1 X60.971 Y119.417 E18.06549
G1 X60.909 Y118.926 E18.09018
G1 X60.893 Y118.784 E18.09731
G1 X60.836 Y118.204 E18.12638
G1 X60.812 Y117.781 E18.14752
G1 X60.801 Y117.117 E18.18065
G1 X60.8 Y117.031 E18.18494
G1 X60.8 Y73.899 E20.33681
G1 X60.801 Y73.825 E20.3405
G1 X60.811 Y73.127 E20.37533
G1 X60.834 Y72.705 E20.39641
G1 X60.888 Y72.142 E20.42463
G1 X60.906 Y71.98 E20.43276
G1 X60.974 Y71.447 E20.45957
G1 X61.095 Y70.814 E20.49172
G1 X61.185 Y70.503 E20.50787
G1 X61.357 Y69.972 E20.53572
G1 X61.423 Y69.781 E20.5458
G1 X61.625 Y69.231 E20.57503
G1 X61.923 Y68.566 E20.61139
G1 X62.226 Y68.001 E20.64337
G1 X63.457 Y65.628 E20.77675
G1 X64.641 Y63.179 E20.91246
G1 X65.725 Y60.764 E21.04452
G1 X66.577 Y58.731 E21.1545
G1 X66.863 Y58.153 E21.18667
G1 X66.926 Y58.058 E21.19236
G0 F1080 X67.218 Y57.614
G1 F3000 E15.19236
G1 F300 Z0.65
;MESH:Arm_Extender.stl
G0 F6000 X78.606 Y71.129 Z0.65
;TYPE:WALL-INNER
G1 F300 Z0.3
G1 F3000 E21.19236
G1 F1200 X77.875 Y70.882 E21.23085
G1 X77.639 Y70.823 E21.24299
G1 X76.549 Y70.69 E21.29777
G1 X76.397 Y70.694 E21.30536
G1 X75.465 Y70.697 E21.35186
G1 X74.388 Y70.811 E21.40589
G1 X74.209 Y70.85 E21.41503
G1 X73.475 Y71.093 E21.4536
G1 X73.063 Y71.254 E21.47567
G1 X72.075 Y71.871 E21.53378
G1 X71.301 Y72.638 E21.58815
G1 X71.161 Y72.801 E21.59887
G1 X70.656 Y73.607 E21.64632
G1 X70.524 Y73.854 E21.66029
G1 X70.274 Y74.559 E21.69761
G1 X70.174 Y74.878 E21.71429
G1 X70.137 Y75.039 E21.72253
G1 X69.873 Y77.155 E21.82892
G1 X70 Y77.159 E21.83526
G1 X70 Y114.747 E23.71053
G1 X70.133 Y115.916 E23.76923
G1 X70.539 Y117.079 E23.83068
G1 X71.195 Y118.123 E23.8922
G1 X72.067 Y118.995 E23.95372
G1 X73.111 Y119.651 E24.01524
G1 X74.274 Y120.057 E24.07669
G1 X75.443 Y120.19 E24.13539
G1 X76.557 Y120.19 E24.19097
G1 X77.726 Y120.057 E24.24967
G1 X78.889 Y119.651 E24.31112
G1 X79.933 Y118.995 E24.37264
G1 X80.805 Y118.123 E24.43416
G1 X81.461 Y117.079 E24.49568
G1 X81.867 Y115.916 E24.55713
G1 X82 Y114.747 E24.61583
G1 X82 Y77.196 E26.48926
G1 X82.125 Y77.196 E26.49549
G1 X81.881 Y75.117 E26.59993
G1 X81.827 Y74.872 E26.61244
G1 X81.516 Y73.955 E26.66075
G1 X81.413 Y73.726 E26.67328
G1 X80.875 Y72.858 E26.72423
G1 X80.727 Y72.671 E26.73613
G1 X80.032 Y71.976 E26.78516
G1 X79.895 Y71.861 E26.79408
G1 X79.699 Y71.729 E26.80587
G1 X79.087 Y71.353 E26.84171
G0 F1080 X78.968 Y71.28
G0 X78.779 Y71.195
G0 X78.606 Y71.129
G0 F6000 X78.471 Y71.505
G1 F1200 X77.762 Y71.266 E26.87904
G1 X77.566 Y71.217 E26.88912
G1 X76.53 Y71.091 E26.94118
G1 X76.407 Y71.094 E26.94732
G1 X75.487 Y71.097 E26.99322
G1 X74.452 Y71.206 E27.04514
G1 X74.315 Y71.236 E27.05214
G1 X73.611 Y71.469 E27.08914
G1 X73.244 Y71.613 E27.1088
G1 X72.325 Y72.187 E27.16286
G1 X71.594 Y72.911 E27.21419
G1 X71.484 Y73.039 E27.22261
G1 X71.002 Y73.808 E27.26789
G1 X70.891 Y74.016 E27.27965
G1 X70.653 Y74.686 E27.31513
G1 X70.56 Y74.983 E27.33065
G1 X70.531 Y75.109 E27.3371
G1 X70.324 Y76.77 E27.42061
G1 X70.415 Y76.773 E27.42515
G1 X70.4 Y76.912 E27.43213
G1 X70.4 Y89.773 E28.07377
G1 X70.415 Y89.774 E28.07452
G1 X70.4 Y89.908 E28.08124
G1 X70.4 Y114.724 E29.31932
G1 X70.525 Y115.826 E29.37465
G1 X70.902 Y116.904 E29.43163
G1 X71.51 Y117.872 E29.48866
G1 X72.318 Y118.68 E29.54567
G1 X73.286 Y119.288 E29.6027
G1 X74.364 Y119.665 E29.65967
G1 X75.466 Y119.79 E29.715
G1 X76.534 Y119.79 E29.76829
G1 X77.636 Y119.665 E29.82362
G1 X78.714 Y119.288 E29.88059
G1 X79.682 Y118.68 E29.93762
G1 X80.49 Y117.872 E29.99463
G1 X81.098 Y116.904 E30.05166
G1 X81.475 Y115.826 E30.10864
G1 X81.6 Y114.724 E30.16397
G1 X81.6 Y89.908 E31.40204
G1 X81.585 Y89.774 E31.40877
G1 X81.6 Y89.773 E31.40952
G1 X81.6 Y76.912 E32.05116
G1 X81.587 Y76.796 E32.05698
G1 X81.675 Y76.796 E32.06137
G1 X81.486 Y75.184 E32.14235
G1 X81.441 Y74.98 E32.15277
G1 X81.143 Y74.101 E32.19907
G1 X81.059 Y73.914 E32.2093
G1 X80.547 Y73.088 E32.25778
G1 X80.428 Y72.938 E32.26734
G1 X79.761 Y72.271 E32.3144
G1 X79.654 Y72.181 E32.32137
G1 X79.482 Y72.065 E32.33172
G1 X78.948 Y71.737 E32.36299
G0 F1080 X78.78 Y71.634
G0 X78.625 Y71.564
G0 X78.471 Y71.505
G0 F6000 X78.336 Y71.882
;TYPE:WALL-OUTER
G1 F1200 X77.649 Y71.65 E32.39917
G1 X77.493 Y71.611 E32.40719
G1 X76.51 Y71.492 E32.45659
G1 X76.415 Y71.494 E32.46133
G1 X75.509 Y71.497 E32.50653
G1 X74.516 Y71.601 E32.55634
G1 X74.421 Y71.622 E32.5612
G1 X73.747 Y71.845 E32.59661
G1 X73.425 Y71.972 E32.61388
G1 X72.575 Y72.503 E32.66388
G1 X71.887 Y73.184 E32.71218
G1 X71.807 Y73.277 E32.7183
G1 X71.348 Y74.009 E32.76141
G1 X71.258 Y74.178 E32.77096
G1 X71.032 Y74.813 E32.80459
G1 X70.946 Y75.088 E32.81896
G1 X70.925 Y75.179 E32.82362
G1 X70.775 Y76.385 E32.88425
G1 X70.861 Y76.388 E32.88854
G1 X70.8 Y76.934 E32.91595
G1 X70.8 Y89.386 E33.53719
G1 X70.861 Y89.388 E33.54023
G1 X70.8 Y89.93 E33.56744
G1 X70.8 Y114.701 E34.80327
G1 X70.917 Y115.736 E34.85524
G1 X71.265 Y116.729 E34.90773
G1 X71.825 Y117.621 E34.96028
G1 X72.569 Y118.365 E35.01277
G1 X73.461 Y118.925 E35.06532
G1 X74.454 Y119.273 E35.11781
G1 X75.489 Y119.39 E35.16978
G1 X76.511 Y119.39 E35.22076
G1 X77.546 Y119.273 E35.27273
G1 X78.539 Y118.925 E35.32522
G1 X79.431 Y118.365 E35.37777
G1 X80.175 Y117.621 E35.43026
G1 X80.735 Y116.729 E35.48281
G1 X81.083 Y115.736 E35.5353
G1 X81.2 Y114.701 E35.58727
G1 X81.2 Y89.93 E36.8231
G1 X81.139 Y89.388 E36.85031
G1 X81.2 Y89.386 E36.85336
G1 X81.2 Y76.934 E37.47459
G1 X81.14 Y76.396 E37.5016
G1 X81.225 Y76.396 E37.50584
G1 X81.091 Y75.251 E37.56335
G1 X81.055 Y75.088 E37.57168
G1 X80.77 Y74.247 E37.61598
G1 X80.705 Y74.102 E37.62391
G1 X80.219 Y73.318 E37.66993
G1 X80.129 Y73.204 E37.67717
G1 X79.49 Y72.566 E37.72222
G1 X79.413 Y72.501 E37.72725
G1 X79.266 Y72.402 E37.73609
G1 X78.809 Y72.121 E37.76286
G0 F1080 X78.591 Y71.988
G0 X78.471 Y71.933
G0 X78.336 Y71.882
G0 F6000 X77.957 Y71.754
G0 X78.097 Y71.338
G1 F3000 E31.76286
G1 F300 Z0.65
G0 F6000 X78.148 Y71.186 Z0.65
G0 X71.065 Y121.69
;TYPE:WALL-INNER
G1 F300 Z0.3
G1 F3000 E37.76286
G1 F1200 X70.104 Y121.583 E37.8111
G1 X69.271 Y121.29 E37.85515
G1 X68.51 Y120.812 E37.89999
G1 X67.878 Y120.18 E37.94458
G1 X67.4 Y119.419 E37.98941
G1 X67.107 Y118.586 E38.03347
G1 X67 Y117.625 E38.08171
G1 X67 Y73.257 E40.29524
G1 X67.107 Y72.295 E40.34353
G1 X67.4 Y71.462 E40.38758
G1 X67.877 Y70.704 E40.43226
G1 X68.511 Y70.07 E40.47699
G1 X69.27 Y69.592 E40.52175
G1 X70.104 Y69.299 E40.56585
G1 X71.065 Y69.192 E40.61409
G1 X72.375 Y69.192 E40.67944
G1 X72.375 Y61.711 E41.05267
G1 X79.625 Y61.711 E41.41438
G1 X79.625 Y69.192 E41.7876
G1 X80.935 Y69.192 E41.85296
G1 X81.896 Y69.299 E41.9012
G1 X82.73 Y69.592 E41.9453
G1 X83.489 Y70.07 E41.99005
G1 X84.123 Y70.704 E42.03479
G1 X84.6 Y71.462 E42.07947
G1 X84.893 Y72.295 E42.12352
G1 X85 Y73.257 E42.17181
G1 X85 Y117.625 E44.38534
G1 X84.893 Y118.586 E44.43358
G1 X84.6 Y119.419 E44.47764
G1 X84.122 Y120.18 E44.52247
G1 X83.49 Y120.812 E44.56706
G1 X82.729 Y121.29 E44.6119
G1 X81.896 Y121.583 E44.65595
G1 X80.935 Y121.69 E44.70419
G1 X71.597 Y121.69 E45.17007
G0 F1080 X71.065 Y121.69
G0 F6000 X71.039 Y122.09
G1 F1200 X70.017 Y121.976 E45.22137
G1 X69.094 Y121.651 E45.27019
G1 X68.259 Y121.127 E45.31937
G1 X67.563 Y120.431 E45.36848
G1 X67.039 Y119.596 E45.41766
G1 X66.714 Y118.673 E45.46648
G1 X66.6 Y117.651 E45.51778
G1 X66.6 Y73.231 E47.73391
G1 X66.714 Y72.21 E47.78516
G1 X67.038 Y71.287 E47.83396
G1 X67.565 Y70.45 E47.88331
G1 X68.257 Y69.758 E47.93213
G1 X69.095 Y69.23 E47.98155
G1 X70.019 Y68.906 E48.0304
G1 X71.039 Y68.792 E48.0816
G1 X71.975 Y68.792 E48.1283
G1 X71.975 Y61.311 E48.50153
G1 X80.025 Y61.311 E48.90315
G1 X80.025 Y68.792 E49.27638
G1 X80.961 Y68.792 E49.32307
G1 X81.981 Y68.906 E49.37428
G1 X82.905 Y69.23 E49.42313
G1 X83.743 Y69.758 E49.47254
G1 X84.435 Y70.45 E49.52137
G1 X84.962 Y71.287 E49.57071
G1 X85.286 Y72.21 E49.61952
G1 X85.4 Y73.231 E49.67077
G1 X85.4 Y117.651 E51.88689
G1 X85.286 Y118.673 E51.9382
G1 X84.961 Y119.596 E51.98702
G1 X84.437 Y120.431 E52.0362
G1 X83.741 Y121.127 E52.08531
G1 X82.906 Y121.651 E52.13449
G1 X81.983 Y121.976 E52.18331
G1 X80.961 Y122.09 E52.23461
G1 X71.571 Y122.09 E52.70308
G0 F1080 X71.039 Y122.09
G0 F6000 X71.013 Y122.49
;TYPE:WALL-OUTER
G1 F1200 X69.932 Y122.369 E52.75735
G1 X68.915 Y122.012 E52.81112
G1 X68.008 Y121.442 E52.86457
G1 X67.248 Y120.682 E52.91819
G1 X66.678 Y119.775 E52.97163
G1 X66.321 Y118.758 E53.02541
G1 X66.2 Y117.677 E53.07967
G1 X66.2 Y73.204 E55.29844
G1 X66.321 Y72.124 E55.35266
G1 X66.677 Y71.11 E55.40628
G1 X67.25 Y70.199 E55.45997
G1 X68.006 Y69.443 E55.51331
G1 X68.918 Y68.869 E55.56707
G1 X69.932 Y68.513 E55.62069
G1 X71.013 Y68.392 E55.67495
G1 X71.575 Y68.392 E55.70299
G1 X71.575 Y60.911 E56.07622
G1 X80.425 Y60.911 E56.51775
G1 X80.425 Y68.392 E56.89098
G1 X80.987 Y68.392 E56.91902
G1 X82.068 Y68.513 E56.97328
G1 X83.082 Y68.869 E57.0269
G1 X83.994 Y69.443 E57.08066
G1 X84.75 Y70.199 E57.134
