;FLAVOR:Marlin
;TIME:4795
;Filament used: 6.68023m
;Layer height: 0.3
;MINX:74.294
;MINY:97.7
;MINZ:0.4
;MAXX:145.705
;MAXY:137.3
;MAXZ:30.1
;Generated with Cura_SteamEngine 4.4.1
M140 S60
M105
M190 S60
M104 S205
M105
M109 S205
M82 ;absolute extrusion mode
M201 X500.00 Y500.00 Z100.00 E5000.00 ;Setup machine max acceleration
M203 X500.00 Y500.00 Z10.00 E75.00 ;Setup machine max feedrate
M204 P500.00 R1000.00 T500.00 ;Setup Print/Retract/Travel acceleration
M205 X8.00 Y8.00 Z0.40 E5.00 ;Setup Jerk
M220 S100 ;Reset Feedrate
M221 S100 ;Reset Flowrate

G21 ; (metric values)
G90 ; (absolute positioning)
M82 ; (set extruder to absolute mode)
G28 ; (home all axis)
G29 ; (Auto Level)

G92 E0 ;Reset Extruder
G1 Z2.0 F3000 ;Move Z Axis up
G1 X1.1 Y50 Z0.28 F5000.0 ;Move to start position
G1 X1.1 Y200.0 Z0.28 F1500.0 E15 ;Draw the first line
G1 X1.4 Y200.0 Z0.28 F5000.0 ;Move to side a little
G1 X1.4 Y100 Z0.28 F1500.0 E30 ;Draw the second line
G92 E0 ;Reset Extruder
G1 Z2.0 F3000 ;Move Z Axis up
G92 E0
G92 E0
G1 F3000 E-6
;LAYER_COUNT:99
;LAYER:0
M107
G1 F300 Z0.7
G0 F6000 X91.606 Y99.323 Z0.7
;TYPE:SKIRT
G1 F300 Z0.4
G1 F3000 E0
G1 F900 X92.086 Y98.884 E0.0662
G1 X92.617 Y98.507 E0.13248
G1 X93.19 Y98.199 E0.19869
G1 X93.797 Y97.962 E0.26501
G1 X94.428 Y97.802 E0.33126
G1 X95.249 Y97.713 E0.41531
G1 X95.572 Y97.703 E0.4482
G1 X95.736 Y97.7 E0.46489
G1 X128.887 Y97.7 E3.83887
G1 X128.963 Y97.701 E3.84661
G1 X129.661 Y97.711 E3.91765
G1 X130.31 Y97.76 E3.98389
G1 X130.948 Y97.888 E4.05012
G1 X131.565 Y98.094 E4.11632
G1 X132.153 Y98.374 E4.18261
G1 X132.702 Y98.723 E4.24882
G1 X133.204 Y99.138 E4.31511
G1 X133.6 Y99.551 E4.37334
G1 X134.183 Y100.228 E4.46427
G1 X135.992 Y102.28 E4.74268
G1 X137.839 Y104.262 E5.01841
G1 X139.719 Y106.166 E5.29074
G1 X141.641 Y108.007 E5.56161
G1 X143.927 Y110.069 E5.87494
G1 X144.383 Y110.534 E5.94122
G1 X144.778 Y111.051 E6.00744
G1 X145.107 Y111.613 E6.07372
G1 X145.364 Y112.21 E6.13987
G1 X145.547 Y112.835 E6.20615
G1 X145.673 Y113.799 E6.3051
G1 X145.686 Y114.135 E6.33932
G1 X145.69 Y114.335 E6.35968
G1 X145.705 Y131.273 E8.08356
G1 X145.705 Y131.338 E8.09018
G1 X145.697 Y132.05 E8.16265
G1 X145.649 Y132.699 E8.22888
G1 X145.523 Y133.337 E8.29507
G1 X145.319 Y133.955 E8.3613
G1 X145.041 Y134.544 E8.42759
G1 X144.693 Y135.094 E8.49383
G1 X144.28 Y135.597 E8.56007
G1 X143.809 Y136.046 E8.6263
G1 X143.286 Y136.433 E8.69252
G1 X142.72 Y136.754 E8.75874
G1 X142.118 Y137.003 E8.82504
G1 X141.491 Y137.176 E8.89124
G1 X140.561 Y137.287 E8.98656
G1 X140.271 Y137.296 E9.01609
G1 X140.107 Y137.299 E9.03279
G1 X80.301 Y137.3 E15.1196
G1 X80.233 Y137.3 E15.12652
G1 X79.535 Y137.291 E15.19757
G1 X78.886 Y137.242 E15.26381
G1 X78.247 Y137.115 E15.33012
G1 X77.63 Y136.91 E15.39629
G1 X77.042 Y136.631 E15.46253
G1 X76.492 Y136.282 E15.52882
G1 X75.99 Y135.868 E15.59505
G1 X75.542 Y135.396 E15.66128
G1 X75.155 Y134.873 E15.7275
G1 X74.835 Y134.306 E15.79376
G1 X74.587 Y133.704 E15.86002
G1 X74.415 Y133.076 E15.92629
G1 X74.305 Y132.134 E16.02282
G1 X74.296 Y131.801 E16.05672
G1 X74.294 Y131.658 E16.07128
G1 X74.294 Y125.846 E16.6628
G1 X74.295 Y125.772 E16.67033
G1 X74.305 Y125.057 E16.74311
G1 X74.381 Y124.228 E16.82783
G1 X74.492 Y123.586 E16.89414
G1 X74.643 Y122.953 E16.96038
G1 X74.83 Y122.434 E17.01652
G1 X74.936 Y122.182 E17.04435
G1 X75.292 Y121.483 E17.12418
G1 X75.458 Y121.21 E17.1567
G1 X75.979 Y120.497 E17.24658
G1 X76.184 Y120.26 E17.27847
G1 X76.316 Y120.112 E17.29865
G1 X77.121 Y119.249 E17.41877
G1 X78.916 Y117.27 E17.69069
G1 X80.673 Y115.219 E17.96555
G1 X82.332 Y113.166 E18.23419
G1 X83.967 Y111.025 E18.50837
G1 X85.551 Y108.823 E18.78444
G1 X87.041 Y106.622 E19.05495
G1 X88.48 Y104.363 E19.32755
G1 X89.843 Y102.08 E19.59816
G1 X90.236 Y101.378 E19.68004
G1 X90.271 Y101.316 E19.68729
G1 X90.823 Y100.36 E19.79964
G1 X91.183 Y99.817 E19.86595
G1 X91.433 Y99.525 E19.90507
G0 F810 X91.606 Y99.323
G1 F3000 E13.90507
G1 F300 Z0.7
;MESH:Hex_key_holder_small.stl
G0 F6000 X96.044 Y115.989 Z0.7
;TYPE:WALL-INNER
G1 F300 Z0.4
G1 F3000 E19.90507
G1 F900 X92.493 Y122.139 E20.62784
G1 X96.044 Y128.289 E21.35061
G1 X102.884 Y128.289 E22.04676
G1 X103.342 Y127.945 E22.10505
G1 X106.695 Y122.139 E22.78742
G1 X103.144 Y115.989 E23.51019
G1 X96.31 Y115.989 E24.20573
G0 F810 X96.044 Y115.989
G0 F6000 X96.39 Y116.589
;TYPE:WALL-OUTER
G1 F900 X93.186 Y122.139 E24.85796
G1 X96.39 Y127.689 E25.51018
G1 X102.684 Y127.689 E26.15076
G1 X102.884 Y127.539 E26.1762
G1 X106.002 Y122.139 E26.81083
G1 X102.798 Y116.589 E27.46306
G1 X96.656 Y116.589 E28.08817
G0 F810 X96.39 Y116.589
G0 F6000 X96.29 Y116.762
G0 X95.72 Y116.431
G1 F3000 E22.08817
G1 F300 Z0.7
G0 F6000 X110.621 Y116.989 Z0.7
;TYPE:WALL-INNER
G1 F300 Z0.4
G1 F3000 E28.08817
G1 F900 X107.648 Y122.139 E28.69338
G1 X110.625 Y127.289 E29.2988
G1 X116.308 Y127.289 E29.87719
G1 X116.757 Y126.961 E29.93378
G1 X119.541 Y122.139 E30.50047
G1 X116.567 Y116.989 E31.10573
G1 X110.887 Y116.989 E31.68382
G0 F810 X110.621 Y116.989
G0 F6000 X110.967 Y117.589
;TYPE:WALL-OUTER
G1 F900 X108.341 Y122.139 E32.21849
G1 X110.971 Y126.689 E32.75337
G1 X116.112 Y126.689 E33.2766
G1 X116.301 Y126.551 E33.30042
G1 X118.848 Y122.139 E33.8189
G1 X116.221 Y117.589 E34.35363
G1 X111.233 Y117.589 E34.86129
G0 F810 X110.967 Y117.589
G0 F6000 X110.868 Y117.762
G0 X110.297 Y117.432
G1 F3000 E28.86129
G1 F300 Z0.7
G0 F6000 X131.377 Y122.135 Z0.7
;TYPE:WALL-INNER
G1 F300 Z0.4
G1 F3000 E34.86129
G1 F900 X133.491 Y125.789 E35.29093
G1 X137.676 Y125.789 E35.71686
G1 X138.942 Y123.627 E35.97185
G1 X139.498 Y122.676 E36.08397
G1 X139.498 Y123.777 E36.14195
G1 X139.498 Y123.778 E36.14206
G1 X139.505 Y130.801 E36.85683
G1 X139.505 Y131.1 E36.88726
G1 X139.206 Y131.1 E36.90695
G1 X80.494 Y131.1 E42.88243
G1 X80.494 Y125.173 E43.48565
G1 X80.51 Y124.967 E43.50668
G1 X80.55 Y124.803 E43.52386
G1 X80.617 Y124.64 E43.5418
G1 X80.706 Y124.495 E43.55912
G1 X80.819 Y124.364 E43.57672
G1 X80.95 Y124.251 E43.59433
G1 X81.095 Y124.162 E43.61165
G1 X81.258 Y124.095 E43.62958
G1 X81.422 Y124.055 E43.64676
G1 X81.628 Y124.039 E43.66779
G1 X87.601 Y124.039 E44.2757
G1 X88.028 Y124.009 E44.31927
G1 X88.471 Y123.906 E44.36556
G1 X88.893 Y123.734 E44.41194
G1 X89.283 Y123.499 E44.45828
G1 X89.633 Y123.204 E44.50486
G1 X89.929 Y122.86 E44.55105
G1 X90.169 Y122.476 E44.59714
G1 X90.347 Y122.055 E44.64366
G1 X90.456 Y121.613 E44.68999
G1 X90.492 Y121.192 E44.733
G1 X90.494 Y116.045 E45.25684
G1 X90.51 Y115.828 E45.27898
G1 X90.55 Y115.664 E45.29616
G1 X90.617 Y115.501 E45.3141
G1 X90.706 Y115.356 E45.33142
G1 X90.819 Y115.225 E45.34902
G1 X90.95 Y115.112 E45.36663
G1 X91.095 Y115.023 E45.38395
G1 X91.258 Y114.956 E45.40188
G1 X91.422 Y114.916 E45.41906
G1 X91.628 Y114.9 E45.44009
G1 X96.306 Y114.9 E45.9162
G1 X96.306 Y109.86 E46.42915
G1 X96.306 Y109.859 E46.42925
G1 X96.306 Y108.743 E46.54283
G1 X96.864 Y109.71 E46.60158
G1 X97.776 Y111.289 E46.78717
G1 X101.209 Y111.289 E47.13656
G1 X101.633 Y110.906 E47.19472
G1 X103.231 Y108.139 E47.51992
G1 X101.412 Y104.989 E47.89013
G1 X97.776 Y104.989 E48.26019
G1 X96.864 Y106.568 E48.44577
G1 X96.306 Y107.535 E48.5594
G1 X96.306 Y106.419 E48.61812
G1 X96.306 Y106.418 E48.61822
G1 X96.306 Y103.9 E48.8745
G1 X128.694 Y103.9 E52.17082
G1 X128.694 Y114.9 E53.29035
G1 X139.491 Y114.9 E54.38923
G1 X139.496 Y120.483 E54.95744
G1 X139.497 Y120.484 E54.95759
G1 X139.497 Y121.6 E55.07117
G1 X138.938 Y120.634 E55.12993
G1 X137.697 Y118.489 E55.38214
G1 X133.487 Y118.489 E55.81062
G1 X131.51 Y121.905 E56.21231
G0 F810 X131.377 Y122.135
G0 F6000 X132.07 Y122.135
;TYPE:WALL-OUTER
G1 F900 X133.837 Y125.189 E56.57141
G1 X137.332 Y125.189 E56.92712
G1 X139.116 Y122.14 E57.28665
G1 X137.351 Y119.089 E57.64538
G1 X133.833 Y119.089 E58.00343
G1 X132.203 Y121.905 E58.33458
G0 F810 X132.07 Y122.135
G0 F6000 X132.17 Y122.308
G0 X131.598 Y122.637
G1 F3000 E52.33458
G1 F300 Z0.7
G0 F6000 X123.199 Y117.989 Z0.7
;TYPE:WALL-INNER
G1 F300 Z0.4
G1 F3000 E58.33458
G1 F900 X120.802 Y122.139 E58.82235
G1 X122.923 Y125.814 E59.2542
G1 X123.211 Y126.289 E59.31073
G1 X127.738 Y126.289 E59.77147
G1 X128.173 Y125.971 E59.82631
G1 X130.386 Y122.139 E60.27668
G1 X127.985 Y117.989 E60.76465
G1 X123.465 Y117.989 E61.22468
G0 F810 X123.199 Y117.989
G0 F6000 X123.545 Y118.589
;TYPE:WALL-OUTER
G1 F900 X121.495 Y122.139 E61.6419
G1 X123.44 Y125.509 E62.03791
G1 X123.549 Y125.689 E62.05932
G1 X127.542 Y125.689 E62.46571
G1 X127.717 Y125.561 E62.48778
G1 X129.693 Y122.139 E62.88995
G1 X127.639 Y118.589 E63.30738
G1 X123.811 Y118.589 E63.69697
G0 F810 X123.545 Y118.589
G0 F6000 X123.445 Y118.762
G0 X122.875 Y118.431
G1 F3000 E57.69697
G1 F300 Z0.7
G0 F6000 X122.519 Y107.931 Z0.7
;TYPE:WALL-INNER
G1 F300 Z0.4
G1 F3000 E63.69697
G1 F900 X122.399 Y108.139 E63.72141
G1 X122.518 Y108.345 E63.74563
G1 X123.498 Y110.039 E63.94481
G1 X125.67 Y110.039 E64.16587
G1 X126.792 Y108.145 E64.38991
G1 X125.69 Y106.239 E64.61399
G1 X123.498 Y106.239 E64.83708
G1 X122.652 Y107.701 E65.00899
G0 F810 X122.519 Y107.931
G0 F6000 X123.092 Y108.139
;TYPE:WALL-OUTER
G1 F900 X123.844 Y109.439 E65.16185
G1 X125.328 Y109.439 E65.31288
G1 X126.097 Y108.141 E65.46643
G1 X125.344 Y106.839 E65.61951
G1 X123.844 Y106.839 E65.77217
G1 X123.225 Y107.909 E65.89798
G0 F810 X123.092 Y108.139
G0 F6000 X123.192 Y108.312
G0 X122.62 Y108.641
G1 F3000 E59.89798
G1 F300 Z0.7
G0 F6000 X117.11 Y108.137 Z0.7
;TYPE:WALL-INNER
G1 F300 Z0.4
G1 F3000 E65.89798
G1 F900 X118.355 Y110.289 E66.15102
G1 X120.813 Y110.289 E66.40118
G1 X121.958 Y108.35 E66.63036
G1 X122.079 Y108.145 E66.65459
G1 X121.959 Y107.937 E66.67903
G1 X120.836 Y105.989 E66.90788
G1 X118.353 Y105.989 E67.16059
G1 X117.243 Y107.907 E67.38613
G0 F810 X117.11 Y108.137
G0 F6000 X117.803 Y108.137
;TYPE:WALL-OUTER
G1 F900 X118.701 Y109.689 E67.56862
G1 X120.47 Y109.689 E67.74866
G1 X121.384 Y108.141 E67.93162
G1 X120.489 Y106.589 E68.11396
G1 X118.699 Y106.589 E68.29614
G1 X117.936 Y107.907 E68.45114
G0 F810 X117.803 Y108.137
G0 F6000 X117.903 Y108.31
G0 X117.331 Y108.639
G1 F3000 E62.45114
G1 F300 Z0.7
G0 F6000 X110.821 Y108.135 Z0.7
;TYPE:WALL-INNER
G1 F300 Z0.4
G1 F3000 E68.45114
G1 F900 X112.213 Y110.539 E68.73386
G1 X114.788 Y110.539 E68.99594
G1 X115.191 Y110.173 E69.05134
G1 X116.365 Y108.138 E69.29045
G1 X114.975 Y105.739 E69.57264
G1 X112.209 Y105.739 E69.85415
G1 X110.954 Y107.905 E70.10892
G0 F810 X110.821 Y108.135
G0 F6000 X111.514 Y108.135
;TYPE:WALL-OUTER
G1 F900 X112.559 Y109.939 E70.32111
G1 X114.556 Y109.939 E70.52436
G1 X114.718 Y109.792 E70.54662
G1 X115.672 Y108.139 E70.74086
G1 X114.629 Y106.339 E70.95259
G1 X112.555 Y106.339 E71.16368
G1 X111.647 Y107.905 E71.34791
G0 F810 X111.514 Y108.135
G0 F6000 X111.614 Y108.308
G0 X111.042 Y108.637
G1 F3000 E65.34791
G1 F300 Z0.7
G0 F6000 X104.034 Y108.139 Z0.7
;TYPE:WALL-INNER
G1 F300 Z0.4
G1 F3000 E71.34791
G1 F900 X105.565 Y110.789 E71.65939
G1 X108.431 Y110.789 E71.95108
G1 X108.839 Y110.415 E72.00741
G1 X110.154 Y108.139 E72.27494
G1 X108.623 Y105.489 E72.58642
G1 X105.565 Y105.489 E72.89765
G1 X104.167 Y107.909 E73.18209
G0 F810 X104.034 Y108.139
G0 F6000 X104.727 Y108.139
;TYPE:WALL-OUTER
G1 F900 X105.911 Y110.189 E73.42303
G1 X108.198 Y110.189 E73.6558
G1 X108.366 Y110.035 E73.67899
G1 X109.461 Y108.139 E73.90183
G1 X108.277 Y106.089 E74.14277
G1 X105.911 Y106.089 E74.38357
G1 X104.86 Y107.909 E74.59747
G0 F810 X104.727 Y108.139
G0 F6000 X104.827 Y108.312
G0 X104.255 Y108.641
G1 F3000 E68.59747
G1 F300 Z0.7
G0 F6000 X102.538 Y108.139 Z0.7
G1 F300 Z0.4
G1 F3000 E74.59747
G1 F900 X101.066 Y105.589 E74.89713
G1 X98.122 Y105.589 E75.19676
G1 X96.65 Y108.139 E75.49643
G1 X98.122 Y110.689 E75.79609
G1 X100.978 Y110.689 E76.08677
G1 X101.161 Y110.524 E76.11184
G1 X102.405 Y108.369 E76.36509
G0 F810 X102.538 Y108.139
G0 F6000 X102.438 Y107.966
G0 X103.01 Y107.637
G1 F3000 E70.36509
G1 F300 Z0.7
G0 F6000 X95.706 Y103.3 Z0.7
G1 F300 Z0.4
G1 F3000 E76.36509
G1 F900 X129.294 Y103.3 E79.78355
G1 X129.294 Y114.3 E80.90308
G1 X140.09 Y114.3 E82.00186
G1 X140.106 Y131.7 E83.77276
G1 X79.894 Y131.7 E89.9009
G1 X79.894 Y125.15 E90.56753
G1 X79.916 Y124.875 E90.59561
G1 X79.979 Y124.612 E90.62313
G1 X80.079 Y124.37 E90.64978
G1 X80.221 Y124.139 E90.67738
G1 X80.393 Y123.938 E90.7043
G1 X80.594 Y123.766 E90.73123
G1 X80.825 Y123.624 E90.75882
G1 X81.067 Y123.524 E90.78547
G1 X81.33 Y123.461 E90.813
G1 X81.605 Y123.439 E90.84108
G1 X87.58 Y123.439 E91.44919
G1 X87.938 Y123.414 E91.48571
G1 X88.289 Y123.332 E91.5224
G1 X88.624 Y123.196 E91.55919
G1 X88.933 Y123.01 E91.5959
G1 X89.209 Y122.777 E91.63266
G1 X89.444 Y122.503 E91.6694
G1 X89.635 Y122.198 E91.70603
G1 X89.776 Y121.865 E91.74283
G1 X89.862 Y121.515 E91.77951
G1 X89.892 Y121.166 E91.81516
G1 X89.894 Y116.025 E92.33839
G1 X89.916 Y115.736 E92.36789
G1 X89.979 Y115.473 E92.39542
G1 X90.079 Y115.231 E92.42207
G1 X90.221 Y115 E92.44966
G1 X90.393 Y114.799 E92.47659
G1 X90.594 Y114.627 E92.50351
G1 X90.825 Y114.485 E92.53111
G1 X91.067 Y114.385 E92.55776
G1 X91.33 Y114.322 E92.58528
G1 X91.605 Y114.3 E92.61336
G1 X95.706 Y114.3 E93.03075
G1 X95.706 Y103.566 E94.12321
G0 F810 X95.706 Y103.3
G0 F6000 X95.906 Y103.3
G0 X96.366 Y103.96
G0 X96.896 Y104.49
;TYPE:SKIN
G1 F900 X97.383 Y104.49 E94.17277
G1 X96.896 Y105.334 E94.27195
G1 X96.896 Y104.624 E94.34421
G0 F810 X96.896 Y104.49
G1 F3000 E88.34421
G1 F300 Z0.7
G0 F6000 X101.805 Y104.49 Z0.7
G1 F300 Z0.4
G1 F3000 E94.34421
G1 F900 X128.104 Y104.49 E97.02082
G1 X128.104 Y115.49 E98.14035
G1 X138.901 Y115.49 E99.23923
G1 X138.905 Y119.399 E99.63707
G1 X138.037 Y117.899 E99.81345
G1 X133.147 Y117.899 E100.31114
G1 X130.88 Y121.815 E100.77166
G1 X128.325 Y117.399 E101.29091
G1 X122.859 Y117.399 E101.84721
G1 X120.172 Y122.052 E102.39407
G1 X116.907 Y116.399 E103.05848
G1 X110.281 Y116.399 E103.73284
G1 X107.171 Y121.785 E104.36583
G1 X103.484 Y115.399 E105.11632
G1 X96.896 Y115.399 E105.78682
G1 X96.896 Y110.944 E106.24023
G1 X97.436 Y111.879 E106.35013
G1 X101.436 Y111.879 E106.75723
G1 X102.097 Y111.282 E106.84788
G1 X103.633 Y108.623 E107.16041
G1 X105.225 Y111.379 E107.48434
G1 X108.661 Y111.379 E107.83404
G1 X109.305 Y110.789 E107.92293
G1 X110.488 Y108.738 E108.16391
G1 X111.873 Y111.129 E108.44513
G1 X115.016 Y111.129 E108.76502
G1 X115.656 Y110.548 E108.85299
G1 X116.738 Y108.673 E109.07331
G1 X118.015 Y110.879 E109.33274
G1 X121.15 Y110.879 E109.6518
G1 X122.237 Y109.038 E109.8694
G1 X123.158 Y110.629 E110.0565
G1 X126.006 Y110.629 E110.34636
G1 X127.476 Y108.149 E110.63977
G1 X126.03 Y105.649 E110.9337
G1 X123.158 Y105.649 E111.226
G1 X122.238 Y107.239 E111.41297
G1 X121.177 Y105.399 E111.62914
G1 X118.013 Y105.399 E111.95116
G1 X116.737 Y107.603 E112.21035
G1 X115.315 Y105.149 E112.49901
G1 X111.869 Y105.149 E112.84973
G1 X110.486 Y107.536 E113.1305
G1 X108.963 Y104.899 E113.44043
G1 X105.225 Y104.899 E113.82087
G1 X103.633 Y107.655 E114.1448
G1 X101.938 Y104.72 E114.48975
G0 F810 X101.805 Y104.49
G1 F3000 E108.48975
G1 F300 Z0.7
G0 F6000 X95.651 Y115.49 Z0.7
G1 F300 Z0.4
G1 F3000 E114.48975
G1 F900 X91.812 Y122.139 E115.27115
G1 X95.704 Y128.879 E116.06328
G1 X103.081 Y128.879 E116.81408
G1 X103.793 Y128.344 E116.90472
G1 X107.172 Y122.493 E117.59238
G1 X110.285 Y127.879 E118.22552
G1 X116.501 Y127.879 E118.85816
G1 X117.206 Y127.364 E118.94702
G1 X120.171 Y122.227 E119.55068
G1 X122.415 Y126.115 E120.00756
G1 X122.879 Y126.879 E120.09854
G1 X127.931 Y126.879 E120.61271
G1 X128.622 Y126.374 E120.69982
G1 X130.883 Y122.46 E121.15986
G1 X133.151 Y126.379 E121.62069
