;FLAVOR:Marlin
;TIME:6274
;Filament used: 8.53069m
;Layer height: 0.3
;MINX:54.901
;MINY:69.611
;MINZ:0.4
;MAXX:165.099
;MAXY:172.45
;MAXZ:21.7
;Generated with Cura_SteamEngine 4.4.1
M140 S60
M105
M190 S60
M104 S205
M105
M109 S205
M82 ;absolute extrusion mode
M201 X500.00 Y500.00 Z100.00 E5000.00 ;Setup machine max acceleration
M203 X500.00 Y500.00 Z10.00 E75.00 ;Setup machine max feedrate
M204 P500.00 R1000.00 T500.00 ;Setup Print/Retract/Travel acceleration
M205 X8.00 Y8.00 Z0.40 E5.00 ;Setup Jerk
M220 S100 ;Reset Feedrate
M221 S100 ;Reset Flowrate

G21 ; (metric values)
G90 ; (absolute positioning)
M82 ; (set extruder to absolute mode)
G28 ; (home all axis)
G29 ; (Auto Level)

G92 E0 ;Reset Extruder
G1 Z2.0 F3000 ;Move Z Axis up
G1 X1.1 Y50 Z0.28 F5000.0 ;Move to start position
G1 X1.1 Y200.0 Z0.28 F1500.0 E15 ;Draw the first line
G1 X1.4 Y200.0 Z0.28 F5000.0 ;Move to side a little
G1 X1.4 Y100 Z0.28 F1500.0 E30 ;Draw the second line
G92 E0 ;Reset Extruder
G1 Z2.0 F3000 ;Move Z Axis up
G92 E0
G92 E0
G1 F3000 E-6
;LAYER_COUNT:72
;LAYER:0
M107
G1 F300 Z0.7
G0 F6000 X57.271 Y71.437 Z0.7
;TYPE:SKIRT
G1 F300 Z0.4
G1 F3000 E0
G1 F900 X57.883 Y70.953 E0.07941
G1 X58.152 Y70.771 E0.11247
G1 X58.711 Y70.441 E0.17853
G1 X58.897 Y70.346 E0.19979
G1 X59.48 Y70.091 E0.26455
G1 X59.714 Y70.005 E0.28993
G1 X60.527 Y69.778 E0.37583
G1 X60.732 Y69.738 E0.39709
G1 X61.555 Y69.643 E0.48141
G1 X62.355 Y69.614 E0.56288
G1 X62.547 Y69.611 E0.58243
G1 X125.004 Y69.611 E6.93905
G1 X157.43 Y69.615 E10.23924
G1 X157.506 Y69.616 E10.24698
G1 X158.192 Y69.626 E10.3168
G1 X158.895 Y69.683 E10.38859
G1 X159.184 Y69.726 E10.41832
G1 X159.912 Y69.887 E10.49421
G1 X160.104 Y69.944 E10.51459
G1 X160.686 Y70.155 E10.5776
G1 X160.905 Y70.249 E10.60185
G1 X161.487 Y70.542 E10.66817
G1 X161.902 Y70.811 E10.7185
G1 X162.283 Y71.084 E10.76621
G1 X162.788 Y71.495 E10.83247
G1 X163.08 Y71.786 E10.87443
G1 X163.339 Y72.065 E10.91317
G1 X163.752 Y72.568 E10.97941
G1 X163.946 Y72.857 E11.01484
G1 X164.055 Y73.031 E11.03574
G1 X164.384 Y73.641 E11.10627
G1 X164.496 Y73.886 E11.13369
G1 X164.786 Y74.682 E11.21991
G1 X164.875 Y75.005 E11.25401
G1 X165.009 Y75.642 E11.32026
G1 X165.047 Y75.981 E11.35498
G1 X165.073 Y76.299 E11.38745
G1 X165.09 Y76.658 E11.42403
G1 X165.098 Y77.235 E11.48276
G1 X165.099 Y77.308 E11.49019
G1 X165.099 Y127.323 E16.58052
G1 X165.092 Y163.668 E20.27957
G1 X165.092 Y163.736 E20.28649
G1 X165.083 Y164.423 E20.35642
G1 X165.015 Y165.198 E20.4356
G1 X164.975 Y165.446 E20.46116
G1 X164.832 Y166.081 E20.52741
G1 X164.653 Y166.598 E20.58309
G1 X164.442 Y167.117 E20.64011
G1 X164.16 Y167.704 E20.70639
G1 X163.886 Y168.143 E20.75906
G1 X163.725 Y168.375 E20.7878
G1 X163.268 Y168.945 E20.86215
G1 X163.127 Y169.098 E20.88333
G1 X162.567 Y169.624 E20.96152
G1 X162.356 Y169.795 E20.98917
G1 X161.826 Y170.173 E21.05542
G1 X161.538 Y170.34 E21.0893
G1 X161.203 Y170.521 E21.12806
G1 X160.39 Y170.876 E21.21835
G1 X160.143 Y170.96 E21.2449
G1 X159.408 Y171.152 E21.32221
G1 X159.172 Y171.196 E21.34665
G1 X158.463 Y171.28 E21.41931
G1 X158.079 Y171.299 E21.45844
G1 X157.868 Y171.305 E21.47992
G1 X157.556 Y171.308 E21.51168
G1 X157.505 Y171.308 E21.51687
G1 X113.839 Y171.307 E25.96102
G1 X111.166 Y171.345 E26.2331
G1 X108.499 Y171.458 E26.50478
G1 X105.794 Y171.65 E26.78077
G1 X103.156 Y171.911 E27.05057
G1 X100.362 Y172.27 E27.33727
G1 X99.542 Y172.387 E27.42157
G1 X98.957 Y172.437 E27.48133
G1 X98.634 Y172.447 E27.51422
G1 X98.47 Y172.45 E27.53091
G1 X78.904 Y172.449 E29.52226
G1 X78.828 Y172.448 E29.52999
G1 X78.128 Y172.438 E29.60125
G1 X77.541 Y172.397 E29.66113
G1 X77.089 Y172.34 E29.7075
G1 X77.003 Y172.329 E29.71632
G1 X75.224 Y172.075 E29.89922
G1 X72.555 Y171.77 E30.17263
G1 X69.872 Y171.542 E30.44668
G1 X67.237 Y171.391 E30.7153
G1 X64.523 Y171.314 E30.99163
G1 X62.506 Y171.303 E31.19691
G1 X62.461 Y171.302 E31.20149
G1 X61.812 Y171.293 E31.26755
G1 X61.082 Y171.233 E31.3421
G1 X60.795 Y171.189 E31.37165
G1 X59.974 Y170.995 E31.45751
G1 X59.682 Y170.901 E31.48873
G1 X58.906 Y170.582 E31.57412
G1 X58.713 Y170.484 E31.59615
G1 X58.097 Y170.116 E31.66918
G1 X57.821 Y169.925 E31.70334
G1 X57.31 Y169.523 E31.76951
G1 X57.053 Y169.278 E31.80565
G1 X56.851 Y169.072 E31.83502
G1 X56.336 Y168.461 E31.91634
G1 X56.217 Y168.296 E31.93705
G1 X55.873 Y167.751 E32.00264
G1 X55.72 Y167.473 E32.03494
G1 X55.414 Y166.814 E32.10889
G1 X55.337 Y166.613 E32.13079
G1 X55.101 Y165.815 E32.21549
G1 X55.043 Y165.541 E32.24399
G1 X54.947 Y164.897 E32.31026
G1 X54.929 Y164.556 E32.34501
G1 X54.902 Y163.29 E32.47389
G1 X54.901 Y163.177 E32.48539
G1 X54.901 Y117.317 E37.15284
G1 X54.913 Y77.132 E41.24271
G1 X54.914 Y77.055 E41.25055
G1 X54.923 Y76.45 E41.31213
G1 X55.016 Y75.534 E41.40583
G1 X55.068 Y75.262 E41.43402
G1 X55.23 Y74.631 E41.50032
G1 X55.353 Y74.289 E41.53731
G1 X55.513 Y73.889 E41.58116
G1 X55.919 Y73.082 E41.6731
G1 X56.037 Y72.89 E41.69604
G1 X56.432 Y72.332 E41.76562
G1 X56.576 Y72.154 E41.78892
G1 X57.078 Y71.619 E41.86359
G0 F810 X57.114 Y71.581
G0 X57.271 Y71.437
G1 F3000 E35.86359
G1 F300 Z0.7
G0 F6000 X66.499 Y94.578 Z0.7
G1 F300 Z0.4
G1 F3000 E41.86359
G1 F900 X66.81 Y94.476 E41.8969
G1 X67.18 Y94.42 E41.93498
G1 X67.492 Y94.425 E41.96674
G1 X67.865 Y94.494 E42.00535
G1 X68.128 Y94.588 E42.03377
G1 X68.422 Y94.748 E42.06784
G1 X68.696 Y94.958 E42.10298
G1 X68.934 Y95.212 E42.1384
G1 X69.133 Y95.51 E42.17487
G1 X69.265 Y95.797 E42.20702
G1 X69.35 Y96.078 E42.2369
G1 X69.389 Y96.325 E42.26235
G1 X69.398 Y96.73 E42.30358
G1 X69.389 Y96.814 E42.31218
G1 X69.32 Y97.149 E42.34699
G1 X69.228 Y97.41 E42.37516
G1 X69.105 Y97.654 E42.40297
G1 X68.961 Y97.869 E42.4293
G1 X68.734 Y98.121 E42.46382
G1 X68.553 Y98.273 E42.48788
G1 X68.411 Y98.343 E42.50399
G1 X68.23 Y98.409 E42.5236
G1 X68.032 Y98.408 E42.54375
G1 X66.41 Y98.408 E42.70883
G1 X66.402 Y98.405 E42.7097
G1 X66.187 Y98.312 E42.73354
G1 X65.972 Y98.195 E42.75845
G1 X65.881 Y98.137 E42.76944
G1 X65.872 Y98.129 E42.77066
G1 X65.683 Y97.926 E42.79889
G1 X65.512 Y97.687 E42.8288
G1 X65.432 Y97.542 E42.84565
G1 X65.303 Y97.229 E42.88011
G1 X65.24 Y96.986 E42.90566
G1 X65.201 Y96.668 E42.93827
G1 X65.207 Y96.369 E42.9687
G1 X65.264 Y96.03 E43.00369
G1 X65.369 Y95.713 E43.03768
G1 X65.507 Y95.44 E43.06881
G1 X65.72 Y95.144 E43.10592
G1 X65.927 Y94.935 E43.13586
G1 X66.203 Y94.73 E43.17085
G1 X66.262 Y94.699 E43.17764
G0 F810 X66.499 Y94.578
G0 F6000 X66.73 Y95.133
G1 F900 X66.95 Y95.061 E43.2012
G1 X67.218 Y95.021 E43.22877
G1 X67.432 Y95.024 E43.25056
G1 X67.711 Y95.076 E43.27944
G1 X67.883 Y95.137 E43.29801
G1 X68.093 Y95.251 E43.32233
G1 X68.291 Y95.404 E43.3478
G1 X68.462 Y95.586 E43.37322
G1 X68.606 Y95.801 E43.39955
G1 X68.702 Y96.008 E43.42278
G1 X68.763 Y96.21 E43.44425
G1 X68.79 Y96.382 E43.46197
G1 X68.797 Y96.71 E43.49536
G1 X68.795 Y96.726 E43.497
G1 X68.742 Y96.983 E43.52371
G1 X68.674 Y97.177 E43.54463
G1 X68.586 Y97.352 E43.56457
G1 X68.488 Y97.499 E43.58255
G1 X68.317 Y97.688 E43.60849
G1 X68.223 Y97.767 E43.62099
G1 X68.181 Y97.788 E43.62577
G1 X68.125 Y97.808 E43.63182
G1 X66.532 Y97.808 E43.79395
G1 X66.449 Y97.772 E43.80315
G1 X66.275 Y97.678 E43.82328
G1 X66.267 Y97.673 E43.82424
G1 X66.153 Y97.55 E43.84131
G1 X66.014 Y97.356 E43.8656
G1 X65.978 Y97.29 E43.87325
G1 X65.874 Y97.039 E43.9009
G1 X65.829 Y96.866 E43.9191
G1 X65.802 Y96.642 E43.94206
G1 X65.806 Y96.421 E43.96456
G1 X65.847 Y96.179 E43.98954
G1 X65.926 Y95.941 E44.01506
G1 X66.021 Y95.752 E44.03659
G1 X66.177 Y95.536 E44.06371
G1 X66.321 Y95.39 E44.08458
G1 X66.496 Y95.26 E44.10676
G0 F810 X66.525 Y95.239
G0 X66.73 Y95.133
G0 F6000 X66.967 Y95.687
G1 F900 X67.091 Y95.646 E44.12006
G1 X67.256 Y95.622 E44.13703
G1 X67.372 Y95.623 E44.14883
G1 X67.556 Y95.658 E44.16789
G1 X67.637 Y95.687 E44.17665
G1 X67.767 Y95.757 E44.19168
G1 X67.886 Y95.848 E44.20692
G1 X67.989 Y95.958 E44.22226
G1 X68.081 Y96.095 E44.23906
G1 X68.14 Y96.224 E44.25349
G1 X68.178 Y96.348 E44.26669
G1 X68.191 Y96.429 E44.27504
G1 X68.196 Y96.66 E44.29856
G1 X68.161 Y96.827 E44.31592
G1 X68.125 Y96.931 E44.32713
G1 X68.066 Y97.05 E44.34064
G1 X68.013 Y97.129 E44.35033
G1 X67.941 Y97.208 E44.3612
G1 X66.668 Y97.208 E44.49077
G1 X66.64 Y97.193 E44.494
G1 X66.615 Y97.166 E44.49774
G1 X66.525 Y97.039 E44.51359
G1 X66.517 Y97.023 E44.51541
G1 X66.445 Y96.851 E44.53438
G1 X66.42 Y96.753 E44.54468
G1 X66.403 Y96.609 E44.55943
G1 X66.405 Y96.48 E44.57257
G1 X66.433 Y96.318 E44.5893
G1 X66.48 Y96.175 E44.60462
G1 X66.535 Y96.065 E44.61713
G1 X66.639 Y95.922 E44.63513
G1 X66.718 Y95.842 E44.64657
G1 X66.741 Y95.825 E44.64948
G0 F810 X66.834 Y95.755
G0 X66.967 Y95.687
G0 F6000 X67.19 Y96.246
G1 F900 X67.231 Y96.233 E44.65386
G1 X67.3 Y96.222 E44.66097
G1 X67.317 Y96.223 E44.66271
G1 X67.394 Y96.237 E44.67067
G1 X67.435 Y96.259 E44.67541
G1 X67.48 Y96.294 E44.68121
G1 X67.522 Y96.338 E44.6874
G1 X67.557 Y96.392 E44.69395
G1 X67.575 Y96.429 E44.69814
G1 X67.592 Y96.484 E44.704
G1 X67.594 Y96.607 E44.71652
G1 X67.594 Y96.608 E44.71662
G1 X67.007 Y96.608 E44.77636
G1 X67.004 Y96.576 E44.77963
G1 X67.004 Y96.531 E44.78421
G1 X67.015 Y96.469 E44.79062
G1 X67.036 Y96.405 E44.79748
G1 X67.051 Y96.375 E44.80089
G1 X67.094 Y96.317 E44.80824
G0 F810 X67.096 Y96.313
G0 X67.112 Y96.297
G0 X67.158 Y96.263
G0 X67.19 Y96.246
G1 F3000 E38.80824
G1 F300 Z0.7
G0 F6000 X67.226 Y159.926 Z0.7
G1 F300 Z0.4
G1 F3000 E44.80824
G1 F900 X67.433 Y159.93 E44.82931
G1 X67.809 Y159.997 E44.86818
G1 X68.13 Y160.117 E44.90306
G1 X68.387 Y160.267 E44.93334
G1 X68.609 Y160.448 E44.9625
G1 X68.801 Y160.655 E44.99123
G1 X68.958 Y160.887 E45.01974
G1 X69.122 Y161.242 E45.05954
G1 X69.188 Y161.48 E45.08468
G1 X69.23 Y161.805 E45.11803
G1 X69.225 Y162.069 E45.1449
G1 X69.193 Y162.261 E45.16471
G1 X69.038 Y162.415 E45.18695
G1 X68.845 Y162.581 E45.21286
G1 X68.687 Y162.694 E45.23263
G1 X68.483 Y162.814 E45.25672
G1 X68.302 Y162.896 E45.27694
G1 X68.119 Y162.963 E45.29678
G1 X66.417 Y162.963 E45.47
G1 X66.339 Y162.96 E45.47794
G1 X66.241 Y162.928 E45.48844
G1 X66.137 Y162.883 E45.49997
G1 X66.01 Y162.818 E45.51449
G1 X65.793 Y162.699 E45.53968
G1 X65.63 Y162.593 E45.55947
G1 X65.474 Y162.469 E45.57975
G1 X65.445 Y162.442 E45.58378
G1 X65.44 Y162.425 E45.58558
G1 X65.375 Y162.063 E45.62302
G1 X65.373 Y161.755 E45.65436
G1 X65.418 Y161.448 E45.68594
G1 X65.507 Y161.161 E45.71652
G1 X65.635 Y160.897 E45.74639
G1 X65.824 Y160.625 E45.7801
G1 X66.047 Y160.396 E45.81263
G1 X66.265 Y160.232 E45.84039
G1 X66.491 Y160.109 E45.86658
G1 X66.864 Y159.98 E45.90675
G1 X66.963 Y159.965 E45.91694
G0 F810 X67.226 Y159.926
G0 F6000 X67.262 Y160.527
G1 F900 X67.371 Y160.529 E45.92803
G1 X67.65 Y160.578 E45.95686
G1 X67.872 Y160.662 E45.98102
G1 X68.041 Y160.76 E46.0009
G1 X68.199 Y160.889 E46.02166
G1 X68.328 Y161.028 E46.04096
G1 X68.432 Y161.182 E46.05988
G1 X68.557 Y161.451 E46.09007
G1 X68.599 Y161.605 E46.10631
G1 X68.629 Y161.834 E46.12982
G1 X68.627 Y161.977 E46.14437
G1 X68.474 Y162.109 E46.16494
G1 X68.358 Y162.192 E46.17946
G1 X68.213 Y162.277 E46.19656
G1 X68.061 Y162.346 E46.21355
G1 X68.014 Y162.363 E46.21864
G1 X66.446 Y162.363 E46.37822
G1 X66.389 Y162.338 E46.38456
G1 X66.299 Y162.292 E46.39485
G1 X66.099 Y162.182 E46.41808
G1 X65.994 Y162.114 E46.43081
G1 X65.975 Y162.007 E46.44187
G1 X65.973 Y161.794 E46.46355
G1 X66.005 Y161.583 E46.48527
G1 X66.067 Y161.38 E46.50687
G1 X66.154 Y161.201 E46.52713
G1 X66.286 Y161.011 E46.55067
G1 X66.448 Y160.845 E46.57428
G1 X66.59 Y160.738 E46.59238
G1 X66.734 Y160.66 E46.60904
G1 X66.999 Y160.567 E46.63763
G0 F810 X67.01 Y160.564
G0 X67.262 Y160.527
G0 F6000 X67.298 Y161.127
G1 F900 X67.312 Y161.128 E46.63905
G1 X67.495 Y161.161 E46.65798
G1 X67.609 Y161.203 E46.67034
G1 X67.703 Y161.258 E46.68143
G1 X67.784 Y161.324 E46.69206
G1 X67.858 Y161.404 E46.70315
G1 X67.909 Y161.479 E46.71239
G1 X67.992 Y161.658 E46.73247
G1 X68.005 Y161.703 E46.73723
G1 X67.928 Y161.748 E46.74631
G1 X67.896 Y161.763 E46.74991
G1 X66.585 Y161.763 E46.88334
G1 X66.592 Y161.712 E46.88857
G1 X66.627 Y161.6 E46.90052
G1 X66.671 Y161.51 E46.91071
G1 X66.754 Y161.391 E46.92548
G1 X66.843 Y161.3 E46.93843
G1 X66.92 Y161.241 E46.94831
G1 X66.976 Y161.211 E46.95477
G1 X67.052 Y161.184 E46.96298
G0 F810 X67.155 Y161.149
G0 X67.298 Y161.127
G1 F3000 E40.96298
G1 F300 Z0.7
G0 F6000 X78.5 Y166.242 Z0.7
G1 F300 Z0.4
G1 F3000 E46.96298
G1 F900 X98.5 Y166.242 E48.9985
G1 X98.5 Y166.85 E49.06038
G1 X78.5 Y166.849 E51.0959
G1 X78.5 Y166.508 E51.13061
G0 F810 X78.5 Y166.242
G1 F3000 E45.13061
G1 F300 Z0.7
G0 F6000 X153.99 Y160.448 Z0.7
G1 F300 Z0.4
G1 F3000 E51.13061
G1 F900 X154.277 Y160.225 E51.1676
G1 X154.49 Y160.109 E51.19228
G1 X154.864 Y159.98 E51.23255
G1 X155.226 Y159.926 E51.2698
G1 X155.433 Y159.93 E51.29087
G1 X155.809 Y159.997 E51.32974
G1 X156.13 Y160.117 E51.36462
G1 X156.387 Y160.267 E51.3949
G1 X156.609 Y160.448 E51.42406
G1 X156.801 Y160.655 E51.45279
G1 X156.958 Y160.887 E51.4813
G1 X157.117 Y161.23 E51.51978
G1 X157.196 Y161.525 E51.55086
G1 X157.232 Y161.883 E51.58748
G1 X157.218 Y162.146 E51.61429
G1 X157.197 Y162.26 E51.62608
G1 X157.186 Y162.273 E51.62782
G1 X157.086 Y162.372 E51.64214
G1 X156.863 Y162.566 E51.67222
G1 X156.66 Y162.711 E51.69761
G1 X156.492 Y162.809 E51.71741
G1 X156.297 Y162.898 E51.73922
G1 X156.12 Y162.963 E51.75841
G1 X154.414 Y162.963 E51.93204
G1 X154.332 Y162.96 E51.94039
G1 X154.284 Y162.944 E51.94554
G1 X154.071 Y162.853 E51.96912
G1 X154.043 Y162.839 E51.9723
G1 X153.824 Y162.717 E51.99782
G1 X153.583 Y162.561 E52.02703
G1 X153.484 Y162.482 E52.03993
G1 X153.45 Y162.449 E52.04475
G1 X153.408 Y162.302 E52.06031
G1 X153.377 Y162.103 E52.08081
G1 X153.368 Y161.869 E52.10464
G1 X153.406 Y161.505 E52.14189
G1 X153.484 Y161.219 E52.17206
G1 X153.6 Y160.959 E52.20103
G1 X153.785 Y160.674 E52.23561
G1 X153.812 Y160.645 E52.23965
G0 F810 X153.99 Y160.448
G0 F6000 X154.402 Y160.888
G1 F900 X154.607 Y160.728 E52.26611
G1 X154.731 Y160.661 E52.28046
G1 X155.01 Y160.564 E52.31052
G1 X155.262 Y160.527 E52.33644
G1 X155.371 Y160.529 E52.34754
G1 X155.65 Y160.578 E52.37637
G1 X155.872 Y160.662 E52.40053
G1 X156.041 Y160.76 E52.42041
G1 X156.199 Y160.889 E52.44117
G1 X156.328 Y161.028 E52.46047
G1 X156.435 Y161.187 E52.47998
G1 X156.552 Y161.437 E52.50807
G1 X156.604 Y161.632 E52.52861
G1 X156.63 Y161.898 E52.55581
G1 X156.626 Y161.976 E52.56376
G1 X156.494 Y162.092 E52.58164
G1 X156.326 Y162.212 E52.60266
G1 X156.216 Y162.276 E52.61561
G1 X156.066 Y162.344 E52.63237
G1 X156.014 Y162.363 E52.638
G1 X154.45 Y162.363 E52.79718
G1 X154.335 Y162.314 E52.8099
G1 X154.313 Y162.303 E52.81241
G1 X154.138 Y162.205 E52.83282
G1 X153.985 Y162.106 E52.85137
G1 X153.975 Y162.042 E52.85796
G1 X153.969 Y161.893 E52.87314
G1 X153.997 Y161.617 E52.90137
G1 X154.049 Y161.425 E52.92162
G1 X154.129 Y161.245 E52.94166
G1 X154.23 Y161.09 E52.96049
G0 F810 X154.261 Y161.043
G0 X154.402 Y160.888
G0 F6000 X154.809 Y161.331
G1 F900 X154.939 Y161.23 E52.97725
G1 X154.972 Y161.212 E52.98107
G1 X155.155 Y161.149 E53.00077
G1 X155.298 Y161.127 E53.0155
G1 X155.312 Y161.128 E53.01693
G1 X155.495 Y161.161 E53.03585
G1 X155.609 Y161.203 E53.04822
G1 X155.703 Y161.258 E53.0593
G1 X155.784 Y161.324 E53.06993
G1 X155.858 Y161.404 E53.08103
G1 X155.909 Y161.479 E53.09026
G1 X155.984 Y161.64 E53.10833
G1 X156.002 Y161.706 E53.1153
G1 X155.939 Y161.742 E53.12268
G1 X155.894 Y161.763 E53.12773
G1 X154.586 Y161.763 E53.26086
G1 X154.59 Y161.724 E53.26485
G1 X154.616 Y161.626 E53.27517
G1 X154.658 Y161.533 E53.28555
G1 X154.664 Y161.524 E53.28665
