;FLAVOR:Marlin
;TIME:2054
;Filament used: 1.07998m
;Layer height: 0.2
;MINX:91.307
;MINY:58.735
;MINZ:0.2
;MAXX:143.695
;MAXY:176.27
;MAXZ:3.9
;Generated with Cura_SteamEngine 4.4.1
M140 S60
M105
M190 S60
M104 S205
M105
M109 S205
M82 ;absolute extrusion mode
M82 ;absolute extrusion mode
M201 X500.00 Y500.00 Z100.00 E5000.00 ;Setup machine max acceleration
M203 X500.00 Y500.00 Z10.00 E75.00 ;Setup machine max feedrate
M204 P500.00 R1000.00 T500.00 ;Setup Print/Retract/Travel acceleration
M205 X8.00 Y8.00 Z0.40 E5.00 ;Setup Jerk
M220 S100 ;Reset Feedrate
M221 S100 ;Reset Flowrate

G21 ; (metric values)
G90 ; (absolute positioning)
M82 ; (set extruder to absolute mode)
G28 ; (home all axis)
G29 ; (Auto Level)

G92 E0 ;Reset Extruder
G1 Z2.0 F3000 ;Move Z Axis up
G1 X1.1 Y50 Z0.28 F5000.0 ;Move to start position
G1 X1.1 Y200.0 Z0.28 F1500.0 E15 ;Draw the first line
G1 X1.4 Y200.0 Z0.28 F5000.0 ;Move to side a little
G1 X1.4 Y100 Z0.28 F1500.0 E30 ;Draw the second line
G92 E0 ;Reset Extruder
G1 Z2.0 F3000 ;Move Z Axis up

G92 E0
G92 E0
G1 F3000 E-6
;LAYER_COUNT:18
;LAYER:0
M107
G1 F300 Z0.5
G0 F6000 X105.06 Y66.277 Z0.5
;TYPE:SKIRT
G1 F300 Z0.2
G1 F3000 E0
G1 F1200 X105.668 Y65.316 E0.03782
G1 X105.789 Y65.145 E0.04479
G1 X106.023 Y64.826 E0.05795
G1 X106.271 Y64.501 E0.07155
G1 X106.353 Y64.396 E0.07598
G1 X106.673 Y63.987 E0.09325
G1 X106.751 Y63.887 E0.09747
G1 X107.158 Y63.379 E0.11912
G1 X107.775 Y62.673 E0.1503
G1 X108.45 Y62.022 E0.18149
G1 X109.178 Y61.431 E0.21268
G1 X109.954 Y60.903 E0.2439
G1 X110.772 Y60.444 E0.2751
G1 X111.954 Y59.93 E0.31797
G1 X112.878 Y59.591 E0.3507
G1 X113.233 Y59.468 E0.3632
G1 X113.799 Y59.282 E0.38301
G1 X114.702 Y59.027 E0.41422
G1 X115.623 Y58.851 E0.44541
G1 X116.555 Y58.753 E0.47658
G1 X117.493 Y58.735 E0.50778
G1 X118.429 Y58.797 E0.53898
G1 X119.356 Y58.939 E0.57017
G1 X120.609 Y59.263 E0.61322
G1 X121.533 Y59.561 E0.64551
G1 X121.875 Y59.677 E0.65752
G1 X122.443 Y59.881 E0.67759
G1 X123.312 Y60.236 E0.70882
G1 X124.147 Y60.663 E0.74001
G1 X124.942 Y61.159 E0.77118
G1 X125.693 Y61.722 E0.80239
G1 X126.392 Y62.346 E0.83356
G1 X127.262 Y63.297 E0.87643
G1 X127.904 Y64.087 E0.91029
G1 X128.135 Y64.381 E0.92272
G1 X128.604 Y65 E0.94855
G1 X129.377 Y66.169 E0.99516
G1 X129.63 Y66.61 E1.01207
G1 X129.748 Y66.82 E1.02009
G1 X136.169 Y78.601 E1.46634
G1 X136.242 Y78.738 E1.47151
G1 X136.556 Y79.334 E1.49391
G1 X136.957 Y80.181 E1.52508
G1 X137.285 Y81.06 E1.55629
G1 X137.548 Y82.013 E1.58917
G1 X137.763 Y82.955 E1.6213
G1 X137.808 Y83.16 E1.62829
G1 X137.873 Y83.472 E1.63889
G1 X137.9 Y83.605 E1.6434
G1 X138.029 Y84.265 E1.66577
G1 X138.169 Y85.192 E1.69695
G1 X138.231 Y86.18 E1.72987
G1 X138.248 Y87.141 E1.76184
G1 X138.25 Y87.336 E1.76833
G1 X138.25 Y104.491 E2.33891
G1 X138.287 Y107.1 E2.42569
G1 X138.394 Y109.622 E2.50965
G1 X138.571 Y112.116 E2.59281
G1 X138.819 Y114.614 E2.6763
G1 X139.137 Y117.103 E2.75976
G1 X139.531 Y119.612 E2.84423
G1 X139.99 Y122.078 E2.92766
G1 X140.517 Y124.529 E3.01104
G1 X141.12 Y126.989 E3.09528
G1 X141.809 Y129.495 E3.18173
G1 X142.155 Y130.684 E3.22291
G1 X142.378 Y131.595 E3.25411
G1 X142.549 Y132.779 E3.2939
G1 X142.589 Y133.229 E3.30892
G1 X142.842 Y135.782 E3.39425
G1 X143.162 Y138.284 E3.47815
G1 X143.424 Y140.014 E3.53634
G1 X143.554 Y140.815 E3.56333
G1 X143.665 Y141.746 E3.59452
G1 X143.695 Y142.683 E3.6257
G1 X143.646 Y143.62 E3.6569
G1 X143.525 Y144.508 E3.68671
G1 X143.387 Y145.281 E3.71283
G1 X142.949 Y147.923 E3.8019
G1 X142.886 Y148.376 E3.81711
G1 X142.863 Y148.533 E3.82239
G1 X142.716 Y149.495 E3.85476
G1 X142.533 Y150.422 E3.88619
G1 X142.417 Y150.901 E3.90258
G1 X142.364 Y151.109 E3.90972
G1 X142.208 Y151.704 E3.93018
G1 X141.63 Y154.178 E4.01468
G1 X141.12 Y156.675 E4.09944
G1 X140.852 Y158.168 E4.14989
G1 X140.675 Y159.192 E4.18446
G1 X140.477 Y160.108 E4.21563
G1 X140.2 Y161.004 E4.24682
G1 X139.849 Y161.874 E4.27802
G1 X139.424 Y162.71 E4.30921
G1 X138.908 Y163.54 E4.34172
G1 X138.121 Y164.688 E4.38801
G1 X136.66 Y166.884 E4.47574
G1 X135.271 Y169.105 E4.56287
G1 X134.835 Y169.82 E4.59072
G1 X134.313 Y170.599 E4.62191
G1 X133.726 Y171.331 E4.65312
G1 X133.079 Y172.01 E4.68431
G1 X132.377 Y172.632 E4.71551
G1 X131.625 Y173.192 E4.74669
G1 X130.827 Y173.685 E4.77789
G1 X129.99 Y174.109 E4.8091
G1 X129.12 Y174.459 E4.84029
G1 X128.621 Y174.623 E4.85776
G1 X128.273 Y174.728 E4.86985
G1 X127.91 Y174.831 E4.8824
G1 X127.105 Y175.044 E4.91009
G1 X126.845 Y175.109 E4.91901
G1 X126.359 Y175.225 E4.93563
G1 X126.087 Y175.287 E4.9449
G1 X125.078 Y175.501 E4.97921
G1 X124.689 Y175.576 E4.99239
G1 X123.567 Y175.772 E5.03027
G1 X123.259 Y175.821 E5.04064
G1 X122.627 Y175.913 E5.06188
G1 X122.317 Y175.954 E5.07229
G1 X121.94 Y175.998 E5.08491
G1 X121.704 Y176.023 E5.0928
G1 X120.502 Y176.137 E5.13296
G1 X120.063 Y176.17 E5.1476
G1 X118.818 Y176.238 E5.18907
G1 X118.401 Y176.252 E5.20295
G1 X117.318 Y176.27 E5.23898
G1 X116.908 Y176.27 E5.25261
G1 X115.747 Y176.246 E5.29124
G1 X115.361 Y176.231 E5.30408
G1 X114.59 Y176.188 E5.32977
G1 X114.165 Y176.156 E5.34394
G1 X112.804 Y176.027 E5.38941
G1 X112.271 Y175.963 E5.40727
G1 X110.774 Y175.747 E5.45757
G1 X110.329 Y175.674 E5.47257
G1 X109.122 Y175.449 E5.51341
G1 X108.764 Y175.376 E5.52556
G1 X108.126 Y175.235 E5.54729
G1 X107.628 Y175.112 E5.56436
G1 X106.005 Y174.673 E5.62028
G1 X105.685 Y174.582 E5.63134
G1 X105.276 Y174.458 E5.64556
G1 X104.391 Y174.148 E5.67675
G1 X103.536 Y173.763 E5.70793
G1 X102.716 Y173.307 E5.73914
G1 X101.938 Y172.783 E5.77034
G1 X101.208 Y172.195 E5.80151
G1 X100.531 Y171.547 E5.83268
G1 X99.911 Y170.843 E5.86389
G1 X99.353 Y170.089 E5.89508
G1 X98.862 Y169.291 E5.92625
G1 X98.506 Y168.653 E5.95055
G1 X98.436 Y168.525 E5.9554
G1 X97.867 Y167.473 E5.99518
G1 X96.598 Y165.28 E6.07945
G1 X95.126 Y162.869 E6.1734
G1 X94.672 Y162.048 E6.20461
G1 X94.289 Y161.192 E6.2358
G1 X93.981 Y160.306 E6.267
G1 X93.749 Y159.397 E6.2982
G1 X93.602 Y158.524 E6.32764
G1 X93.479 Y157.557 E6.36007
G1 X93.451 Y157.314 E6.3682
G1 X93.391 Y156.742 E6.38733
G1 X93.06 Y154.277 E6.47005
G1 X92.655 Y151.791 E6.55383
G1 X92.535 Y151.175 E6.5747
G1 X92.505 Y151.011 E6.58025
G1 X92.256 Y149.626 E6.62705
G1 X92.164 Y149.02 E6.64744
G1 X92.045 Y148.051 E6.67991
G1 X91.684 Y145.411 E6.76853
G1 X91.51 Y144.344 E6.80449
G1 X91.485 Y144.185 E6.80984
G1 X91.422 Y143.759 E6.82417
G1 X91.325 Y142.826 E6.85536
G1 X91.307 Y141.889 E6.88654
G1 X91.369 Y140.953 E6.91773
G1 X91.437 Y140.447 E6.93472
G1 X91.48 Y140.17 E6.94404
G1 X91.887 Y137.507 E7.03364
G1 X92.19 Y135.063 E7.11555
G1 X92.452 Y132.306 E7.20766
G1 X92.581 Y131.377 E7.23886
G1 X92.708 Y130.777 E7.25925
G1 X92.758 Y130.569 E7.26637
G1 X92.839 Y130.252 E7.27725
G1 X93.441 Y128.039 E7.35353
G1 X94.037 Y125.582 E7.43762
G1 X94.558 Y123.138 E7.52074
G1 X95.011 Y120.656 E7.60465
G1 X95.397 Y118.149 E7.68902
G1 X95.706 Y115.687 E7.77155
G1 X95.948 Y113.185 E7.85515
G1 X96.121 Y110.636 E7.94013
G1 X96.221 Y108.141 E8.02318
G1 X96.251 Y105.789 E8.10141
G1 X96.25 Y87.122 E8.72228
G1 X96.251 Y86.957 E8.72777
G1 X96.261 Y86.288 E8.75002
G1 X96.315 Y85.351 E8.78124
G1 X96.451 Y84.408 E8.81292
G1 X96.624 Y83.493 E8.8439
G1 X96.662 Y83.306 E8.85024
G1 X96.743 Y82.915 E8.86352
G1 X96.783 Y82.727 E8.86992
G1 X96.923 Y82.106 E8.89109
G1 X97.168 Y81.201 E8.92227
G1 X97.49 Y80.319 E8.9535
G1 X97.894 Y79.451 E8.98535
G1 X98.364 Y78.547 E9.01923
G1 X98.465 Y78.357 E9.02639
G1 X104.664 Y66.982 E9.45726
G1 X104.668 Y66.975 E9.45753
G0 F1080 X104.736 Y66.853
G0 X105.06 Y66.277
G0 F6000 X105.408 Y66.473
G1 F1200 X105.994 Y65.547 E9.49397
G1 X106.115 Y65.376 E9.50094
G1 X106.341 Y65.069 E9.51362
G1 X106.589 Y64.744 E9.52722
G1 X106.668 Y64.642 E9.53151
G1 X106.988 Y64.233 E9.54878
G1 X107.064 Y64.137 E9.55285
G1 X107.471 Y63.629 E9.5745
G1 X108.077 Y62.936 E9.60512
G1 X108.741 Y62.299 E9.63573
G1 X109.458 Y61.721 E9.66636
G1 X110.222 Y61.208 E9.69697
G1 X111.028 Y60.763 E9.72759
G1 X112.092 Y60.306 E9.7661
G1 X113.016 Y59.967 E9.79884
G1 X113.358 Y59.848 E9.81088
G1 X113.924 Y59.662 E9.8307
G1 X114.81 Y59.413 E9.86131
G1 X115.715 Y59.241 E9.89195
G1 X116.631 Y59.149 E9.92257
G1 X117.551 Y59.137 E9.95317
G1 X118.469 Y59.204 E9.98378
G1 X119.378 Y59.351 E10.01441
G1 X120.487 Y59.644 E10.05256
G1 X121.411 Y59.942 E10.08485
G1 X121.74 Y60.054 E10.09641
G1 X122.308 Y60.258 E10.11648
G1 X123.16 Y60.606 E10.14709
G1 X123.979 Y61.028 E10.17774
G1 X124.758 Y61.518 E10.20835
G1 X125.491 Y62.075 E10.23897
G1 X126.174 Y62.692 E10.26958
G1 X126.951 Y63.549 E10.30806
G1 X127.593 Y64.339 E10.34191
G1 X127.816 Y64.623 E10.35392
G1 X128.285 Y65.242 E10.37975
G1 X129.03 Y66.368 E10.42466
G1 X129.283 Y66.809 E10.44157
G1 X129.396 Y67.011 E10.44927
G1 X135.817 Y78.792 E10.89553
G1 X135.888 Y78.924 E10.90051
G1 X136.202 Y79.52 E10.92292
G1 X136.595 Y80.353 E10.95355
G1 X136.915 Y81.216 E10.98416
G1 X137.158 Y82.102 E11.01472
G1 X137.373 Y83.044 E11.04686
G1 X137.416 Y83.241 E11.05356
G1 X137.481 Y83.553 E11.06416
G1 X137.507 Y83.682 E11.06854
G1 X137.636 Y84.342 E11.09091
G1 X137.773 Y85.252 E11.12152
G1 X137.831 Y86.188 E11.15271
G1 X137.848 Y87.149 E11.18468
G1 X137.85 Y87.336 E11.1909
G1 X137.85 Y104.497 E11.76167
G1 X137.887 Y107.122 E11.84899
G1 X137.994 Y109.631 E11.93251
G1 X138.172 Y112.147 E12.01641
G1 X138.422 Y114.671 E12.10077
G1 X138.743 Y117.179 E12.18486
G1 X139.13 Y119.641 E12.26775
G1 X139.599 Y122.163 E12.35307
G1 X140.131 Y124.637 E12.43724
G1 X140.731 Y127.085 E12.52107
G1 X141.419 Y129.584 E12.60728
G1 X141.771 Y130.796 E12.64926
G1 X141.989 Y131.69 E12.67986
G1 X142.15 Y132.814 E12.71763
G1 X142.186 Y133.215 E12.73102
G1 X142.442 Y135.801 E12.81745
G1 X142.767 Y138.35 E12.90292
G1 X143.045 Y140.179 E12.96445
G1 X143.159 Y140.879 E12.98804
G1 X143.267 Y141.793 E13.01865
G1 X143.295 Y142.713 E13.04926
G1 X143.243 Y143.633 E13.07991
G1 X143.131 Y144.438 E13.10694
G1 X142.992 Y145.215 E13.1332
G1 X142.551 Y147.874 E13.22284
G1 X142.489 Y148.321 E13.23785
G1 X142.467 Y148.472 E13.24293
G1 X142.32 Y149.434 E13.2753
G1 X142.144 Y150.328 E13.3056
G1 X142.028 Y150.807 E13.32199
G1 X141.978 Y151.008 E13.32888
G1 X141.816 Y151.625 E13.3501
G1 X141.235 Y154.113 E13.43508
G1 X140.726 Y156.604 E13.51964
G1 X140.458 Y158.098 E13.57012
G1 X140.281 Y159.124 E13.60475
G1 X140.085 Y160.023 E13.63536
G1 X139.812 Y160.902 E13.66597
G1 X139.463 Y161.754 E13.69659
G1 X139.042 Y162.573 E13.72722
G1 X138.578 Y163.314 E13.7563
G1 X137.746 Y164.527 E13.80522
G1 X136.347 Y166.63 E13.88923
G1 X134.909 Y168.93 E13.97945
G1 X134.493 Y169.612 E14.00602
G1 X133.98 Y170.376 E14.03663
G1 X133.403 Y171.093 E14.06724
G1 X132.765 Y171.757 E14.09787
G1 X132.072 Y172.364 E14.12851
G1 X131.33 Y172.908 E14.15911
G1 X130.543 Y173.385 E14.18972
G1 X129.717 Y173.793 E14.22036
G1 X128.506 Y174.24 E14.26329
G1 X128.158 Y174.345 E14.27538
G1 X127.807 Y174.444 E14.28751
G1 X127.002 Y174.657 E14.31521
G1 X126.752 Y174.72 E14.32378
G1 X126.266 Y174.836 E14.3404
G1 X126.004 Y174.895 E14.34934
G1 X124.995 Y175.109 E14.38364
G1 X124.62 Y175.182 E14.39635
G1 X123.498 Y175.378 E14.43423
G1 X123.201 Y175.425 E14.44423
G1 X122.569 Y175.517 E14.46547
G1 X122.271 Y175.557 E14.47547
G1 X121.894 Y175.601 E14.4881
G1 X121.666 Y175.625 E14.49572
G1 X120.464 Y175.739 E14.53588
G1 X120.041 Y175.77 E14.54999
G1 X118.796 Y175.838 E14.59146
G1 X118.394 Y175.853 E14.60484
G1 X117.311 Y175.871 E14.64086
G1 X116.916 Y175.87 E14.654
G1 X115.755 Y175.846 E14.69263
G1 X115.384 Y175.832 E14.70497
G1 X114.613 Y175.789 E14.73066
G1 X114.203 Y175.758 E14.74433
G1 X112.842 Y175.629 E14.7898
G1 X112.328 Y175.567 E14.80702
G1 X110.831 Y175.351 E14.85733
G1 X110.402 Y175.28 E14.87179
G1 X109.195 Y175.055 E14.91263
G1 X108.851 Y174.985 E14.9243
G1 X108.213 Y174.844 E14.94604
G1 X107.732 Y174.726 E14.96251
G1 X106.109 Y174.287 E15.01843
G1 X105.802 Y174.199 E15.02905
G1 X105.393 Y174.075 E15.04327
G1 X104.524 Y173.77 E15.0739
G1 X103.685 Y173.391 E15.10452
G1 X102.882 Y172.94 E15.13515
G1 X102.122 Y172.421 E15.16576
G1 X101.409 Y171.838 E15.19639
G1 X100.749 Y171.196 E15.22702
G1 X100.148 Y170.499 E15.25763
G1 X99.609 Y169.752 E15.28826
G1 X99.212 Y169.096 E15.31377
G1 X98.856 Y168.458 E15.33807
G1 X98.788 Y168.335 E15.34274
G1 X98.222 Y167.289 E15.3823
G1 X96.935 Y165.065 E15.46776
G1 X95.467 Y162.66 E15.56148
G1 X95.022 Y161.854 E15.5921
G1 X94.648 Y161.013 E15.62271
G1 X94.349 Y160.142 E15.65334
G1 X94.127 Y159.249 E15.68395
G1 X93.999 Y158.474 E15.71007
G1 X93.876 Y157.507 E15.74249
G1 X93.849 Y157.273 E15.75033
G1 X93.79 Y156.714 E15.76902
G1 X93.453 Y154.196 E15.85352
G1 X93.048 Y151.71 E15.93729
G1 X92.928 Y151.098 E15.95804
G1 X92.898 Y150.941 E15.96335
G1 X92.649 Y149.556 E16.01016
G1 X92.561 Y148.972 E16.0298
G1 X92.435 Y147.944 E16.06425
G1 X92.086 Y145.39 E16.14998
G1 X91.905 Y144.28 E16.18739
G1 X91.881 Y144.127 E16.19254
G1 X91.818 Y143.701 E16.20686
G1 X91.723 Y142.785 E16.23749
G1 X91.708 Y141.864 E16.26813
G1 X91.832 Y140.509 E16.31339
G1 X91.876 Y140.231 E16.32275
G1 X91.875 Y140.231 E16.32278
G1 X92.284 Y137.55 E16.41298
G1 X92.591 Y135.079 E16.4958
G1 X92.851 Y132.344 E16.58718
G1 X92.978 Y131.432 E16.6178
G1 X93.097 Y130.87 E16.63691
G1 X93.147 Y130.662 E16.64403
G1 X93.225 Y130.357 E16.6545
G1 X93.827 Y128.144 E16.73078
G1 X94.421 Y125.696 E16.81456
G1 X94.956 Y123.188 E16.89985
G1 X95.407 Y120.717 E16.9834
G1 X95.785 Y118.259 E17.06611
G1 X96.106 Y115.705 E17.15173
G1 X96.346 Y113.218 E17.23483
G1 X96.519 Y110.68 E17.31944
G1 X96.621 Y108.124 E17.40452
G1 X96.651 Y105.794 E17.48202
G1 X96.65 Y87.122 E18.10305
G1 X96.651 Y86.963 E18.10834
G1 X96.661 Y86.294 E18.1306
G1 X96.715 Y85.374 E18.16125
G1 X96.845 Y84.483 E18.1912
G1 X97.018 Y83.568 E18.22217
G1 X97.053 Y83.387 E18.2283
G1 X97.134 Y82.996 E18.24158
G1 X97.174 Y82.815 E18.24775
G1 X97.314 Y82.194 E18.26892
G1 X97.555 Y81.305 E18.29955
G1 X97.872 Y80.441 E18.33016
G1 X98.249 Y79.635 E18.35976
G1 X98.719 Y78.731 E18.39365
G1 X98.816 Y78.549 E18.40051
G1 X105.015 Y67.174 E18.83137
G1 X105.016 Y67.172 E18.83145
G0 F1080 X105.084 Y67.049
G0 X105.408 Y66.473
G0 F6000 X105.757 Y66.669
G1 F1200 X106.321 Y65.778 E18.86652
G1 X106.442 Y65.607 E18.87349
G1 X106.659 Y65.311 E18.8857
G1 X106.907 Y64.986 E18.89929
G1 X106.983 Y64.889 E18.90339
G1 X107.303 Y64.48 E18.92066
G1 X107.376 Y64.387 E18.9246
G1 X107.783 Y63.879 E18.94625
G1 X108.378 Y63.2 E18.97627
G1 X109.031 Y62.576 E19.00632
G1 X109.737 Y62.013 E19.03635
G1 X110.49 Y61.514 E19.06639
G1 X111.283 Y61.084 E19.0964
G1 X112.23 Y60.681 E19.13063
G1 X113.154 Y60.342 E19.16336
G1 X113.483 Y60.228 E19.17494
G1 X114.049 Y60.042 E19.19476
G1 X114.918 Y59.798 E19.22478
G1 X115.806 Y59.632 E19.25483
G1 X116.705 Y59.546 E19.28486
G1 X117.608 Y59.539 E19.3149
G1 X118.508 Y59.612 E19.34493
G1 X119.398 Y59.764 E19.37496
G1 X120.364 Y60.024 E19.40823
G1 X121.288 Y60.322 E19.44053
G1 X121.605 Y60.43 E19.45166
G1 X122.173 Y60.634 E19.47174
G1 X123.008 Y60.977 E19.50176
G1 X123.81 Y61.392 E19.5318
G1 X124.573 Y61.877 E19.56187
G1 X125.289 Y62.427 E19.5919
G1 X125.954 Y63.038 E19.62193
G1 X126.641 Y63.801 E19.65608
G1 X127.283 Y64.591 E19.68994
G1 X127.497 Y64.864 E19.70148
G1 X127.966 Y65.483 E19.72731
G1 X128.683 Y66.567 E19.77053
G1 X128.936 Y67.008 E19.78744
G1 X129.045 Y67.203 E19.79487
G1 X135.466 Y78.984 E20.24113
G1 X135.534 Y79.111 E20.24592
G1 X135.848 Y79.707 E20.26833
G1 X136.233 Y80.523 E20.29834
G1 X136.545 Y81.371 E20.32839
G1 X136.768 Y82.191 E20.35666
G1 X136.983 Y83.133 E20.38879
G1 X137.025 Y83.323 E20.39526
G1 X137.09 Y83.635 E20.40586
G1 X137.115 Y83.758 E20.41004
