;FLAVOR:Marlin
;TIME:3321
;Filament used: 1.48591m
;Layer height: 0.2
;MINX:89.781
;MINY:46.735
;MINZ:0.2
;MAXX:145.263
;MAXY:188.253
;MAXZ:3.7
;Generated with Cura_SteamEngine 4.4.1
M140 S60
M105
M190 S60
M104 S205
M105
M109 S205
M82 ;absolute extrusion mode
M82 ;absolute extrusion mode
M201 X500.00 Y500.00 Z100.00 E5000.00 ;Setup machine max acceleration
M203 X500.00 Y500.00 Z10.00 E75.00 ;Setup machine max feedrate
M204 P500.00 R1000.00 T500.00 ;Setup Print/Retract/Travel acceleration
M205 X8.00 Y8.00 Z0.40 E5.00 ;Setup Jerk
M220 S100 ;Reset Feedrate
M221 S100 ;Reset Flowrate

G21 ; (metric values)
G90 ; (absolute positioning)
M82 ; (set extruder to absolute mode)
G28 ; (home all axis)
G29 ; (Auto Level)

G92 E0 ;Reset Extruder
G1 Z2.0 F3000 ;Move Z Axis up
G1 X1.1 Y50 Z0.28 F5000.0 ;Move to start position
G1 X1.1 Y200.0 Z0.28 F1500.0 E15 ;Draw the first line
G1 X1.4 Y200.0 Z0.28 F5000.0 ;Move to side a little
G1 X1.4 Y100 Z0.28 F1500.0 E30 ;Draw the second line
G92 E0 ;Reset Extruder
G1 Z2.0 F3000 ;Move Z Axis up

G92 E0
G92 E0
G1 F3000 E-6
;LAYER_COUNT:17
;LAYER:0
M107
G1 F300 Z0.5
G0 F6000 X97.682 Y61.423 Z0.5
;TYPE:SKIRT
G1 F300 Z0.2
G1 F3000 E0
G1 F1200 X97.804 Y61.23 E0.00759
G1 X99.414 Y58.764 E0.10555
G1 X99.504 Y58.629 E0.11094
G1 X99.897 Y58.046 E0.13433
G1 X100.376 Y57.39 E0.16134
G1 X100.739 Y56.929 E0.18086
G1 X100.852 Y56.787 E0.1869
G1 X102.675 Y54.549 E0.2829
G1 X102.779 Y54.424 E0.28831
G1 X103.239 Y53.876 E0.31211
G1 X103.621 Y53.444 E0.33129
G1 X103.774 Y53.28 E0.33875
G1 X104.004 Y53.041 E0.34978
G1 X104.223 Y52.82 E0.36013
G1 X104.28 Y52.762 E0.36283
G1 X106.363 Y50.691 E0.46053
G1 X106.469 Y50.588 E0.46544
G1 X106.999 Y50.075 E0.48998
G1 X107.7 Y49.452 E0.52117
G1 X108.666 Y48.749 E0.56091
G1 X108.919 Y48.585 E0.57093
G1 X109.727 Y48.108 E0.60214
G1 X110.572 Y47.703 E0.63331
G1 X111.449 Y47.371 E0.6645
G1 X112.068 Y47.186 E0.68599
G1 X112.368 Y47.106 E0.69631
G1 X113.283 Y46.904 E0.72748
G1 X114.213 Y46.78 E0.75868
G1 X115.298 Y46.735 E0.7948
G1 X115.528 Y46.737 E0.80245
G1 X116.464 Y46.786 E0.83363
G1 X117.393 Y46.913 E0.86481
G1 X118.039 Y47.05 E0.88678
G1 X118.244 Y47.1 E0.89379
G1 X119.144 Y47.361 E0.92496
G1 X120.298 Y47.823 E0.96631
G1 X120.484 Y47.91 E0.97313
G1 X121.315 Y48.343 E1.0043
G1 X122.107 Y48.846 E1.03551
G1 X122.853 Y49.414 E1.06669
G1 X123.335 Y49.838 E1.08804
G1 X124.193 Y50.64 E1.12711
G1 X124.43 Y50.869 E1.13807
G1 X126.192 Y52.618 E1.22064
G1 X126.298 Y52.724 E1.22563
G1 X126.797 Y53.233 E1.24934
G1 X127.229 Y53.701 E1.27052
G1 X127.38 Y53.874 E1.27816
G1 X127.543 Y54.065 E1.28651
G1 X127.718 Y54.275 E1.2956
G1 X127.797 Y54.37 E1.29971
G1 X129.725 Y56.737 E1.40125
G1 X129.819 Y56.855 E1.40627
G1 X130.215 Y57.355 E1.42748
G1 X130.689 Y58 E1.4541
G1 X131.001 Y58.459 E1.47256
G1 X131.117 Y58.632 E1.47949
G1 X132.705 Y61.066 E1.57615
G1 X132.789 Y61.197 E1.58133
G1 X133.202 Y61.85 E1.60702
G1 X133.596 Y62.527 E1.63308
G1 X133.836 Y62.974 E1.64995
G1 X133.936 Y63.164 E1.65709
G1 X135.282 Y65.793 E1.75533
G1 X135.345 Y65.917 E1.75995
G1 X135.667 Y66.566 E1.78405
G1 X135.932 Y67.141 E1.80511
G1 X136.013 Y67.331 E1.81198
G1 X136.13 Y67.616 E1.82223
G1 X136.241 Y67.898 E1.8323
G1 X136.269 Y67.97 E1.83487
G1 X137.327 Y70.714 E1.93269
G1 X137.376 Y70.844 E1.93731
G1 X137.638 Y71.55 E1.96236
G1 X137.898 Y72.341 E1.99005
G1 X138.066 Y72.926 E2.01029
G1 X138.115 Y73.102 E2.01637
G1 X138.861 Y75.873 E2.11182
G1 X138.905 Y76.044 E2.11769
G1 X139.085 Y76.758 E2.14218
G1 X139.243 Y77.489 E2.16705
G1 X139.328 Y77.959 E2.18294
G1 X139.367 Y78.187 E2.19063
G1 X139.838 Y81.144 E2.29022
G1 X139.862 Y81.301 E2.29551
G1 X139.965 Y82.014 E2.31947
G1 X140.049 Y82.791 E2.34546
G1 X140.086 Y83.301 E2.36247
G1 X140.1 Y83.521 E2.3698
G1 X140.257 Y86.514 E2.46948
G1 X140.264 Y86.666 E2.47454
G1 X140.295 Y87.47 E2.50131
G1 X140.302 Y87.756 E2.51082
G1 X140.308 Y88.234 E2.52672
G1 X140.309 Y88.372 E2.53131
G1 X140.309 Y121.702 E3.63987
G1 X140.346 Y124.311 E3.72665
G1 X140.453 Y126.833 E3.81061
G1 X140.629 Y129.319 E3.8935
G1 X140.814 Y131.197 E3.95627
G1 X140.957 Y132.598 E4.00311
G1 X141.002 Y133.194 E4.02299
G1 X141.047 Y134.143 E4.05459
G1 X141.053 Y134.289 E4.05945
G1 X141.08 Y135.068 E4.08537
G1 X141.233 Y137.563 E4.16851
G1 X141.46 Y140.062 E4.25197
G1 X141.758 Y142.571 E4.33601
G1 X142.123 Y145.042 E4.41909
G1 X142.564 Y147.536 E4.50332
G1 X143.07 Y149.992 E4.58673
G1 X143.644 Y152.429 E4.67
G1 X144.301 Y154.84 E4.75311
G1 X144.321 Y154.914 E4.75566
G1 X144.579 Y155.888 E4.78917
G1 X144.781 Y156.804 E4.82037
G1 X144.871 Y157.423 E4.84118
G1 X145.003 Y158.552 E4.87898
G1 X145.094 Y159.267 E4.90296
G1 X145.118 Y159.475 E4.90992
G1 X145.202 Y160.253 E4.93595
G1 X145.263 Y161.189 E4.96715
G1 X145.261 Y161.764 E4.98627
G1 X145.248 Y162.197 E5.00068
G1 X145.229 Y162.593 E5.01386
G1 X145.212 Y162.85 E5.02243
G1 X145.058 Y164.097 E5.06422
G1 X144.967 Y164.596 E5.08109
G1 X144.889 Y164.982 E5.09419
G1 X144.843 Y165.19 E5.10127
G1 X144.335 Y167.681 E5.18583
G1 X143.894 Y170.195 E5.27072
G1 X143.535 Y172.656 E5.35344
G1 X143.274 Y174.826 E5.42614
G1 X143.195 Y175.568 E5.45096
G1 X143.055 Y176.495 E5.48214
G1 X142.711 Y177.819 E5.52764
G1 X142.314 Y179.032 E5.57009
G1 X142.247 Y179.231 E5.57707
G1 X141.882 Y180.278 E5.61395
G1 X141.394 Y181.454 E5.6563
G1 X141.3 Y181.648 E5.66347
G1 X140.856 Y182.473 E5.69463
G1 X140.582 Y182.91 E5.71178
G1 X140.419 Y183.157 E5.72163
G1 X139.87 Y183.917 E5.75281
G1 X139.257 Y184.627 E5.78401
G1 X138.587 Y185.283 E5.8152
G1 X137.974 Y185.795 E5.84176
G1 X137.77 Y185.953 E5.85034
G1 X137.004 Y186.495 E5.88155
G1 X136.196 Y186.97 E5.91273
G1 X135.349 Y187.374 E5.94394
G1 X134.472 Y187.705 E5.97512
G1 X133.569 Y187.96 E6.00632
G1 X132.648 Y188.137 E6.03752
G1 X131.716 Y188.235 E6.06869
G1 X130.778 Y188.253 E6.09989
G1 X129.648 Y188.168 E6.13758
G1 X129.459 Y188.144 E6.14392
G1 X128.535 Y187.987 E6.17509
G1 X127.627 Y187.751 E6.20629
G1 X126.743 Y187.438 E6.23748
G1 X125.804 Y187.009 E6.27182
G1 X125.612 Y186.91 E6.27901
G1 X125.389 Y186.792 E6.2874
G1 X124.835 Y186.49 E6.30838
G1 X122.549 Y185.286 E6.39432
G1 X120.312 Y184.187 E6.47721
G1 X118.007 Y183.135 E6.56149
G1 X116.573 Y182.52 E6.61338
G1 X115.89 Y182.199 E6.63848
G1 X115.201 Y181.846 E6.66423
G1 X115.002 Y181.741 E6.67171
G1 X114.69 Y181.573 E6.6835
G1 X114.522 Y181.481 E6.68987
G1 X112.838 Y180.536 E6.7541
G1 X112.643 Y180.424 E6.76158
G1 X112.077 Y180.091 E6.78342
G1 X111.979 Y180.032 E6.78722
G1 X110.993 Y179.438 E6.82551
G1 X110.89 Y179.375 E6.82953
G1 X108.124 Y177.667 E6.93765
G1 X107.136 Y176.98 E6.97767
G1 X106.708 Y176.646 E6.99573
G1 X106.515 Y176.492 E7.00394
G1 X106.025 Y176.091 E7.025
G1 X104.073 Y174.586 E7.10698
G1 X102.001 Y173.081 E7.19216
G1 X100.033 Y171.73 E7.27155
G1 X99.66 Y171.462 E7.28683
G1 X99.608 Y171.423 E7.28899
G1 X98.882 Y170.829 E7.32019
G1 X98.21 Y170.175 E7.35138
G1 X97.596 Y169.466 E7.38257
G1 X97.044 Y168.708 E7.41376
G1 X96.559 Y167.905 E7.44496
G1 X96.144 Y167.064 E7.47615
G1 X95.73 Y165.971 E7.51503
G1 X95.382 Y164.882 E7.55305
G1 X95.337 Y164.737 E7.5581
G1 X95.189 Y164.25 E7.57503
G1 X94.167 Y161.24 E7.68076
G1 X93.308 Y158.923 E7.76295
G1 X93.049 Y158.295 E7.78554
G1 X92.965 Y158.084 E7.7931
G1 X92.458 Y156.778 E7.83969
G1 X92.156 Y155.89 E7.87089
G1 X91.931 Y154.979 E7.9021
G1 X91.845 Y154.501 E7.91825
G1 X91.68 Y153.449 E7.95367
G1 X91.65 Y153.247 E7.96046
G1 X91.576 Y152.711 E7.97846
G1 X91.243 Y150.676 E8.04704
G1 X91.128 Y150.02 E8.06919
G1 X91.039 Y149.41 E8.0897
G1 X90.993 Y149.02 E8.10276
G1 X90.976 Y148.872 E8.10771
G1 X90.774 Y146.938 E8.17239
G1 X90.445 Y144.459 E8.25556
G1 X90.153 Y142.61 E8.31782
G1 X89.925 Y141.259 E8.36339
G1 X89.809 Y140.328 E8.3946
G1 X89.781 Y138.983 E8.43934
G1 X89.92 Y135.548 E8.55368
G1 X89.927 Y135.258 E8.56333
G1 X89.959 Y134.641 E8.58388
G1 X90.012 Y133.981 E8.6059
G1 X90.189 Y131.324 E8.69447
G1 X90.284 Y128.809 E8.77818
G1 X90.309 Y126.664 E8.84953
G1 X90.309 Y88.493 E10.1191
G1 X90.31 Y88.342 E10.12412
G1 X90.321 Y87.541 E10.15077
G1 X90.329 Y87.247 E10.16055
G1 X90.35 Y86.728 E10.17783
G1 X90.356 Y86.595 E10.18225
G1 X90.51 Y83.669 E10.27971
G1 X90.52 Y83.501 E10.28531
G1 X90.564 Y82.854 E10.30687
G1 X90.641 Y82.106 E10.33188
G1 X90.712 Y81.588 E10.34927
G1 X90.747 Y81.351 E10.35724
G1 X91.216 Y78.407 E10.4564
G1 X91.241 Y78.26 E10.46135
G1 X91.363 Y77.556 E10.48512
G1 X91.529 Y76.766 E10.51197
G1 X91.667 Y76.214 E10.53089
G1 X91.717 Y76.025 E10.5374
G1 X92.464 Y73.248 E10.63304
G1 X92.505 Y73.097 E10.63825
G1 X92.712 Y72.369 E10.66342
G1 X92.912 Y71.738 E10.68544
G1 X92.98 Y71.544 E10.69227
G1 X93.055 Y71.337 E10.6996
G1 X93.158 Y71.061 E10.70939
G1 X93.2 Y70.951 E10.71331
G1 X94.266 Y68.185 E10.8119
G1 X94.323 Y68.04 E10.81709
G1 X94.595 Y67.363 E10.84135
G1 X94.83 Y66.82 E10.86103
G1 X94.932 Y66.601 E10.86907
G1 X95.065 Y66.326 E10.87923
G1 X95.168 Y66.12 E10.88689
G1 X95.214 Y66.029 E10.89028
G1 X96.603 Y63.314 E10.99171
G1 X96.682 Y63.163 E10.99738
G1 X96.996 Y62.572 E11.01964
G1 X97.265 Y62.106 E11.03753
G0 F1080 X97.377 Y61.912
G0 X97.682 Y61.423
G0 F6000 X98.021 Y61.634
G1 F1200 X98.139 Y61.449 E11.04483
G1 X99.749 Y58.983 E11.14278
G1 X99.836 Y58.853 E11.14799
G1 X100.229 Y58.27 E11.17137
G1 X100.69 Y57.637 E11.19742
G1 X101.053 Y57.176 E11.21693
G1 X101.163 Y57.039 E11.22278
G1 X102.986 Y54.801 E11.31878
G1 X103.085 Y54.681 E11.32396
G1 X103.545 Y54.133 E11.34775
G1 X103.913 Y53.717 E11.36623
G1 X104.066 Y53.553 E11.37369
G1 X104.288 Y53.323 E11.38432
G1 X104.507 Y53.102 E11.39467
G1 X104.562 Y53.046 E11.39728
G1 X106.645 Y50.975 E11.49497
G1 X106.747 Y50.876 E11.4997
G1 X107.277 Y50.363 E11.52423
G1 X107.966 Y49.752 E11.55486
G1 X108.883 Y49.084 E11.5926
G1 X109.136 Y48.92 E11.60263
G1 X109.93 Y48.454 E11.63325
G1 X110.761 Y48.057 E11.66388
G1 X111.623 Y47.735 E11.69448
G1 X112.171 Y47.573 E11.71349
G1 X112.471 Y47.493 E11.72382
G1 X113.37 Y47.295 E11.75443
G1 X114.283 Y47.175 E11.78506
G1 X115.294 Y47.135 E11.81871
G1 X115.524 Y47.137 E11.82636
G1 X116.444 Y47.185 E11.857
G1 X117.355 Y47.313 E11.8876
G1 X117.944 Y47.439 E11.90764
G1 X118.149 Y47.489 E11.91465
G1 X119.033 Y47.746 E11.94527
G1 X120.128 Y48.185 E11.98451
G1 X120.314 Y48.272 E11.99134
G1 X121.13 Y48.698 E12.02196
G1 X121.906 Y49.193 E12.05257
G1 X122.637 Y49.754 E12.08322
G1 X123.061 Y50.13 E12.10207
G1 X123.919 Y50.932 E12.14113
G1 X124.149 Y51.153 E12.15174
G1 X125.911 Y52.902 E12.23431
G1 X126.012 Y53.004 E12.23909
G1 X126.511 Y53.513 E12.26279
G1 X126.928 Y53.964 E12.28322
G1 X127.079 Y54.137 E12.29086
G1 X127.236 Y54.321 E12.29891
G1 X127.411 Y54.531 E12.308
G1 X127.487 Y54.623 E12.31197
G1 X129.415 Y56.99 E12.41351
G1 X129.506 Y57.103 E12.41833
G1 X129.902 Y57.603 E12.43955
G1 X130.358 Y58.225 E12.4652
G1 X130.67 Y58.684 E12.48366
G1 X130.782 Y58.851 E12.49034
G1 X132.37 Y61.285 E12.58701
G1 X132.451 Y61.411 E12.59199
G1 X132.864 Y62.064 E12.61769
G1 X133.244 Y62.716 E12.64279
G1 X133.484 Y63.163 E12.65966
G1 X133.58 Y63.346 E12.66653
G1 X134.926 Y65.975 E12.76477
G1 X134.987 Y66.095 E12.76925
G1 X135.309 Y66.744 E12.79334
G1 X135.564 Y67.298 E12.81363
G1 X135.645 Y67.488 E12.8205
G1 X135.757 Y67.763 E12.83037
G1 X135.868 Y68.045 E12.84045
G1 X135.895 Y68.114 E12.84292
G1 X136.953 Y70.858 E12.94073
G1 X137.001 Y70.983 E12.94518
G1 X137.263 Y71.689 E12.97023
G1 X137.513 Y72.451 E12.9969
G1 X137.681 Y73.036 E13.01715
G1 X137.729 Y73.206 E13.02302
G1 X138.475 Y75.977 E13.11847
G1 X138.517 Y76.142 E13.12413
G1 X138.697 Y76.856 E13.14862
G1 X138.85 Y77.561 E13.17262
G1 X138.935 Y78.031 E13.1885
G1 X138.972 Y78.25 E13.19589
G1 X139.443 Y81.207 E13.29548
G1 X139.466 Y81.358 E13.30056
G1 X139.569 Y82.071 E13.32452
G1 X139.65 Y82.82 E13.34958
G1 X139.687 Y83.33 E13.36659
G1 X139.7 Y83.542 E13.37365
G1 X139.857 Y86.535 E13.47333
G1 X139.864 Y86.682 E13.47823
G1 X139.895 Y87.486 E13.50499
G1 X139.902 Y87.761 E13.51414
G1 X139.908 Y88.239 E13.53004
G1 X139.909 Y88.372 E13.53446
G1 X139.909 Y121.708 E14.64322
G1 X139.946 Y124.333 E14.73054
G1 X140.053 Y126.842 E14.81406
G1 X140.231 Y129.354 E14.89782
G1 X140.416 Y131.238 E14.96079
G1 X140.559 Y132.639 E15.00763
G1 X140.602 Y133.213 E15.02677
G1 X140.647 Y134.162 E15.05837
G1 X140.653 Y134.303 E15.06306
G1 X140.679 Y135.07 E15.08859
G1 X140.834 Y137.587 E15.17246
G1 X141.063 Y140.109 E15.25669
G1 X141.364 Y142.64 E15.34147
G1 X141.727 Y145.104 E15.4243
G1 X142.172 Y147.615 E15.50912
G1 X142.674 Y150.051 E15.59185
G1 X143.258 Y152.533 E15.67665
G1 X143.915 Y154.945 E15.7598
G1 X143.935 Y155.017 E15.76228
G1 X144.193 Y155.991 E15.7958
G1 X144.389 Y156.89 E15.8264
G1 X144.474 Y157.47 E15.8459
G1 X144.618 Y158.695 E15.88692
G1 X144.697 Y159.318 E15.90781
G1 X144.721 Y159.518 E15.91451
G1 X144.805 Y160.296 E15.94053
G1 X144.864 Y161.215 E15.97116
G1 X144.861 Y161.752 E15.98902
G1 X144.848 Y162.185 E16.00343
G1 X144.83 Y162.567 E16.01615
G1 X144.813 Y162.824 E16.02472
G1 X144.664 Y164.026 E16.065
G1 X144.573 Y164.525 E16.08187
G1 X144.498 Y164.897 E16.09449
G1 X144.467 Y165.038 E16.0993
G1 X143.936 Y167.638 E16.18756
G1 X143.504 Y170.105 E16.27086
G1 X143.135 Y172.629 E16.3557
G1 X142.873 Y174.814 E16.42889
G1 X142.797 Y175.525 E16.45268
G1 X142.659 Y176.436 E16.48332
G1 X142.331 Y177.694 E16.52656
G1 X141.934 Y178.907 E16.56901
G1 X141.869 Y179.099 E16.57575
G1 X141.504 Y180.146 E16.61263
G1 X141.034 Y181.279 E16.65343
G1 X140.94 Y181.473 E16.6606
G1 X140.503 Y182.283 E16.69121
G1 X140.248 Y182.689 E16.70716
G1 X140.085 Y182.936 E16.717
G1 X139.545 Y183.682 E16.74763
G1 X138.943 Y184.378 E16.77824
G1 X138.282 Y185.019 E16.80886
G1 X137.729 Y185.478 E16.83277
G1 X137.525 Y185.636 E16.84135
G1 X136.773 Y186.168 E16.87199
G1 X135.978 Y186.632 E16.9026
G1 X135.146 Y187.026 E16.93322
G1 X134.283 Y187.346 E16.96383
G1 X133.395 Y187.59 E16.99446
G1 X132.489 Y187.756 E17.0251
G1 X131.573 Y187.842 E17.0557
G1 X130.652 Y187.849 E17.08633
G1 X129.699 Y187.772 E17.11813
G1 X129.51 Y187.748 E17.12447
G1 X128.602 Y187.592 E17.15511
G1 X127.712 Y187.358 E17.18572
G1 X126.845 Y187.048 E17.21634
G1 X125.987 Y186.653 E17.24776
G1 X125.795 Y186.554 E17.25495
G1 X125.58 Y186.44 E17.26304
G1 X125.032 Y186.141 E17.2838
G1 X122.748 Y184.938 E17.36966
G1 X120.475 Y183.822 E17.45388
G1 X118.168 Y182.768 E17.53824
G1 X116.73 Y182.152 E17.59027
G1 X116.073 Y181.843 E17.61442
G1 X115.384 Y181.49 E17.64017
G1 X115.192 Y181.389 E17.64739
G1 X114.88 Y181.221 E17.65917
G1 X114.718 Y181.132 E17.66532
G1 X113.034 Y180.187 E17.72955
G1 X112.846 Y180.079 E17.73676
G1 X112.28 Y179.746 E17.7586
G1 X112.185 Y179.69 E17.76227
G1 X111.199 Y179.096 E17.80055
G1 X111.1 Y179.035 E17.80442
G1 X108.334 Y177.327 E17.91254
G1 X107.382 Y176.665 E17.95111
G1 X106.954 Y176.331 E17.96917
G1 X106.768 Y176.182 E17.97709
G1 X106.298 Y175.798 E17.99728
G1 X104.284 Y174.245 E18.08187
G1 X102.24 Y172.761 E18.16588
G1 X100.259 Y171.4 E18.24582
G1 X99.9 Y171.142 E18.26052
G1 X99.848 Y171.103 E18.26269
G1 X99.136 Y170.519 E18.29331
G1 X98.478 Y169.876 E18.32391
G1 X97.877 Y169.178 E18.35455
G1 X97.34 Y168.43 E18.38518
G1 X96.87 Y167.639 E18.41578
G1 X96.47 Y166.809 E18.44642
G1 X96.111 Y165.85 E18.48048
G1 X95.763 Y164.761 E18.51851
G1 X95.719 Y164.62 E18.52342
G1 X95.56 Y164.098 E18.54157
G1 X94.546 Y161.109 E18.64655
G1 X93.68 Y158.775 E18.72935
G1 X93.419 Y158.143 E18.75209
G1 X93.337 Y157.939 E18.7594
G1 X92.83 Y156.633 E18.806
G1 X92.535 Y155.761 E18.83662
G1 X92.24 Y154.439 E18.88167
G1 X92.075 Y153.387 E18.91709
G1 X92.046 Y153.193 E18.92361
G1 X91.973 Y152.664 E18.94137
G1 X91.624 Y150.534 E19.01316
