;FLAVOR:Marlin
;TIME:4399
;Filament used: 1.39825m
;Layer height: 0.12
;MINX:62.459
;MINY:88.676
;MINZ:0.2
;MAXX:174.353
;MAXY:146.328
;MAXZ:23.24
;Generated with Cura_SteamEngine 4.4.1
M140 S60
M105
M190 S60
M104 S205
M105
M109 S205
M82 ;absolute extrusion mode
M82 ;absolute extrusion mode
M201 X500.00 Y500.00 Z100.00 E5000.00 ;Setup machine max acceleration
M203 X500.00 Y500.00 Z10.00 E75.00 ;Setup machine max feedrate
M204 P500.00 R1000.00 T500.00 ;Setup Print/Retract/Travel acceleration
M205 X8.00 Y8.00 Z0.40 E5.00 ;Setup Jerk
M220 S100 ;Reset Feedrate
M221 S100 ;Reset Flowrate

G21 ; (metric values)
G90 ; (absolute positioning)
M82 ; (set extruder to absolute mode)
G28 ; (home all axis)
G29 ; (Auto Level)

G92 E0 ;Reset Extruder
G1 Z2.0 F3000 ;Move Z Axis up
G1 X1.1 Y50 Z0.28 F5000.0 ;Move to start position
G1 X1.1 Y200.0 Z0.28 F1500.0 E15 ;Draw the first line
G1 X1.4 Y200.0 Z0.28 F5000.0 ;Move to side a little
G1 X1.4 Y100 Z0.28 F1500.0 E30 ;Draw the second line
G92 E0 ;Reset Extruder
G1 Z2.0 F3000 ;Move Z Axis up

G92 E0
G92 E0
G1 F1500 E-8
;LAYER_COUNT:194
;LAYER:0
M107
G0 F6000 X73.128 Y93.75 Z0.2
;TYPE:SKIRT
G1 F1500 E0
G1 F1200 X73.895 Y93.211 E0.03118
G1 X74.836 Y92.672 E0.06725
G1 X77.367 Y91.383 E0.16172
G1 X79.434 Y90.249 E0.24013
G1 X79.543 Y90.19 E0.24426
G1 X79.957 Y89.969 E0.25986
G1 X80.802 Y89.563 E0.29104
G1 X81.679 Y89.231 E0.32223
G1 X82.581 Y88.974 E0.35343
G1 X83.502 Y88.795 E0.38463
G1 X84.435 Y88.695 E0.41584
G1 X85.372 Y88.676 E0.44702
G1 X86.308 Y88.736 E0.47821
G1 X87.157 Y88.86 E0.50675
G1 X87.999 Y89.017 E0.53524
G1 X90.539 Y89.463 E0.62101
G1 X93.018 Y89.827 E0.70434
G1 X95.547 Y90.126 E0.78905
G1 X98.017 Y90.347 E0.87153
G1 X100.569 Y90.503 E0.95656
G1 X103.066 Y90.584 E1.03966
G1 X104.812 Y90.6 E1.09773
G1 X144.588 Y90.6 E2.42069
G1 X144.768 Y90.601 E2.42668
G1 X145.929 Y90.62 E2.4653
G1 X146.243 Y90.63 E2.47574
G1 X146.532 Y90.643 E2.48537
G1 X147.026 Y90.676 E2.50183
G1 X147.414 Y90.711 E2.51479
G1 X147.865 Y90.762 E2.52989
G1 X148.388 Y90.831 E2.54743
G1 X148.956 Y90.921 E2.56656
G1 X149.484 Y91.019 E2.58442
G1 X150.156 Y91.165 E2.60729
G1 X150.805 Y91.328 E2.62955
G1 X151.448 Y91.511 E2.65179
G1 X151.991 Y91.683 E2.67073
G1 X152.646 Y91.913 E2.69382
G1 X153.234 Y92.141 E2.7148
G1 X153.81 Y92.384 E2.73559
G1 X154.318 Y92.615 E2.75415
G1 X154.93 Y92.916 E2.77683
G1 X155.481 Y93.209 E2.79759
G1 X156.084 Y93.555 E2.82071
G1 X156.615 Y93.882 E2.84145
G1 X157.174 Y94.25 E2.86371
G1 X157.649 Y94.584 E2.88303
G1 X158.184 Y94.985 E2.90526
G1 X158.64 Y95.349 E2.92467
G1 X159.118 Y95.753 E2.94549
G1 X159.55 Y96.14 E2.96478
G1 X159.883 Y96.451 E2.97993
G1 X160.754 Y97.299 E3.02036
G1 X160.86 Y97.404 E3.02533
G1 X169.244 Y105.79 E3.41973
G1 X169.356 Y105.903 E3.42502
G1 X169.895 Y106.458 E3.45075
G1 X170.222 Y106.81 E3.46673
G1 X170.44 Y107.055 E3.47764
G1 X170.905 Y107.614 E3.50183
G1 X171.101 Y107.866 E3.51244
G1 X171.579 Y108.53 E3.53966
G1 X171.803 Y108.867 E3.55312
G1 X172.27 Y109.636 E3.58304
G1 X172.475 Y110.007 E3.59714
G1 X172.832 Y110.713 E3.62345
G1 X172.96 Y110.99 E3.6336
G1 X173.371 Y112.009 E3.67014
G1 X173.575 Y112.599 E3.69091
G1 X173.873 Y113.616 E3.72616
G1 X173.968 Y114.01 E3.73964
G1 X174.155 Y114.973 E3.77226
G1 X174.201 Y115.283 E3.78269
G1 X174.282 Y115.984 E3.80616
G1 X174.316 Y116.392 E3.81977
G1 X174.353 Y117.436 E3.85452
G1 X174.347 Y117.943 E3.87138
G1 X174.286 Y118.977 E3.90584
G1 X174.243 Y119.381 E3.91935
G1 X174.094 Y120.36 E3.95228
G1 X174.005 Y120.808 E3.96748
G1 X173.826 Y121.569 E3.99348
G1 X173.751 Y121.843 E4.00293
G1 X173.592 Y122.371 E4.02127
G1 X173.526 Y122.572 E4.0283
G1 X173.313 Y123.164 E4.04923
G1 X173.223 Y123.393 E4.05741
G1 X172.98 Y123.963 E4.07802
G1 X172.815 Y124.322 E4.09116
G1 X172.306 Y125.297 E4.12774
G1 X172.023 Y125.779 E4.14634
G1 X171.425 Y126.691 E4.18261
G1 X171.188 Y127.016 E4.19599
G1 X170.624 Y127.726 E4.22614
G1 X170.351 Y128.042 E4.24003
G1 X170.044 Y128.383 E4.2553
G1 X169.749 Y128.697 E4.26962
G1 X169.512 Y128.942 E4.28096
G1 X160.764 Y137.693 E4.69251
G1 X160.64 Y137.815 E4.6983
G1 X159.795 Y138.634 E4.73744
G1 X159.557 Y138.857 E4.74828
G1 X159.361 Y139.036 E4.75711
G1 X159.127 Y139.244 E4.76753
G1 X158.967 Y139.382 E4.77455
G1 X158.547 Y139.727 E4.79263
G1 X157.957 Y140.187 E4.81752
G1 X157.4 Y140.593 E4.84044
G1 X156.964 Y140.891 E4.85801
G1 X156.409 Y141.247 E4.87994
G1 X155.833 Y141.592 E4.90227
G1 X155.225 Y141.931 E4.92542
G1 X154.723 Y142.19 E4.94421
G1 X154.116 Y142.479 E4.96657
G1 X153.558 Y142.725 E4.98685
G1 X152.967 Y142.966 E5.00808
G1 X152.415 Y143.172 E5.02768
G1 X151.781 Y143.387 E5.04994
G1 X151.211 Y143.561 E5.06976
G1 X150.558 Y143.738 E5.09227
G1 X149.981 Y143.876 E5.112
G1 X149.341 Y144.009 E5.13374
G1 X148.737 Y144.116 E5.15414
G1 X148.069 Y144.214 E5.1766
G1 X147.466 Y144.283 E5.19678
G1 X146.797 Y144.339 E5.21911
G1 X146.231 Y144.369 E5.23796
G1 X145.812 Y144.383 E5.25191
G1 X144.799 Y144.398 E5.2856
G1 X144.636 Y144.399 E5.29103
G1 X104.776 Y144.4 E6.61678
G1 X102.167 Y144.437 E6.70356
G1 X99.646 Y144.544 E6.78748
G1 X97.167 Y144.72 E6.87014
G1 X94.64 Y144.971 E6.95461
G1 X92.14 Y145.291 E7.03843
G1 X89.673 Y145.678 E7.12149
G1 X87.14 Y146.146 E7.20716
G1 X86.211 Y146.277 E7.23837
G1 X85.275 Y146.328 E7.26955
G1 X84.337 Y146.3 E7.30076
G1 X83.406 Y146.191 E7.33193
G1 X82.487 Y146.004 E7.36313
G1 X81.587 Y145.739 E7.39433
G1 X80.713 Y145.399 E7.42552
G1 X79.777 Y144.933 E7.4603
G1 X79.298 Y144.665 E7.47856
G1 X77.009 Y143.43 E7.56506
G1 X75.03 Y142.433 E7.63877
G1 X74.822 Y142.325 E7.64656
G1 X74.677 Y142.248 E7.65202
G1 X73.868 Y141.773 E7.68322
G1 X73.103 Y141.231 E7.71441
G1 X72.386 Y140.626 E7.74561
G1 X71.804 Y140.049 E7.77287
G1 X71.629 Y139.862 E7.78139
G1 X71.512 Y139.734 E7.78715
G1 X70.078 Y138.152 E7.85817
G1 X68.881 Y136.91 E7.91554
G1 X68.786 Y136.81 E7.92013
G1 X68.224 Y136.212 E7.94742
G1 X67.43 Y135.266 E7.9885
G1 X67.056 Y134.766 E8.00927
G1 X65.406 Y132.623 E8.09923
G1 X64.842 Y131.913 E8.12938
G1 X64.291 Y131.154 E8.16058
G1 X63.807 Y130.351 E8.19176
G1 X63.392 Y129.509 E8.22299
G1 X63.051 Y128.636 E8.25416
G1 X62.786 Y127.736 E8.28536
G1 X62.598 Y126.817 E8.31656
G1 X62.489 Y125.886 E8.34774
G1 X62.46 Y124.948 E8.37895
G1 X62.481 Y124.382 E8.39779
G1 X62.543 Y123.393 E8.43075
G1 X62.678 Y120.752 E8.5187
G1 X62.734 Y118.264 E8.60148
G1 X62.72 Y115.739 E8.68546
G1 X62.633 Y113.173 E8.77085
G1 X62.538 Y111.517 E8.82602
G1 X62.481 Y110.66 E8.85459
G1 X62.459 Y109.722 E8.8858
G1 X62.517 Y108.786 E8.91699
G1 X62.655 Y107.858 E8.94819
G1 X62.871 Y106.946 E8.97936
G1 X63.164 Y106.055 E9.01056
G1 X63.532 Y105.192 E9.04176
G1 X63.972 Y104.364 E9.07295
G1 X64.481 Y103.576 E9.10415
G1 X64.801 Y103.148 E9.12193
G1 X65.46 Y102.308 E9.15744
G1 X66.892 Y100.424 E9.23614
G1 X66.957 Y100.339 E9.2397
G1 X67.524 Y99.608 E9.27047
G1 X68.279 Y98.734 E9.30889
G1 X68.635 Y98.363 E9.32599
G1 X70.417 Y96.481 E9.41219
G1 X71.334 Y95.46 E9.45784
G1 X71.434 Y95.35 E9.46278
G1 X71.744 Y95.014 E9.47799
G1 X72.409 Y94.352 E9.5092
G1 X72.515 Y94.263 E9.5138
G0 F1080 X73.128 Y93.75
G0 F6000 X73.398 Y94.046
G1 F1200 X74.154 Y93.52 E9.54443
G1 X75.017 Y93.028 E9.57747
G1 X77.574 Y91.725 E9.67292
G1 X79.626 Y90.6 E9.75076
G1 X79.731 Y90.543 E9.75473
G1 X80.145 Y90.322 E9.77034
G1 X80.975 Y89.924 E9.80096
G1 X81.837 Y89.6 E9.83158
G1 X82.724 Y89.351 E9.86223
G1 X83.628 Y89.181 E9.89282
G1 X84.544 Y89.09 E9.92344
G1 X85.465 Y89.078 E9.95407
G1 X86.383 Y89.147 E9.98469
G1 X87.084 Y89.253 E10.00827
G1 X87.952 Y89.415 E10.03764
G1 X90.454 Y89.854 E10.12213
G1 X92.98 Y90.225 E10.20704
G1 X95.5 Y90.523 E10.29144
G1 X98.025 Y90.749 E10.37576
G1 X100.533 Y90.902 E10.45933
G1 X103.049 Y90.984 E10.54306
G1 X104.809 Y91 E10.6016
G1 X144.588 Y91 E11.92465
G1 X144.761 Y91.001 E11.93041
G1 X145.922 Y91.02 E11.96903
G1 X146.225 Y91.03 E11.97911
G1 X146.514 Y91.043 E11.98873
G1 X146.99 Y91.075 E12.0046
G1 X147.378 Y91.11 E12.01756
G1 X147.812 Y91.158 E12.03208
G1 X148.335 Y91.227 E12.04963
G1 X148.883 Y91.314 E12.06808
G1 X149.411 Y91.412 E12.08594
G1 X150.059 Y91.553 E12.108
G1 X150.708 Y91.716 E12.13026
G1 X151.327 Y91.892 E12.15166
G1 X151.87 Y92.064 E12.17061
G1 X152.501 Y92.286 E12.19285
G1 X153.089 Y92.514 E12.21383
G1 X153.645 Y92.748 E12.23389
G1 X154.153 Y92.979 E12.25245
G1 X154.742 Y93.269 E12.27429
G1 X155.293 Y93.562 E12.29505
G1 X155.874 Y93.895 E12.31732
G1 X156.405 Y94.222 E12.33806
G1 X156.944 Y94.577 E12.35953
G1 X157.419 Y94.911 E12.37884
G1 X157.935 Y95.298 E12.40029
G1 X158.391 Y95.662 E12.4197
G1 X158.851 Y96.051 E12.43974
G1 X159.283 Y96.438 E12.45903
G1 X159.604 Y96.738 E12.47364
G1 X160.475 Y97.586 E12.51407
G1 X160.577 Y97.687 E12.51885
G1 X168.961 Y106.073 E12.91325
G1 X169.069 Y106.182 E12.91835
G1 X169.608 Y106.737 E12.94409
G1 X169.923 Y107.076 E12.95948
G1 X170.141 Y107.321 E12.97039
G1 X170.589 Y107.859 E12.99367
G1 X170.785 Y108.111 E13.00429
G1 X171.246 Y108.751 E13.03052
G1 X171.47 Y109.088 E13.04398
G1 X171.92 Y109.829 E13.07282
G1 X172.125 Y110.2 E13.08691
G1 X172.469 Y110.881 E13.11229
G1 X172.597 Y111.158 E13.12244
G1 X172.993 Y112.14 E13.15766
G1 X173.197 Y112.73 E13.17842
G1 X173.484 Y113.709 E13.21235
G1 X173.579 Y114.103 E13.22583
G1 X173.759 Y115.032 E13.25731
G1 X173.805 Y115.342 E13.26773
G1 X173.883 Y116.018 E13.29036
G1 X173.917 Y116.426 E13.30398
G1 X173.953 Y117.431 E13.33743
G1 X173.947 Y117.938 E13.35429
G1 X173.888 Y118.935 E13.38751
G1 X173.845 Y119.339 E13.40102
G1 X173.702 Y120.282 E13.43275
G1 X173.613 Y120.73 E13.44794
G1 X173.44 Y121.464 E13.47302
G1 X173.365 Y121.738 E13.48247
G1 X173.212 Y122.246 E13.50011
G1 X173.146 Y122.447 E13.50715
G1 X172.94 Y123.017 E13.52731
G1 X172.85 Y123.246 E13.53549
G1 X172.616 Y123.796 E13.55537
G1 X172.451 Y124.155 E13.56851
G1 X171.961 Y125.095 E13.60377
G1 X171.678 Y125.577 E13.62236
G1 X171.102 Y126.456 E13.65731
G1 X170.865 Y126.781 E13.67069
G1 X170.321 Y127.465 E13.69976
G1 X170.048 Y127.781 E13.71365
G1 X169.752 Y128.109 E13.72834
G1 X169.457 Y128.423 E13.74267
G1 X169.229 Y128.659 E13.75359
G1 X160.481 Y137.41 E14.16514
G1 X160.361 Y137.528 E14.17074
G1 X159.516 Y138.347 E14.20988
G1 X159.287 Y138.562 E14.22032
G1 X159.091 Y138.741 E14.22915
G1 X158.866 Y138.941 E14.23916
G1 X158.706 Y139.079 E14.24619
G1 X158.301 Y139.411 E14.26361
G1 X157.711 Y139.871 E14.28849
G1 X157.174 Y140.263 E14.31061
G1 X156.738 Y140.561 E14.32817
G1 X156.204 Y140.904 E14.34928
G1 X155.628 Y141.249 E14.37161
G1 X155.041 Y141.575 E14.39394
G1 X154.539 Y141.834 E14.41273
G1 X153.955 Y142.113 E14.43426
G1 X153.397 Y142.359 E14.45454
G1 X152.827 Y142.591 E14.47501
G1 X152.275 Y142.797 E14.49461
G1 X151.664 Y143.004 E14.51606
G1 X151.094 Y143.178 E14.53588
G1 X150.465 Y143.349 E14.55756
G1 X149.888 Y143.487 E14.5773
G1 X149.271 Y143.615 E14.59825
G1 X148.667 Y143.722 E14.61866
G1 X148.023 Y143.816 E14.6403
G1 X147.42 Y143.885 E14.66049
G1 X146.776 Y143.939 E14.68198
G1 X146.21 Y143.969 E14.70084
G1 X145.806 Y143.983 E14.71428
G1 X144.793 Y143.998 E14.74798
G1 X144.636 Y143.999 E14.7532
G1 X104.77 Y144 E16.07915
G1 X102.144 Y144.037 E16.1665
G1 X99.637 Y144.144 E16.24996
G1 X97.132 Y144.321 E16.33348
G1 X94.586 Y144.574 E16.41858
G1 X92.098 Y144.893 E16.50201
G1 X89.574 Y145.288 E16.58698
G1 X87.067 Y145.752 E16.67178
G1 X86.155 Y145.88 E16.70241
G1 X85.236 Y145.929 E16.73302
G1 X84.316 Y145.897 E16.76363
G1 X83.402 Y145.786 E16.79426
G1 X82.501 Y145.595 E16.82489
G1 X81.62 Y145.328 E16.85551
G1 X80.766 Y144.985 E16.88612
G1 X79.972 Y144.584 E16.9157
G1 X79.505 Y144.323 E16.9335
G1 X77.185 Y143.071 E17.02118
G1 X75.21 Y142.076 E17.09473
G1 X75.01 Y141.972 E17.10223
G1 X74.865 Y141.895 E17.10769
G1 X74.071 Y141.428 E17.13833
G1 X73.321 Y140.894 E17.16895
G1 X72.62 Y140.297 E17.19958
G1 X72.096 Y139.776 E17.22415
G1 X71.921 Y139.589 E17.23267
G1 X71.808 Y139.466 E17.23823
G1 X70.347 Y137.855 E17.31056
G1 X69.169 Y136.632 E17.36704
G1 X69.078 Y136.536 E17.37144
G1 X68.516 Y135.938 E17.39873
G1 X67.751 Y135.027 E17.4383
G1 X67.382 Y134.533 E17.45881
G1 X65.691 Y132.338 E17.55097
G1 X65.156 Y131.664 E17.57959
G1 X64.615 Y130.919 E17.61021
G1 X64.142 Y130.129 E17.64084
G1 X63.738 Y129.302 E17.67145
G1 X63.408 Y128.442 E17.70209
G1 X63.154 Y127.557 E17.73271
G1 X62.977 Y126.654 E17.76332
G1 X62.88 Y125.738 E17.79395
G1 X62.88 Y124.408 E17.83819
G1 X62.945 Y123.373 E17.87268
G1 X63.077 Y120.781 E17.959
G1 X63.134 Y118.271 E18.04251
G1 X63.12 Y115.724 E18.12722
G1 X63.033 Y113.181 E18.21185
G1 X62.937 Y111.495 E18.26802
G1 X62.88 Y110.633 E18.29675
G1 X62.859 Y109.713 E18.32736
G1 X62.919 Y108.794 E18.35799
G1 X63.057 Y107.884 E18.3886
G1 X63.274 Y106.99 E18.4192
G1 X63.568 Y106.117 E18.44984
G1 X63.937 Y105.273 E18.48048
G1 X64.377 Y104.465 E18.51108
G1 X65.116 Y103.394 E18.55436
G1 X65.806 Y102.514 E18.59155
G1 X67.211 Y100.666 E18.66876
G1 X67.273 Y100.584 E18.67218
G1 X67.84 Y99.853 E18.70295
G1 X68.568 Y99.011 E18.73997
G1 X68.875 Y98.691 E18.75472
G1 X70.724 Y96.738 E18.84417
G1 X71.632 Y95.727 E18.88937
G1 X71.728 Y95.621 E18.89412
G1 X72.038 Y95.285 E18.90933
G1 X72.691 Y94.636 E18.93995
G1 X72.784 Y94.559 E18.94397
G0 F1080 X73.398 Y94.046
G0 F6000 X73.668 Y94.344
G1 F1200 X74.412 Y93.831 E18.97402
G1 X75.199 Y93.385 E19.00411
G1 X77.757 Y92.082 E19.09959
G1 X79.819 Y90.951 E19.17781
G1 X79.92 Y90.896 E19.18164
G1 X80.334 Y90.675 E19.19725
G1 X81.148 Y90.285 E19.22727
G1 X81.994 Y89.969 E19.25731
G1 X82.865 Y89.729 E19.28735
G1 X83.753 Y89.567 E19.31738
G1 X84.653 Y89.484 E19.34744
G1 X85.556 Y89.482 E19.37747
G1 X86.456 Y89.559 E19.40752
G1 X87.01 Y89.647 E19.42617
G1 X87.801 Y89.795 E19.45294
G1 X90.398 Y90.251 E19.54064
G1 X92.946 Y90.625 E19.62629
G1 X95.451 Y90.921 E19.71019
G1 X97.969 Y91.146 E19.79427
G1 X100.494 Y91.3 E19.87841
G1 X103.076 Y91.384 E19.96433
G1 X104.805 Y91.4 E20.02184
G1 X144.588 Y91.4 E21.34503
G1 X144.755 Y91.401 E21.35058
G1 X145.916 Y91.42 E21.3892
G1 X146.207 Y91.429 E21.39889
G1 X146.496 Y91.442 E21.40851
G1 X146.954 Y91.473 E21.42378
G1 X147.342 Y91.508 E21.43673
G1 X147.76 Y91.555 E21.45072
G1 X148.283 Y91.624 E21.46827
G1 X148.81 Y91.707 E21.48601
G1 X149.338 Y91.805 E21.50388
G1 X149.962 Y91.941 E21.52512
G1 X150.611 Y92.104 E21.54737
G1 X151.206 Y92.273 E21.56795
G1 X151.749 Y92.445 E21.58689
G1 X152.357 Y92.659 E21.60833
G1 X152.945 Y92.887 E21.6293
G1 X153.479 Y93.112 E21.64858
G1 X153.987 Y93.343 E21.66714
G1 X154.554 Y93.622 E21.68816
G1 X155.105 Y93.915 E21.70891
G1 X155.665 Y94.236 E21.73038
G1 X156.196 Y94.563 E21.75112
G1 X156.714 Y94.904 E21.77175
G1 X157.189 Y95.238 E21.79106
G1 X157.685 Y95.61 E21.81168
G1 X158.141 Y95.974 E21.83109
G1 X158.584 Y96.349 E21.85039
G1 X159.016 Y96.736 E21.86969
G1 X159.325 Y97.025 E21.88376
G1 X160.196 Y97.873 E21.92419
G1 X160.294 Y97.969 E21.92875
G1 X168.678 Y106.355 E22.32316
G1 X168.782 Y106.461 E22.3281
G1 X169.321 Y107.016 E22.35383
G1 X169.624 Y107.342 E22.36863
G1 X169.842 Y107.587 E22.37954
G1 X170.273 Y108.105 E22.40195
G1 X170.469 Y108.357 E22.41257
G1 X170.913 Y108.973 E22.43782
G1 X171.137 Y109.31 E22.45128
G1 X171.57 Y110.023 E22.47903
G1 X171.775 Y110.394 E22.49313
G1 X172.106 Y111.048 E22.51751
G1 X172.234 Y111.325 E22.52765
G1 X172.615 Y112.271 E22.56157
G1 X172.819 Y112.861 E22.58234
G1 X173.095 Y113.803 E22.61499
G1 X173.19 Y114.197 E22.62847
G1 X173.364 Y115.091 E22.65876
G1 X173.41 Y115.401 E22.66918
G1 X173.485 Y116.051 E22.69095
G1 X173.519 Y116.459 E22.70456
G1 X173.553 Y117.427 E22.73678
G1 X173.547 Y117.934 E22.75364
G1 X173.491 Y118.893 E22.78559
G1 X173.448 Y119.297 E22.79911
