;FLAVOR:Marlin
;TIME:2223
;Filament used: 0.647576m
;Layer height: 0.12
;MINX:89.429
;MINY:103.35
;MINZ:0.2
;MAXX:130.571
;MAXY:131.65
;MAXZ:6.26
;Generated with Cura_SteamEngine 4.4.1
M140 S60
M105
M190 S60
M104 S205
M105
M109 S205
M82 ;absolute extrusion mode
M201 X500.00 Y500.00 Z100.00 E5000.00 ;Setup machine max acceleration
M203 X500.00 Y500.00 Z10.00 E75.00 ;Setup machine max feedrate
M204 P500.00 R1000.00 T500.00 ;Setup Print/Retract/Travel acceleration
M205 X8.00 Y8.00 Z0.40 E5.00 ;Setup Jerk
M220 S100 ;Reset Feedrate
M221 S100 ;Reset Flowrate

G21 ; (metric values)
G90 ; (absolute positioning)
M82 ; (set extruder to absolute mode)
G28 ; (home all axis)
G29 ; (Auto Level)

G92 E0 ;Reset Extruder
G1 Z2.0 F3000 ;Move Z Axis up
G1 X1.1 Y50 Z0.28 F5000.0 ;Move to start position
G1 X1.1 Y200.0 Z0.28 F1500.0 E15 ;Draw the first line
G1 X1.4 Y200.0 Z0.28 F5000.0 ;Move to side a little
G1 X1.4 Y100 Z0.28 F1500.0 E30 ;Draw the second line
G92 E0 ;Reset Extruder
G1 Z2.0 F3000 ;Move Z Axis up
G92 E0
G92 E0
G1 F3000 E-6
;LAYER_COUNT:49
;LAYER:0
M107
G1 F300 Z0.5
G0 F6000 X92.807 Y105.953 Z0.5
;TYPE:SKIRT
G1 F300 Z0.2
G1 F3000 E0
G1 F1200 X93.011 Y105.774 E0.00677
G1 X93.177 Y105.636 E0.01215
G1 X93.376 Y105.478 E0.01849
G1 X93.613 Y105.3 E0.02589
G1 X93.849 Y105.133 E0.0331
G1 X94.056 Y104.995 E0.0393
G1 X94.294 Y104.845 E0.04632
G1 X94.526 Y104.708 E0.05304
G1 X94.73 Y104.594 E0.05887
G1 X94.956 Y104.474 E0.06526
G1 X95.223 Y104.342 E0.07269
G1 X95.43 Y104.247 E0.07837
G1 X95.641 Y104.156 E0.0841
G1 X95.912 Y104.046 E0.0914
G1 X96.204 Y103.938 E0.09916
G1 X96.477 Y103.846 E0.10635
G1 X96.759 Y103.76 E0.1137
G1 X97.025 Y103.687 E0.12058
G1 X97.276 Y103.625 E0.12703
G1 X97.484 Y103.579 E0.13235
G1 X97.726 Y103.531 E0.1385
G1 X98.006 Y103.483 E0.14559
G1 X98.345 Y103.436 E0.15412
G1 X98.692 Y103.4 E0.16283
G1 X99.109 Y103.374 E0.17325
G1 X100.145 Y103.351 E0.1991
G1 X100.259 Y103.35 E0.20194
G1 X122.381 Y103.35 E0.75378
G1 X122.492 Y103.351 E0.75655
G1 X123.795 Y103.379 E0.78906
G1 X124.659 Y103.471 E0.81073
G1 X124.908 Y103.519 E0.81706
G1 X125.508 Y103.673 E0.83251
G1 X125.701 Y103.735 E0.83757
G1 X126.252 Y103.947 E0.85229
G1 X126.466 Y104.044 E0.85816
G1 X126.97 Y104.307 E0.87234
G1 X127.172 Y104.427 E0.8782
G1 X127.75 Y104.827 E0.89573
G1 X127.976 Y105.007 E0.90294
G1 X128.485 Y105.471 E0.92012
G1 X128.648 Y105.641 E0.92599
G1 X129.041 Y106.102 E0.94111
G1 X129.192 Y106.302 E0.94736
G1 X129.545 Y106.835 E0.9633
G1 X129.674 Y107.059 E0.96975
G1 X129.978 Y107.681 E0.98702
G1 X130.072 Y107.911 E0.99322
G1 X130.255 Y108.437 E1.00711
G1 X130.311 Y108.632 E1.01217
G1 X130.449 Y109.259 E1.02819
G1 X130.507 Y109.843 E1.04283
G1 X130.567 Y111.306 E1.07935
G1 X130.571 Y111.517 E1.08462
G1 X130.571 Y123.46 E1.38254
G1 X130.57 Y123.571 E1.38531
G1 X130.542 Y124.874 E1.41782
G1 X130.448 Y125.75 E1.43979
G1 X130.399 Y126.001 E1.44617
G1 X130.25 Y126.581 E1.46111
G1 X130.189 Y126.772 E1.46611
G1 X129.966 Y127.347 E1.4815
G1 X129.864 Y127.57 E1.48762
G1 X129.605 Y128.064 E1.50153
G1 X129.49 Y128.257 E1.50713
G1 X129.086 Y128.84 E1.52483
G1 X128.901 Y129.071 E1.53221
G1 X128.445 Y129.569 E1.54905
G1 X128.275 Y129.732 E1.55493
G1 X127.785 Y130.147 E1.57095
G1 X127.582 Y130.298 E1.57726
G1 X127.05 Y130.645 E1.5931
G1 X126.828 Y130.771 E1.59947
G1 X126.018 Y131.142 E1.62169
G1 X125.612 Y131.287 E1.63245
G1 X124.776 Y131.508 E1.65402
G1 X124.578 Y131.543 E1.65903
G1 X123.793 Y131.621 E1.67871
G1 X122.492 Y131.649 E1.71117
G1 X122.381 Y131.65 E1.71394
G1 X100.259 Y131.65 E2.26578
G1 X100.162 Y131.649 E2.2682
G1 X99.154 Y131.63 E2.29335
G1 X98.712 Y131.603 E2.30439
G1 X98.389 Y131.569 E2.31249
G1 X98.163 Y131.54 E2.31818
G1 X97.95 Y131.508 E2.32355
G1 X97.732 Y131.47 E2.32907
G1 X97.516 Y131.428 E2.33456
G1 X97.245 Y131.368 E2.34148
G1 X96.982 Y131.302 E2.34825
G1 X96.698 Y131.222 E2.35561
G1 X96.42 Y131.135 E2.36287
G1 X96.179 Y131.053 E2.36922
G1 X95.959 Y130.972 E2.37507
G1 X95.731 Y130.882 E2.38119
G1 X95.497 Y130.783 E2.38753
G1 X95.224 Y130.658 E2.39502
G1 X94.981 Y130.538 E2.40178
G1 X94.739 Y130.41 E2.4086
G1 X94.488 Y130.269 E2.41579
G1 X94.267 Y130.138 E2.4222
G1 X94.062 Y130.009 E2.42824
G1 X93.819 Y129.846 E2.43554
G1 X93.611 Y129.698 E2.4419
G1 X93.411 Y129.548 E2.44814
G1 X93.218 Y129.396 E2.45427
G1 X93.015 Y129.228 E2.46084
G1 X92.785 Y129.027 E2.46846
G1 X92.565 Y128.823 E2.47595
G1 X92.394 Y128.655 E2.48193
G1 X92.218 Y128.473 E2.48824
G1 X92.027 Y128.266 E2.49527
G1 X91.858 Y128.073 E2.50167
G1 X91.717 Y127.904 E2.50716
G1 X91.553 Y127.698 E2.51372
G1 X91.378 Y127.465 E2.52099
G1 X91.202 Y127.215 E2.52862
G1 X91.063 Y127.005 E2.5349
G1 X90.926 Y126.786 E2.54135
G1 X90.791 Y126.558 E2.54796
G1 X90.673 Y126.348 E2.55396
G1 X90.552 Y126.12 E2.5604
G1 X90.429 Y125.873 E2.56729
G1 X90.339 Y125.679 E2.57262
G1 X90.234 Y125.436 E2.57922
G1 X90.12 Y125.153 E2.58684
G1 X90.019 Y124.879 E2.59412
G1 X89.927 Y124.607 E2.60128
G1 X89.839 Y124.32 E2.60877
G1 X89.766 Y124.054 E2.61565
G1 X89.704 Y123.803 E2.6221
G1 X89.658 Y123.595 E2.62741
G1 X89.61 Y123.353 E2.63357
G1 X89.562 Y123.073 E2.64066
G1 X89.515 Y122.734 E2.64919
G1 X89.479 Y122.387 E2.6579
G1 X89.453 Y121.97 E2.66832
G1 X89.43 Y120.934 E2.69417
G1 X89.429 Y120.82 E2.69701
G1 X89.429 Y114.18 E2.86265
G1 X89.43 Y114.083 E2.86507
G1 X89.449 Y113.075 E2.89022
G1 X89.476 Y112.633 E2.90126
G1 X89.51 Y112.31 E2.90936
G1 X89.539 Y112.083 E2.91507
G1 X89.573 Y111.857 E2.92077
G1 X89.613 Y111.627 E2.9266
G1 X89.653 Y111.424 E2.93176
G1 X89.711 Y111.166 E2.93835
G1 X89.777 Y110.903 E2.94512
G1 X89.857 Y110.619 E2.95248
G1 X89.944 Y110.341 E2.95974
G1 X90.026 Y110.1 E2.9661
G1 X90.107 Y109.88 E2.97194
G1 X90.197 Y109.652 E2.97806
G1 X90.296 Y109.418 E2.9844
G1 X90.421 Y109.145 E2.99189
G1 X90.541 Y108.902 E2.99865
G1 X90.669 Y108.66 E3.00548
G1 X90.81 Y108.409 E3.01266
G1 X90.938 Y108.194 E3.0189
G1 X91.066 Y107.99 E3.02491
G1 X91.229 Y107.745 E3.03225
G1 X91.381 Y107.531 E3.03879
G1 X91.54 Y107.318 E3.04542
G1 X91.695 Y107.122 E3.05166
G1 X91.866 Y106.918 E3.0583
G1 X92.052 Y106.707 E3.06531
G0 F1080 X92.054 Y106.704
G0 X92.242 Y106.501
G0 X92.423 Y106.316
G0 X92.608 Y106.137
G0 X92.807 Y105.953
G1 F3000 E-2.93469
G1 F300 Z0.5
;MESH:Papa Anh??nger.stl
G0 F6000 X98.062 Y119.485 Z0.5
;TYPE:WALL-INNER
G1 F300 Z0.2
G1 F3000 E3.06531
G1 F1200 X98.25 Y119.371 E3.0708
G1 X98.427 Y119.24 E3.07629
G1 X98.59 Y119.092 E3.08178
G1 X98.738 Y118.929 E3.08728
G1 X98.872 Y118.751 E3.09283
G1 X98.985 Y118.562 E3.09833
G1 X99.081 Y118.361 E3.10388
G1 X99.155 Y118.15 E3.10946
G1 X99.208 Y117.938 E3.11491
G1 X99.239 Y117.721 E3.12038
G1 X99.25 Y117.5 E3.1259
G1 X99.239 Y117.279 E3.13142
G1 X99.208 Y117.062 E3.13689
G1 X99.155 Y116.85 E3.14234
G1 X99.081 Y116.639 E3.14792
G1 X98.985 Y116.438 E3.15347
G1 X98.872 Y116.249 E3.15897
G1 X98.738 Y116.071 E3.16452
G1 X98.59 Y115.908 E3.17002
G1 X98.427 Y115.76 E3.17551
G1 X98.25 Y115.629 E3.181
G1 X98.062 Y115.515 E3.18649
G1 X97.861 Y115.419 E3.19204
G1 X97.651 Y115.345 E3.1976
G1 X97.44 Y115.292 E3.20302
G1 X97.221 Y115.26 E3.20854
G1 X97 Y115.25 E3.21406
G1 X96.779 Y115.26 E3.21958
G1 X96.561 Y115.292 E3.22508
G1 X96.346 Y115.346 E3.23061
G1 X96.139 Y115.421 E3.2361
G1 X95.938 Y115.515 E3.24163
G1 X95.75 Y115.628 E3.24711
G1 X95.572 Y115.76 E3.25263
G1 X95.409 Y115.908 E3.25813
G1 X95.329 Y115.995 E3.26107
G1 X95.329 Y113.52 E3.32281
G1 X95.336 Y113.265 E3.32918
G1 X95.353 Y113.043 E3.33473
G1 X95.379 Y112.853 E3.33952
G1 X95.42 Y112.627 E3.34524
G1 X95.477 Y112.389 E3.35135
G1 X95.534 Y112.198 E3.35632
G1 X95.616 Y111.965 E3.36248
G1 X95.704 Y111.753 E3.36821
G1 X95.784 Y111.588 E3.37278
G1 X95.889 Y111.393 E3.37831
G1 X96.022 Y111.176 E3.38466
G1 X96.136 Y111.01 E3.38968
G1 X96.285 Y110.814 E3.39582
G1 X96.428 Y110.647 E3.40131
G1 X96.57 Y110.497 E3.40646
G1 X96.726 Y110.349 E3.41182
G1 X96.887 Y110.211 E3.41711
G1 X97.089 Y110.057 E3.42345
G1 X97.262 Y109.938 E3.42869
G1 X97.445 Y109.825 E3.43405
G1 X97.667 Y109.705 E3.44035
G1 X97.832 Y109.625 E3.44492
G1 X98.047 Y109.536 E3.45073
G1 X98.277 Y109.455 E3.45681
G1 X98.468 Y109.398 E3.46178
G1 X98.706 Y109.341 E3.46789
G1 X98.914 Y109.303 E3.47316
G1 X99.138 Y109.274 E3.47879
G1 X99.352 Y109.257 E3.48415
G1 X99.599 Y109.25 E3.49031
G1 X123.388 Y109.25 E4.08373
G1 X123.531 Y109.257 E4.0873
G1 X123.635 Y109.269 E4.08991
G1 X123.72 Y109.287 E4.09208
G1 X123.828 Y109.318 E4.09489
G1 X123.925 Y109.357 E4.09749
G1 X124.01 Y109.398 E4.09985
G1 X124.104 Y109.455 E4.10259
G1 X124.202 Y109.525 E4.10559
G1 X124.267 Y109.58 E4.10772
G1 X124.334 Y109.647 E4.11008
G1 X124.402 Y109.727 E4.1127
G1 X124.466 Y109.817 E4.11546
G1 X124.523 Y109.912 E4.11822
G1 X124.562 Y109.99 E4.12039
G1 X124.599 Y110.085 E4.12294
G1 X124.633 Y110.2 E4.12593
G1 X124.655 Y110.305 E4.1286
G1 X124.664 Y110.378 E4.13044
G1 X124.671 Y110.527 E4.13416
G1 X124.671 Y124.469 E4.48195
G1 X124.665 Y124.608 E4.48542
G1 X124.655 Y124.697 E4.48765
G1 X124.634 Y124.8 E4.49027
G1 X124.605 Y124.901 E4.49289
G1 X124.568 Y124.998 E4.49548
G1 X124.523 Y125.089 E4.49802
G1 X124.468 Y125.182 E4.50071
G1 X124.408 Y125.265 E4.50327
G1 X124.334 Y125.353 E4.50613
G1 X124.267 Y125.42 E4.5085
G1 X124.202 Y125.475 E4.51062
G1 X124.104 Y125.545 E4.51363
G1 X124.011 Y125.601 E4.51633
G1 X123.925 Y125.643 E4.51872
G1 X123.828 Y125.682 E4.52133
G1 X123.72 Y125.713 E4.52413
G1 X123.635 Y125.731 E4.5263
G1 X123.531 Y125.743 E4.52891
G1 X123.388 Y125.75 E4.53248
G1 X99.599 Y125.75 E5.1259
G1 X99.352 Y125.743 E5.13206
G1 X99.125 Y125.725 E5.13775
G1 X98.921 Y125.698 E5.14288
G1 X98.706 Y125.659 E5.14833
G1 X98.467 Y125.602 E5.15446
G1 X98.277 Y125.545 E5.15941
G1 X98.047 Y125.464 E5.16549
G1 X97.832 Y125.375 E5.17129
G1 X97.667 Y125.295 E5.17587
G1 X97.445 Y125.175 E5.18216
G1 X97.262 Y125.062 E5.18753
G1 X97.089 Y124.943 E5.19277
G1 X96.887 Y124.789 E5.1991
G1 X96.725 Y124.65 E5.20443
G1 X96.57 Y124.503 E5.20976
G1 X96.42 Y124.345 E5.21519
G1 X96.273 Y124.172 E5.22085
G1 X96.136 Y123.991 E5.22652
G1 X96.022 Y123.824 E5.23156
G1 X95.889 Y123.607 E5.23791
G1 X95.784 Y123.412 E5.24343
G1 X95.702 Y123.241 E5.24816
G1 X95.614 Y123.029 E5.25389
G1 X95.534 Y122.802 E5.25989
G1 X95.477 Y122.611 E5.26487
G1 X95.42 Y122.373 E5.27097
G1 X95.379 Y122.147 E5.2767
G1 X95.353 Y121.95 E5.28166
G1 X95.336 Y121.729 E5.28719
G1 X95.329 Y121.5 E5.2929
G1 X95.329 Y119.005 E5.35514
G1 X95.409 Y119.092 E5.35809
G1 X95.572 Y119.24 E5.36358
G1 X95.75 Y119.372 E5.36911
G1 X95.938 Y119.485 E5.37458
G1 X96.139 Y119.579 E5.38011
G1 X96.346 Y119.654 E5.38561
G1 X96.561 Y119.708 E5.39114
G1 X96.779 Y119.74 E5.39663
G1 X97 Y119.75 E5.40215
G1 X97.037 Y119.748 E5.40308
G0 F1080 X97.221 Y119.74
G0 X97.44 Y119.708
G0 X97.651 Y119.655
G0 X97.861 Y119.581
G0 X98.062 Y119.485
G1 F3000 E-0.59692
G1 F300 Z0.5
G0 F6000 X95.029 Y121.5 Z0.5
G1 F300 Z0.2
G1 F3000 E5.40308
G1 F1200 X95.029 Y113.512 E5.60234
G1 X95.036 Y113.257 E5.6087
G1 X95.054 Y113.02 E5.61463
G1 X95.084 Y112.799 E5.62019
G1 X95.128 Y112.557 E5.62633
G1 X95.185 Y112.319 E5.63243
G1 X95.251 Y112.098 E5.63819
G1 X95.333 Y111.865 E5.64435
G1 X95.427 Y111.638 E5.65048
G1 X95.52 Y111.445 E5.65582
G1 X95.633 Y111.236 E5.66175
G1 X95.766 Y111.019 E5.6681
G1 X95.897 Y110.828 E5.67387
G1 X96.046 Y110.632 E5.68002
G1 X96.2 Y110.452 E5.68593
G1 X96.358 Y110.285 E5.69166
G1 X96.531 Y110.121 E5.69761
G1 X96.705 Y109.972 E5.70332
G1 X96.907 Y109.818 E5.70966
G1 X97.105 Y109.682 E5.71565
G1 X97.294 Y109.566 E5.72118
G1 X97.524 Y109.441 E5.72771
G1 X97.717 Y109.348 E5.73306
G1 X97.944 Y109.254 E5.73918
G1 X98.177 Y109.172 E5.74535
G1 X98.398 Y109.106 E5.7511
G1 X98.636 Y109.049 E5.7572
G1 X98.875 Y109.005 E5.76327
G1 X99.099 Y108.976 E5.7689
G1 X99.339 Y108.957 E5.77491
G1 X99.591 Y108.95 E5.78119
G1 X123.402 Y108.95 E6.37516
G1 X123.551 Y108.957 E6.37888
G1 X123.68 Y108.972 E6.38212
G1 X123.797 Y108.997 E6.38511
G1 X123.928 Y109.035 E6.38851
G1 X124.044 Y109.081 E6.39162
G1 X124.155 Y109.135 E6.3947
G1 X124.271 Y109.205 E6.39808
G1 X124.377 Y109.281 E6.40134
G1 X124.473 Y109.362 E6.40447
G1 X124.558 Y109.447 E6.40747
G1 X124.64 Y109.544 E6.41064
G1 X124.716 Y109.65 E6.41389
G1 X124.784 Y109.763 E6.41718
G1 X124.841 Y109.879 E6.4204
G1 X124.884 Y109.99 E6.42337
G1 X124.925 Y110.129 E6.42699
G1 X124.951 Y110.252 E6.43012
G1 X124.964 Y110.364 E6.43294
G1 X124.971 Y110.513 E6.43666
G1 X124.971 Y124.482 E6.78512
G1 X124.965 Y124.624 E6.78866
G1 X124.951 Y124.749 E6.7918
G1 X124.924 Y124.878 E6.79509
G1 X124.89 Y124.994 E6.7981
G1 X124.843 Y125.117 E6.80139
G1 X124.781 Y125.243 E6.80489
G1 X124.719 Y125.347 E6.80791
G1 X124.643 Y125.452 E6.81114
G1 X124.559 Y125.552 E6.8144
G1 X124.473 Y125.638 E6.81743
G1 X124.377 Y125.719 E6.82057
G1 X124.271 Y125.795 E6.82382
G1 X124.155 Y125.865 E6.8272
G1 X124.044 Y125.919 E6.83028
G1 X123.928 Y125.965 E6.83339
G1 X123.797 Y126.003 E6.8368
G1 X123.68 Y126.028 E6.83978
G1 X123.551 Y126.043 E6.84302
G1 X123.402 Y126.05 E6.84674
G1 X99.591 Y126.05 E7.44071
G1 X99.339 Y126.043 E7.447
G1 X99.099 Y126.024 E7.453
G1 X98.874 Y125.994 E7.45866
G1 X98.635 Y125.951 E7.46472
G1 X98.397 Y125.894 E7.47083
G1 X98.177 Y125.828 E7.47656
G1 X97.944 Y125.746 E7.48272
G1 X97.717 Y125.652 E7.48885
G1 X97.524 Y125.559 E7.49419
G1 X97.294 Y125.434 E7.50072
G1 X97.105 Y125.318 E7.50625
G1 X96.907 Y125.182 E7.51225
G1 X96.705 Y125.028 E7.51858
G1 X96.53 Y124.878 E7.52433
G1 X96.358 Y124.715 E7.53024
G1 X96.196 Y124.544 E7.53612
G1 X96.045 Y124.367 E7.54192
G1 X95.897 Y124.172 E7.54803
G1 X95.766 Y123.981 E7.55381
G1 X95.633 Y123.764 E7.56015
G1 X95.52 Y123.555 E7.56608
G1 X95.426 Y123.359 E7.5715
G1 X95.332 Y123.132 E7.57763
G1 X95.251 Y122.902 E7.58372
G1 X95.185 Y122.681 E7.58947
G1 X95.155 Y122.559 E7.5926
G0 F1080 X95.128 Y122.443
G0 X95.084 Y122.201
G0 X95.054 Y121.975
G0 X95.036 Y121.74
G0 X95.029 Y121.5
G1 F3000 E1.5926
G1 F300 Z0.5
G0 F6000 X97.778 Y118.955 Z0.5
;TYPE:WALL-OUTER
G1 F300 Z0.2
G1 F3000 E7.5926
G1 F1200 X97.916 Y118.872 E7.59662
G1 X98.046 Y118.776 E7.60065
G1 X98.166 Y118.667 E7.6047
G1 X98.275 Y118.547 E7.60874
G1 X98.372 Y118.417 E7.61279
G1 X98.455 Y118.278 E7.61682
G1 X98.525 Y118.131 E7.62089
G1 X98.579 Y117.978 E7.62493
G1 X98.618 Y117.822 E7.62894
G1 X98.641 Y117.662 E7.63298
G1 X98.65 Y117.5 E7.63702
G1 X98.641 Y117.338 E7.64107
G1 X98.618 Y117.178 E7.6451
G1 X98.579 Y117.022 E7.64911
G1 X98.525 Y116.869 E7.65316
G1 X98.455 Y116.722 E7.65722
G1 X98.372 Y116.583 E7.66126
G1 X98.275 Y116.453 E7.66531
G1 X98.166 Y116.333 E7.66935
G1 X98.046 Y116.224 E7.6734
G1 X97.916 Y116.128 E7.67743
G1 X97.778 Y116.045 E7.68144
G1 X97.631 Y115.975 E7.68551
G1 X97.478 Y115.921 E7.68955
G1 X97.322 Y115.882 E7.69356
G1 X97.162 Y115.858 E7.6976
G1 X97 Y115.85 E7.70165
G1 X96.838 Y115.858 E7.70569
G1 X96.677 Y115.882 E7.70975
G1 X96.52 Y115.921 E7.71379
G1 X96.369 Y115.975 E7.71779
G1 X96.222 Y116.045 E7.72185
G1 X96.083 Y116.128 E7.72589
G1 X95.953 Y116.224 E7.72992
G1 X95.833 Y116.333 E7.73396
G1 X95.724 Y116.453 E7.73801
G1 X95.628 Y116.584 E7.74206
G1 X95.545 Y116.722 E7.74608
G1 X95.475 Y116.868 E7.75011
G1 X95.42 Y117.022 E7.75419
G1 X95.382 Y117.178 E7.7582
G1 X95.358 Y117.338 E7.76223
G1 X95.35 Y117.5 E7.76628
G1 X95.358 Y117.662 E7.77033
G1 X95.382 Y117.822 E7.77436
G1 X95.42 Y117.978 E7.77837
G1 X95.475 Y118.132 E7.78245
G1 X95.545 Y118.278 E7.78649
G1 X95.628 Y118.416 E7.7905
G1 X95.724 Y118.547 E7.79455
G1 X95.833 Y118.667 E7.7986
G1 X95.953 Y118.776 E7.80264
G1 X96.083 Y118.872 E7.80667
G1 X96.222 Y118.955 E7.81071
G1 X96.369 Y119.025 E7.81477
