;FLAVOR:Marlin
;TIME:1587
;Filament used: 1.15988m
;Layer height: 0.2
;MINX:87.432
;MINY:36.734
;MINZ:0.3
;MAXX:132.564
;MAXY:203.289
;MAXZ:1.5
;Generated with Cura_SteamEngine 4.4.1
M140 S60
M105
M190 S60
M104 S205
M105
M109 S205
M82 ;absolute extrusion mode
M201 X500.00 Y500.00 Z100.00 E5000.00 ;Setup machine max acceleration
M203 X500.00 Y500.00 Z10.00 E75.00 ;Setup machine max feedrate
M204 P500.00 R1000.00 T500.00 ;Setup Print/Retract/Travel acceleration
M205 X8.00 Y8.00 Z0.40 E5.00 ;Setup Jerk
M220 S100 ;Reset Feedrate
M221 S100 ;Reset Flowrate

G21 ; (metric values)
G90 ; (absolute positioning)
M82 ; (set extruder to absolute mode)
G28 ; (home all axis)
G29 ; (Auto Level)

G92 E0 ;Reset Extruder
G1 Z2.0 F3000 ;Move Z Axis up
G1 X1.1 Y50 Z0.28 F5000.0 ;Move to start position
G1 X1.1 Y200.0 Z0.28 F1500.0 E15 ;Draw the first line
G1 X1.4 Y200.0 Z0.28 F5000.0 ;Move to side a little
G1 X1.4 Y100 Z0.28 F1500.0 E30 ;Draw the second line
G92 E0 ;Reset Extruder
G1 Z2.0 F3000 ;Move Z Axis up
G92 E0
G92 E0
G1 F3000 E-6
;LAYER_COUNT:7
;LAYER:0
M107
G1 F300 Z0.65
G0 F6000 X98.223 Y43.771 Z0.65
;TYPE:SKIRT
G1 F300 Z0.3
G1 F3000 E0
G1 F1200 X98.514 Y43.169 E0.03336
G1 X98.638 Y42.95 E0.04591
G1 X98.836 Y42.628 E0.06477
G1 X99.228 Y42.04 E0.10003
G1 X99.58 Y41.572 E0.12925
G1 X100.075 Y40.985 E0.16755
G1 X100.218 Y40.821 E0.17841
G1 X100.396 Y40.627 E0.19155
G1 X100.612 Y40.406 E0.20696
G1 X100.767 Y40.256 E0.21772
G1 X100.938 Y40.098 E0.22934
G1 X101.336 Y39.746 E0.25585
G1 X101.697 Y39.454 E0.27901
G1 X102.445 Y38.903 E0.32536
G1 X102.927 Y38.588 E0.35409
G1 X103.318 Y38.362 E0.37662
G1 X103.526 Y38.248 E0.38845
G1 X103.902 Y38.053 E0.40958
G1 X104.309 Y37.864 E0.43197
G1 X105.09 Y37.541 E0.47414
G1 X105.487 Y37.395 E0.49524
G1 X105.895 Y37.264 E0.51662
G1 X106.207 Y37.174 E0.53282
G1 X106.566 Y37.083 E0.5513
G1 X106.819 Y37.026 E0.56424
G1 X107.232 Y36.943 E0.58525
G1 X107.48 Y36.899 E0.59782
G1 X107.824 Y36.847 E0.61518
G1 X108.122 Y36.811 E0.63015
G1 X108.587 Y36.768 E0.65345
G1 X108.907 Y36.748 E0.66944
G1 X109.365 Y36.734 E0.6923
G1 X109.749 Y36.737 E0.71146
G1 X110.302 Y36.761 E0.73908
G1 X110.493 Y36.773 E0.74863
G1 X110.73 Y36.792 E0.76049
G1 X111.096 Y36.834 E0.77887
G1 X111.648 Y36.918 E0.80672
G1 X112.042 Y36.994 E0.82674
G1 X112.839 Y37.179 E0.86756
G1 X113.269 Y37.298 E0.88982
G1 X113.617 Y37.411 E0.90808
G1 X113.831 Y37.486 E0.91939
G1 X114.128 Y37.597 E0.93521
G1 X114.381 Y37.699 E0.94882
G1 X114.611 Y37.799 E0.96133
G1 X114.784 Y37.878 E0.97082
G1 X115.212 Y38.083 E0.99449
G1 X115.563 Y38.268 E1.01429
G1 X116.146 Y38.604 E1.04786
G1 X116.433 Y38.782 E1.06471
G1 X116.655 Y38.93 E1.07802
G1 X116.775 Y39.012 E1.08527
G1 X116.946 Y39.133 E1.09572
G1 X117.185 Y39.313 E1.11065
G1 X117.645 Y39.68 E1.14001
G1 X117.859 Y39.861 E1.15399
G1 X118.041 Y40.023 E1.16615
G1 X118.207 Y40.177 E1.17744
G1 X118.452 Y40.415 E1.19448
G1 X118.645 Y40.613 E1.20828
G1 X118.969 Y40.963 E1.23207
G1 X119.212 Y41.245 E1.25065
G1 X119.437 Y41.526 E1.26861
G1 X119.576 Y41.707 E1.27999
G1 X120.014 Y42.306 E1.31701
G1 X120.283 Y42.713 E1.34135
G1 X120.482 Y43.047 E1.36075
G1 X120.777 Y43.621 E1.39295
G1 X120.999 Y44.226 E1.4251
G1 X121.144 Y44.854 E1.45725
G1 X121.213 Y45.572 E1.49324
G1 X121.226 Y46.066 E1.51789
G1 X121.228 Y46.203 E1.52473
G1 X121.229 Y117.924 E5.1029
G1 X121.267 Y120.599 E5.23637
G1 X121.38 Y123.273 E5.3699
G1 X121.57 Y125.947 E5.50364
G1 X121.837 Y128.637 E5.63851
G1 X122.176 Y131.287 E5.77179
G1 X122.594 Y133.95 E5.90628
G1 X123.076 Y136.542 E6.03781
G1 X123.64 Y139.164 E6.17161
G1 X124.288 Y141.808 E6.30743
G1 X125 Y144.396 E6.44134
G1 X125.777 Y146.933 E6.57372
G1 X126.638 Y149.484 E6.70804
G1 X127.56 Y151.986 E6.84107
G1 X128.579 Y154.523 E6.97747
G1 X129.624 Y156.926 E7.1082
G1 X131.224 Y160.29 E7.29405
G1 X131.969 Y161.784 E7.37734
G1 X132.22 Y162.378 E7.40951
G1 X132.396 Y162.998 E7.44166
G1 X132.481 Y163.516 E7.46785
G1 X132.511 Y163.779 E7.48106
G1 X132.539 Y164.115 E7.49788
G1 X132.551 Y164.361 E7.51017
G1 X132.557 Y164.553 E7.51975
G1 X132.564 Y165.149 E7.54949
G1 X132.563 Y165.307 E7.55737
G1 X132.545 Y166.27 E7.60542
G1 X132.54 Y166.423 E7.61306
G1 X132.487 Y167.526 E7.66815
G1 X132.477 Y167.682 E7.67595
G1 X132.455 Y167.963 E7.69001
G1 X132.443 Y168.094 E7.69658
G1 X132.148 Y170.934 E7.83903
G1 X132.071 Y171.842 E7.88449
G1 X132.005 Y172.336 E7.90935
G1 X131.965 Y172.555 E7.92046
G1 X131.81 Y173.181 E7.95264
G1 X131.579 Y173.783 E7.9848
G1 X131.275 Y174.351 E8.01695
G1 X130.904 Y174.878 E8.0491
G1 X130.469 Y175.355 E8.08131
G1 X129.98 Y175.774 E8.11343
G1 X129.511 Y176.089 E8.14162
G1 X128.972 Y176.41 E8.17292
G1 X128.868 Y176.47 E8.17891
G1 X126.469 Y177.825 E8.31637
G1 X124.182 Y179.205 E8.44963
G1 X121.894 Y180.673 E8.58525
G1 X119.73 Y182.151 E8.71599
G1 X117.519 Y183.754 E8.85224
G1 X115.401 Y185.383 E8.98555
G1 X113.333 Y187.07 E9.1187
G1 X111.313 Y188.813 E9.2518
G1 X109.312 Y190.642 E9.38705
G1 X107.384 Y192.507 E9.52088
G1 X105.523 Y194.413 E9.65378
G1 X103.695 Y196.391 E9.78815
G1 X101.948 Y198.397 E9.92087
G1 X101.111 Y199.415 E9.98662
G1 X101.081 Y199.451 E9.98895
G1 X100.166 Y200.544 E10.06007
G1 X99.864 Y200.875 E10.08242
G1 X99.383 Y201.358 E10.11643
G1 X98.729 Y201.914 E10.15926
G1 X98.446 Y202.117 E10.17663
G1 X97.808 Y202.509 E10.21399
G1 X97.561 Y202.637 E10.22787
G1 X96.915 Y202.918 E10.26302
G1 X96.716 Y202.989 E10.27356
G1 X96.097 Y203.167 E10.30569
G1 X95.46 Y203.268 E10.33787
G1 X94.816 Y203.289 E10.37001
G1 X94.174 Y203.23 E10.40218
G1 X93.544 Y203.092 E10.43435
G1 X93.031 Y202.916 E10.46141
G1 X92.777 Y202.814 E10.47507
G1 X92.195 Y202.538 E10.5072
G1 X91.53 Y202.099 E10.54696
G1 X91.37 Y201.975 E10.55706
G1 X90.886 Y201.549 E10.58923
G1 X90.458 Y201.067 E10.62138
G1 X90.093 Y200.535 E10.65357
G1 X89.815 Y200.004 E10.68347
G1 X89.727 Y199.809 E10.69415
G1 X89.499 Y199.206 E10.72631
G1 X89.347 Y198.58 E10.75845
G1 X89.273 Y197.914 E10.79188
G1 X89.257 Y197.565 E10.80931
G1 X89.088 Y194.821 E10.94647
G1 X88.848 Y192.157 E11.07991
G1 X88.53 Y189.483 E11.21426
G1 X88.141 Y186.842 E11.34744
G1 X87.86 Y185.301 E11.42559
G1 X87.844 Y185.207 E11.43035
G1 X87.626 Y183.874 E11.49774
G1 X87.599 Y183.685 E11.50726
G1 X87.536 Y183.185 E11.5324
G1 X87.5 Y182.754 E11.55398
G1 X87.442 Y181.379 E11.62264
G1 X87.437 Y181.211 E11.63103
G1 X87.432 Y180.7 E11.65652
G1 X87.433 Y180.554 E11.66381
G1 X87.445 Y179.896 E11.69664
G1 X87.454 Y179.671 E11.70787
G1 X87.481 Y179.233 E11.72977
G1 X87.489 Y179.122 E11.73532
G1 X87.697 Y176.616 E11.86077
G1 X87.868 Y173.576 E12.01268
G1 X87.889 Y173.319 E12.02554
G1 X87.956 Y172.687 E12.05725
G1 X88.043 Y172.142 E12.08479
G1 X88.12 Y171.784 E12.10305
G1 X88.218 Y171.401 E12.12278
G1 X88.279 Y171.195 E12.1335
G1 X88.531 Y170.519 E12.16949
G1 X88.831 Y169.859 E12.20566
G1 X89.952 Y167.376 E12.34158
G1 X90.996 Y164.882 E12.47646
G1 X91.963 Y162.374 E12.61057
G1 X92.855 Y159.849 E12.74417
G1 X93.672 Y157.309 E12.87728
G1 X94.416 Y154.75 E13.01024
G1 X95.098 Y152.13 E13.14531
G1 X95.708 Y149.488 E13.28059
G1 X96.231 Y146.874 E13.41358
G1 X96.679 Y144.258 E13.546
G1 X97.057 Y141.606 E13.67964
G1 X97.364 Y138.909 E13.81506
G1 X97.588 Y136.281 E13.94665
G1 X97.741 Y133.576 E14.08182
G1 X97.818 Y130.884 E14.21618
G1 X97.828 Y129.516 E14.28443
G1 X97.829 Y46.429 E18.42966
G1 X97.83 Y46.355 E18.43335
G1 X97.84 Y45.657 E18.46818
G1 X97.889 Y45.014 E18.50035
G1 X98.017 Y44.382 E18.53252
G1 X98.053 Y44.275 E18.53815
G0 F1080 X98.223 Y43.771
G1 F3000 E12.53815
G1 F300 Z0.65
;MESH:Cat_bookmark_meins.stl
G0 F6000 X110.803 Y159.007 Z0.65
;TYPE:WALL-INNER
G1 F300 Z0.3
G1 F3000 E18.53815
G1 F1200 X109.078 Y159.007 E18.62421
G1 X108.948 Y159.068 E18.63138
G1 X108.403 Y159.25 E18.66004
G1 X108.301 Y159.987 E18.69716
G1 X108.748 Y160.293 E18.72419
G1 X108.792 Y160.336 E18.72726
G1 X108.859 Y160.651 E18.74333
G1 X109.287 Y160.97 E18.76996
G1 X109.713 Y160.914 E18.79139
G1 X109.961 Y160.788 E18.80527
G1 X110.171 Y160.641 E18.81806
G1 X110.407 Y160.441 E18.83349
G1 X110.663 Y160.199 E18.85107
G1 X111.112 Y159.745 E18.88293
G1 X110.973 Y159.413 E18.90088
G0 F1080 X110.803 Y159.007
G0 F6000 X110.537 Y159.407
;TYPE:WALL-OUTER
G1 F1200 X109.167 Y159.407 E18.96923
G1 X109.09 Y159.443 E18.97347
G1 X108.765 Y159.551 E18.99056
G1 X108.731 Y159.797 E19.00295
G1 X109.001 Y159.982 E19.01928
G1 X109.111 Y160.09 E19.02697
G1 X109.17 Y160.182 E19.03242
G1 X109.179 Y160.207 E19.03375
G1 X109.184 Y160.257 E19.03625
G1 X109.219 Y160.42 E19.04457
G1 X109.396 Y160.552 E19.05559
G1 X109.593 Y160.526 E19.0655
G1 X109.755 Y160.444 E19.07456
G1 X109.926 Y160.324 E19.08498
G1 X110.14 Y160.143 E19.09896
G1 X110.383 Y159.913 E19.11566
G1 X110.64 Y159.653 E19.1339
G1 X110.638 Y159.649 E19.13412
G0 F1080 X110.537 Y159.407
G0 F6000 X110.137 Y159.407
G0 X110.137 Y158.967
G0 X109.01 Y159.216
G0 X108.554 Y159.376
G0 X103.869 Y162.835
G0 X103.562 Y163.297
G0 X103.19 Y164.829
;TYPE:WALL-INNER
G1 F1200 X103.24 Y165.302 E19.15785
G1 X103.259 Y165.414 E19.16352
G1 X103.414 Y166.271 E19.20697
G1 X103.472 Y166.69 E19.22807
G1 X103.513 Y167.107 E19.24897
G1 X103.53 Y167.478 E19.2675
G1 X103.534 Y167.743 E19.28072
G1 X103.551 Y168.031 E19.29512
G1 X103.584 Y168.272 E19.30725
G1 X103.733 Y168.785 E19.3339
G1 X104.562 Y168.821 E19.3753
G1 X104.869 Y168.319 E19.40466
G1 X104.918 Y168.226 E19.4099
G1 X105.164 Y167.728 E19.43762
G1 X105.3 Y167.386 E19.45598
G1 X105.412 Y167.075 E19.47247
G1 X105.497 Y166.788 E19.4874
G1 X105.53 Y166.592 E19.49732
G1 X105.541 Y166.461 E19.50388
G1 X105.558 Y166.356 E19.50918
G1 X105.627 Y166.111 E19.52188
G1 X105.737 Y165.831 E19.53689
G1 X105.878 Y165.547 E19.55271
G1 X106.11 Y165.141 E19.57604
G1 X106.441 Y164.623 E19.60671
G1 X106.781 Y164.141 E19.63614
G1 X108.018 Y162.484 E19.7393
G1 X108.3 Y162.092 E19.76339
G1 X108.747 Y161.382 E19.80525
G1 X108.037 Y160.989 E19.84573
G1 X107.775 Y160.964 E19.85886
G1 X107.549 Y160.964 E19.87014
G1 X107.282 Y160.986 E19.88351
G1 X107.092 Y161.019 E19.89313
G1 X106.892 Y161.071 E19.90344
G1 X106.507 Y161.203 E19.92374
G1 X106.058 Y161.384 E19.94789
G1 X105.535 Y161.623 E19.97658
G1 X105.058 Y161.863 E20.00322
G1 X104.609 Y162.113 E20.02886
G1 X104.249 Y162.336 E20.04999
G1 X103.916 Y162.577 E20.0705
G1 X103.754 Y162.722 E20.08134
G1 X103.612 Y162.889 E20.09228
G1 X103.504 Y163.057 E20.10224
G1 X103.416 Y163.228 E20.11184
G1 X103.343 Y163.408 E20.12153
G1 X103.29 Y163.58 E20.13051
G1 X103.24 Y163.791 E20.14133
G1 X103.206 Y164.005 E20.15214
G1 X103.186 Y164.297 E20.16674
G0 F1080 X103.179 Y164.419
G0 X103.19 Y164.829
G0 F6000 X103.589 Y164.802
;TYPE:WALL-OUTER
G1 F1200 X103.637 Y165.248 E20.18912
G1 X103.653 Y165.346 E20.19407
G1 X103.808 Y166.2 E20.23737
G1 X103.87 Y166.651 E20.26009
G1 X103.913 Y167.089 E20.28204
G1 X103.93 Y167.46 E20.30057
G1 X103.934 Y167.729 E20.31399
G1 X103.949 Y167.992 E20.32714
G1 X103.976 Y168.188 E20.33701
G1 X104.037 Y168.398 E20.34792
G1 X104.344 Y168.411 E20.36325
G1 X104.521 Y168.122 E20.38016
G1 X104.561 Y168.045 E20.38448
G1 X104.798 Y167.565 E20.41119
G1 X104.926 Y167.244 E20.42843
G1 X105.032 Y166.95 E20.44402
G1 X105.107 Y166.698 E20.45714
G1 X105.133 Y166.542 E20.46503
G1 X105.145 Y166.404 E20.47194
G1 X105.166 Y166.275 E20.47846
G1 X105.232 Y166.03 E20.49112
G1 X105.255 Y165.965 E20.49456
G1 X105.372 Y165.667 E20.51053
G1 X105.53 Y165.349 E20.52825
G1 X105.766 Y164.935 E20.55202
G1 X106.114 Y164.392 E20.5842
G1 X106.46 Y163.902 E20.61413
G1 X107.695 Y162.247 E20.71715
G1 X107.968 Y161.868 E20.74045
G1 X108.183 Y161.527 E20.76057
G1 X107.916 Y161.379 E20.7758
G1 X107.756 Y161.364 E20.78381
G1 X107.565 Y161.364 E20.79334
G1 X107.333 Y161.383 E20.80496
G1 X107.177 Y161.41 E20.81285
G1 X107.008 Y161.454 E20.82157
G1 X106.647 Y161.578 E20.84061
G1 X106.216 Y161.752 E20.8638
G1 X105.708 Y161.984 E20.89166
G1 X105.245 Y162.217 E20.91752
G1 X104.812 Y162.458 E20.94224
G1 X104.472 Y162.669 E20.96221
G1 X104.167 Y162.889 E20.98097
G1 X104.041 Y163.002 E20.98941
G1 X103.934 Y163.128 E20.99766
G1 X103.851 Y163.257 E21.00531
G1 X103.78 Y163.395 E21.01306
G1 X103.72 Y163.543 E21.02102
G1 X103.676 Y163.685 E21.02844
G1 X103.633 Y163.868 E21.03782
G1 X103.604 Y164.05 E21.04701
G1 X103.589 Y164.27 E21.05801
G0 F1080 X103.579 Y164.427
G0 X103.589 Y164.802
G0 F6000 X103.631 Y165.2
G0 X103.193 Y165.247
G0 X103.741 Y168.236
G0 X103.861 Y168.621
G0 X104.471 Y168.651
G0 X120.67 Y165.619
G0 X125.974 Y164.385
;TYPE:WALL-INNER
G1 F1200 X126.062 Y164.406 E21.06253
G1 X126.179 Y164.448 E21.06873
G1 X126.365 Y164.54 E21.07908
G1 X126.373 Y164.789 E21.09151
G1 X126.37 Y165.404 E21.12219
G1 X126.319 Y166.941 E21.19892
G1 X126.29 Y167.42 E21.22286
G1 X126.246 Y167.789 E21.2414
G1 X126.213 Y167.98 E21.25107
G1 X126.182 Y168.108 E21.25764
G1 X126.151 Y168.207 E21.26281
G1 X126.115 Y168.297 E21.26765
G1 X126.078 Y168.373 E21.27187
G1 X126.038 Y168.438 E21.27568
G1 X125.993 Y168.501 E21.27954
G1 X125.9 Y168.609 E21.28665
G1 X125.468 Y169.045 E21.31727
G1 X125.301 Y169.236 E21.32993
G1 X125.161 Y169.457 E21.34298
G1 X124.945 Y170.066 E21.37522
G1 X125.026 Y170.202 E21.38311
G1 X124.901 Y170.183 E21.38942
G1 X124.585 Y170.156 E21.40525
G1 X124.085 Y170.137 E21.43021
G1 X123.243 Y170.134 E21.47222
G1 X122.507 Y170.153 E21.50895
G1 X121.61 Y170.205 E21.55377
G1 X120.842 Y170.264 E21.5922
G1 X119.99 Y170.346 E21.63491
G1 X119.171 Y170.442 E21.67605
G1 X118.425 Y170.546 E21.71362
G1 X117.78 Y170.657 E21.74628
G1 X117.306 Y170.764 E21.77052
G1 X117.03 Y170.856 E21.78503
G1 X116.78 Y170.975 E21.79885
G1 X116.546 Y171.113 E21.8124
G1 X116.316 Y171.271 E21.82632
G1 X116.054 Y171.471 E21.84277
G1 X115.825 Y171.668 E21.85784
G1 X114.757 Y172.662 E21.93063
G1 X114.579 Y172.812 E21.94224
G1 X114.466 Y172.893 E21.94918
G1 X114.395 Y172.934 E21.95327
G1 X114.304 Y172.973 E21.95821
G1 X114.217 Y173 E21.96275
G1 X113.676 Y173.116 E21.99035
G1 X113.264 Y173.238 E22.01179
G1 X112.901 Y173.381 E22.03126
G1 X112.465 Y173.611 E22.05585
G1 X112.081 Y173.843 E22.07823
G1 X111.596 Y174.17 E22.10741
G1 X110.341 Y175.08 E22.18475
G1 X109.177 Y175.935 E22.25681
G1 X108.288 Y176.567 E22.31123
G1 X107.605 Y177.032 E22.35245
G1 X106.969 Y177.431 E22.38991
G1 X106.332 Y177.784 E22.42624
G1 X105.816 Y178.03 E22.45476
G1 X105.262 Y178.253 E22.48455
G1 X104.725 Y178.438 E22.51289
G1 X104.277 Y178.576 E22.53628
G1 X103.815 Y178.703 E22.56018
G1 X103.404 Y178.798 E22.58123
G1 X103.041 Y178.859 E22.59959
G1 X102.594 Y178.91 E22.62204
G1 X102.114 Y178.941 E22.64603
G1 X101.534 Y178.961 E22.67499
G1 X100.872 Y178.968 E22.70802
G1 X100.035 Y178.955 E22.74978
G1 X99.628 Y178.936 E22.77011
G1 X99.294 Y178.911 E22.78682
G1 X99.011 Y178.878 E22.80103
G1 X98.628 Y178.816 E22.82039
G1 X98.002 Y178.685 E22.8523
G1 X97.519 Y178.577 E22.87699
G1 X97.082 Y178.499 E22.89914
G1 X96.655 Y178.459 E22.92053
G1 X96.389 Y178.458 E22.9338
G1 X96.135 Y178.488 E22.94656
G1 X95.884 Y178.552 E22.95949
G1 X95.652 Y178.65 E22.97205
G1 X95.428 Y178.781 E22.985
G1 X95.233 Y178.947 E22.99777
G1 X95.066 Y179.127 E23.01002
G1 X94.923 Y179.322 E23.02209
G1 X94.716 Y179.687 E23.04302
G1 X94.582 Y179.984 E23.05928
G1 X94.469 Y180.342 E23.07801
G1 X94.39 Y180.714 E23.09698
G1 X94.34 Y181.099 E23.11635
G1 X94.32 Y181.462 E23.13449
G1 X94.319 Y181.945 E23.15858
G1 X94.338 Y182.33 E23.17781
G1 X94.374 Y182.727 E23.1977
G1 X94.435 Y183.178 E23.22041
G1 X94.535 Y183.724 E23.2481
G1 X94.626 Y184.147 E23.26969
G1 X94.746 Y184.62 E23.29403
G1 X94.885 Y185.099 E23.31892
G1 X95.042 Y185.58 E23.34416
G1 X95.233 Y186.105 E23.37203
G1 X95.761 Y187.422 E23.44282
G1 X96.03 Y188.182 E23.48304
