;FLAVOR:Marlin
;TIME:1114
;Filament used: 0.736576m
;Layer height: 0.2
;MINX:30.63
;MINY:107.3
;MINZ:0.3
;MAXX:189.525
;MAXY:132.699
;MAXZ:6.5
;Generated with Cura_SteamEngine 4.4.1
M140 S60
M105
M190 S60
M104 S205
M105
M109 S205
M82 ;absolute extrusion mode
M201 X500.00 Y500.00 Z100.00 E5000.00 ;Setup machine max acceleration
M203 X500.00 Y500.00 Z10.00 E75.00 ;Setup machine max feedrate
M204 P500.00 R1000.00 T500.00 ;Setup Print/Retract/Travel acceleration
M205 X8.00 Y8.00 Z0.40 E5.00 ;Setup Jerk
M220 S100 ;Reset Feedrate
M221 S100 ;Reset Flowrate

G21 ; (metric values)
G90 ; (absolute positioning)
M82 ; (set extruder to absolute mode)
G28 ; (home all axis)
G29 ; (Auto Level)

G92 E0 ;Reset Extruder
G1 Z2.0 F3000 ;Move Z Axis up
G1 X1.1 Y50 Z0.28 F5000.0 ;Move to start position
G1 X1.1 Y200.0 Z0.28 F1500.0 E15 ;Draw the first line
G1 X1.4 Y200.0 Z0.28 F5000.0 ;Move to side a little
G1 X1.4 Y100 Z0.28 F1500.0 E30 ;Draw the second line
G92 E0 ;Reset Extruder
G1 Z2.0 F3000 ;Move Z Axis up
G92 E0
G92 E0
G1 F3000 E-6
;LAYER_COUNT:32
;LAYER:0
M107
G1 F300 Z0.65
G0 F6000 X36.345 Y112.983 Z0.65
;TYPE:SKIRT
G1 F300 Z0.3
G1 F3000 E0
G1 F1200 X36.713 Y112.868 E0.01924
G1 X37.666 Y112.609 E0.06851
G1 X38.104 Y112.51 E0.09091
G1 X39.209 Y112.31 E0.14693
G1 X39.441 Y112.274 E0.15865
G1 X40.191 Y112.173 E0.1964
G1 X40.382 Y112.15 E0.206
G1 X41.154 Y112.075 E0.2447
G1 X41.301 Y112.063 E0.25205
G1 X41.622 Y112.041 E0.26811
G1 X41.753 Y112.034 E0.27465
G1 X42.146 Y112.017 E0.29428
G1 X42.289 Y112.013 E0.30141
G1 X43.55 Y111.993 E0.36433
G1 X43.632 Y111.992 E0.36842
G1 X98.3 Y111.99 E3.09582
G1 X131.435 Y111.99 E4.74893
G1 X134.113 Y111.952 E4.88255
G1 X136.786 Y111.839 E5.01603
G1 X139.46 Y111.649 E5.14977
G1 X142.152 Y111.382 E5.28473
G1 X144.801 Y111.043 E5.41797
G1 X147.465 Y110.625 E5.55251
G1 X150.056 Y110.143 E5.68399
G1 X152.727 Y109.568 E5.8203
G1 X155.282 Y108.941 E5.95155
G1 X157.903 Y108.221 E6.08716
G1 X159.657 Y107.683 E6.17869
G1 X159.727 Y107.662 E6.18233
G1 X160.221 Y107.518 E6.208
G1 X160.85 Y107.376 E6.24018
G1 X161.518 Y107.312 E6.27365
G1 X161.847 Y107.302 E6.29008
G1 X162.005 Y107.3 E6.29796
G1 X173.718 Y107.3 E6.88232
G1 X173.792 Y107.301 E6.88602
G1 X174.496 Y107.311 E6.92114
G1 X174.643 Y107.315 E6.92848
G1 X175.757 Y107.362 E6.98411
G1 X178.516 Y107.44 E7.12181
G1 X179.88 Y107.45 E7.18986
G1 X183.618 Y107.45 E7.37635
G1 X183.692 Y107.451 E7.38004
G1 X184.39 Y107.461 E7.41487
G1 X185.033 Y107.51 E7.44704
G1 X185.665 Y107.638 E7.47921
G1 X186.276 Y107.844 E7.51138
G1 X186.857 Y108.123 E7.54354
G1 X187.399 Y108.472 E7.5757
G1 X187.893 Y108.886 E7.60785
G1 X188.333 Y109.358 E7.64005
G1 X188.711 Y109.88 E7.6722
G1 X189.021 Y110.445 E7.70435
G1 X189.259 Y111.044 E7.73651
G1 X189.421 Y111.668 E7.76867
G1 X189.514 Y112.514 E7.81113
G1 X189.523 Y112.834 E7.8271
G1 X189.525 Y112.98 E7.83439
G1 X189.525 Y126.678 E8.51779
G1 X189.516 Y127.405 E8.55406
G1 X189.468 Y128.048 E8.58623
G1 X189.341 Y128.68 E8.61839
G1 X189.136 Y129.292 E8.65059
G1 X188.858 Y129.873 E8.68272
G1 X188.51 Y130.416 E8.7149
G1 X188.097 Y130.911 E8.74706
G1 X187.626 Y131.351 E8.77922
G1 X187.104 Y131.73 E8.8114
G1 X186.54 Y132.041 E8.84353
G1 X185.941 Y132.28 E8.87571
G1 X185.318 Y132.444 E8.90785
G1 X184.462 Y132.539 E8.95082
G1 X184.141 Y132.548 E8.96684
G1 X183.995 Y132.55 E8.97412
G1 X179.532 Y132.55 E9.19678
G1 X176.858 Y132.588 E9.3302
G1 X175.337 Y132.653 E9.40615
G1 X175.267 Y132.656 E9.40965
G1 X174.245 Y132.686 E9.46066
G1 X174.097 Y132.688 E9.46804
G1 X162.346 Y132.699 E10.0543
G1 X162.276 Y132.699 E10.0578
G1 X161.635 Y132.691 E10.08978
G1 X160.992 Y132.643 E10.12195
G1 X160.208 Y132.472 E10.16198
G1 X159.056 Y132.127 E10.22198
G1 X156.429 Y131.367 E10.35841
G1 X153.783 Y130.683 E10.49476
G1 X151.23 Y130.098 E10.62543
G1 X148.544 Y129.562 E10.76208
G1 X145.916 Y129.116 E10.89507
G1 X143.259 Y128.741 E11.02894
G1 X140.629 Y128.446 E11.16097
G1 X137.929 Y128.22 E11.29615
G1 X135.281 Y128.073 E11.42846
G1 X131.3 Y127.991 E11.62711
G1 X44.3 Y127.99 E15.96756
G1 X44.294 Y127.99 E15.96786
G1 X43.35 Y127.989 E16.01496
G1 X43.294 Y127.989 E16.01775
G1 X42.708 Y127.982 E16.04699
G1 X42.598 Y127.979 E16.05248
G1 X42.174 Y127.965 E16.07364
G1 X42.023 Y127.958 E16.08119
G1 X41.267 Y127.911 E16.11897
G1 X41.096 Y127.898 E16.12753
G1 X40.341 Y127.826 E16.16537
G1 X40.161 Y127.805 E16.17441
G1 X39.549 Y127.725 E16.2052
G1 X39.345 Y127.694 E16.2155
G1 X38.423 Y127.536 E16.26217
G1 X38.255 Y127.505 E16.27069
G1 X37.958 Y127.444 E16.28582
G1 X37.706 Y127.385 E16.29873
G1 X37.163 Y127.245 E16.3267
G1 X36.954 Y127.187 E16.33753
G1 X36.551 Y127.065 E16.35853
G1 X36.26 Y126.967 E16.37385
G1 X35.712 Y126.765 E16.40299
G1 X35.561 Y126.707 E16.41106
G1 X35.321 Y126.61 E16.42397
G1 X35.008 Y126.471 E16.44106
G1 X34.71 Y126.327 E16.45757
G1 X34.439 Y126.186 E16.47281
G1 X34.24 Y126.075 E16.48418
G1 X33.996 Y125.931 E16.49832
G1 X33.825 Y125.823 E16.50841
G1 X33.346 Y125.48 E16.5378
G1 X32.97 Y125.178 E16.56186
G1 X32.493 Y124.744 E16.59403
G1 X32.055 Y124.229 E16.62776
G1 X31.761 Y123.834 E16.65233
G1 X31.409 Y123.294 E16.68449
G1 X31.06 Y122.547 E16.72562
G1 X30.985 Y122.346 E16.73633
G1 X30.798 Y121.729 E16.76849
G1 X30.673 Y120.935 E16.80859
G1 X30.646 Y120.591 E16.82581
G1 X30.63 Y120.165 E16.84707
G1 X30.632 Y119.605 E16.87501
G1 X30.695 Y118.817 E16.91445
G1 X30.728 Y118.607 E16.92506
G1 X30.867 Y117.977 E16.95724
G1 X31.217 Y117.083 E17.00514
G1 X31.388 Y116.742 E17.02417
G1 X31.712 Y116.185 E17.05632
G1 X32.099 Y115.676 E17.08822
G1 X32.269 Y115.479 E17.10121
G1 X32.884 Y114.876 E17.14418
G1 X33.226 Y114.592 E17.16635
G1 X33.788 Y114.185 E17.20097
G1 X34.109 Y113.984 E17.21987
G1 X34.665 Y113.681 E17.25146
G1 X35.148 Y113.455 E17.27806
G1 X35.361 Y113.361 E17.28968
G1 X35.735 Y113.206 E17.30988
G1 X35.845 Y113.164 E17.31575
G0 F1080 X35.994 Y113.107
G0 X36.345 Y112.983
G1 F3000 E11.31575
G1 F300 Z0.65
;MESH:bookmark-TO220.stl
G0 F6000 X154.675 Y121.791 Z0.65
;TYPE:WALL-INNER
G1 F300 Z0.3
G1 F3000 E17.31575
G1 F1200 X99.423 Y121.79 E20.07228
G1 X44.302 Y121.79 E22.82228
G1 X42.88 Y121.788 E22.89323
G1 X42.572 Y121.781 E22.9086
G1 X41.896 Y121.75 E22.94236
G1 X41.249 Y121.701 E22.97473
G1 X40.631 Y121.631 E23.00576
G1 X39.991 Y121.533 E23.03806
G1 X39.401 Y121.421 E23.06802
G1 X38.813 Y121.278 E23.09821
G1 X38.32 Y121.131 E23.12388
G1 X38.053 Y121.039 E23.13797
G1 X37.858 Y120.963 E23.14841
G1 X37.673 Y120.884 E23.15844
G1 X37.468 Y120.786 E23.16978
G1 X37.332 Y120.712 E23.1775
G1 X37.191 Y120.627 E23.18572
G1 X37.075 Y120.548 E23.19272
G1 X36.994 Y120.484 E23.19787
G1 X36.879 Y120.374 E23.20581
G1 X36.825 Y120.301 E23.21034
G1 X36.823 Y120.279 E23.21144
G1 X36.826 Y119.674 E23.24163
G1 X36.853 Y119.636 E23.24395
G1 X36.922 Y119.562 E23.249
G1 X36.992 Y119.497 E23.25377
G1 X37.071 Y119.435 E23.25878
G1 X37.165 Y119.37 E23.26448
G1 X37.324 Y119.272 E23.2738
G1 X37.459 Y119.2 E23.28143
G1 X37.665 Y119.1 E23.29285
G1 X37.822 Y119.031 E23.30141
G1 X38.061 Y118.938 E23.3142
G1 X38.271 Y118.864 E23.32531
G1 X38.547 Y118.776 E23.33976
G1 X38.774 Y118.71 E23.35156
G1 X39.336 Y118.574 E23.38041
G1 X39.956 Y118.453 E23.41192
G1 X40.575 Y118.357 E23.44317
G1 X41.213 Y118.284 E23.47521
G1 X41.886 Y118.23 E23.50889
G1 X42.2 Y118.212 E23.52459
G1 X42.865 Y118.192 E23.55778
G1 X98.3 Y118.19 E26.32344
G1 X154.675 Y118.19 E29.136
G1 X154.675 Y121.259 E29.28911
G0 F1080 X154.675 Y121.791
G0 F6000 X154.549 Y122.191
G1 F1200 X99.424 Y122.19 E32.03931
G1 X44.301 Y122.19 E34.78941
G1 X42.871 Y122.188 E34.86075
G1 X42.554 Y122.181 E34.87657
G1 X41.878 Y122.15 E34.91033
G1 X41.219 Y122.1 E34.9433
G1 X40.579 Y122.027 E34.97544
G1 X39.916 Y121.926 E35.0089
G1 X39.31 Y121.811 E35.03967
G1 X38.718 Y121.667 E35.07007
G1 X38.188 Y121.509 E35.09766
G1 X37.922 Y121.417 E35.1117
G1 X37.7 Y121.331 E35.12358
G1 X37.503 Y121.247 E35.13427
G1 X37.295 Y121.147 E35.14578
G1 X37.128 Y121.057 E35.15524
G1 X36.983 Y120.969 E35.16371
G1 X36.844 Y120.874 E35.17211
G1 X36.731 Y120.785 E35.17928
G1 X36.634 Y120.697 E35.18582
G1 X36.569 Y120.628 E35.19055
G1 X36.476 Y120.501 E35.1984
G1 X36.437 Y120.411 E35.20329
G1 X36.428 Y120.37 E35.20539
G1 X36.423 Y120.277 E35.21003
G1 X36.426 Y119.626 E35.24251
G1 X36.434 Y119.576 E35.24504
G1 X36.447 Y119.539 E35.24699
G1 X36.473 Y119.485 E35.24999
G1 X36.506 Y119.43 E35.25319
G1 X36.559 Y119.364 E35.25741
G1 X36.634 Y119.283 E35.26292
G1 X36.727 Y119.198 E35.2692
G1 X36.838 Y119.11 E35.27627
G1 X36.951 Y119.032 E35.28312
G1 X37.126 Y118.925 E35.29335
G1 X37.284 Y118.84 E35.3023
G1 X37.49 Y118.74 E35.31373
G1 X37.677 Y118.658 E35.32391
G1 X37.916 Y118.565 E35.33671
G1 X38.149 Y118.483 E35.34903
G1 X38.425 Y118.395 E35.36348
G1 X38.68 Y118.321 E35.37673
G1 X39.259 Y118.181 E35.40645
G1 X39.879 Y118.06 E35.43797
G1 X40.521 Y117.961 E35.47037
G1 X41.181 Y117.885 E35.50352
G1 X41.854 Y117.831 E35.5372
G1 X42.188 Y117.812 E35.55389
G1 X42.853 Y117.792 E35.58709
G1 X98.3 Y117.79 E38.35335
G1 X155.075 Y117.79 E41.18586
G1 X155.075 Y122.184 E41.40508
G0 F1080 X155.075 Y122.19
G0 X154.549 Y122.191
G0 F6000 X155.247 Y120.044
G0 X159.903 Y120.045
G0 X162.103 Y120.272
G0 X162.275 Y126.9
G1 F1200 X162.275 Y113.1 E42.09357
G1 X173.825 Y113.1 E42.6698
G1 X173.825 Y113.25 E42.67728
G1 X183.725 Y113.25 E43.17119
G1 X183.725 Y126.75 E43.84471
G1 X173.825 Y126.75 E44.33863
G1 X173.825 Y126.888 E44.34551
G1 X162.807 Y126.9 E44.8952
G0 F1080 X162.275 Y126.9
G0 F6000 X162.675 Y126.5
G1 F1200 X162.675 Y113.5 E45.54377
G1 X173.425 Y113.5 E46.08009
G1 X173.425 Y113.65 E46.08758
G1 X183.325 Y113.65 E46.58149
G1 X183.325 Y126.35 E47.2151
G1 X173.425 Y126.35 E47.70901
G1 X173.425 Y126.488 E47.71589
G1 X163.207 Y126.5 E48.22567
G0 F1080 X162.675 Y126.5
G1 F3000 E42.22567
G0 F6000 X162.103 Y120.272
G0 X160.123 Y120.068
G0 X155.475 Y119.972
G0 X155.475 Y120.072
;TYPE:WALL-OUTER
G1 F3000 E48.22567
G1 F1200 X155.475 Y122.468 E48.34521
G1 X159.875 Y122.468 E48.56473
G1 X159.875 Y122.24 E48.5761
G1 X161.875 Y122.24 E48.67588
G1 X161.875 Y120.3 E48.77267
G1 X159.875 Y120.3 E48.87245
G1 X159.875 Y120.073 E48.88377
G1 X156.007 Y120.072 E49.07675
G0 F1080 X155.475 Y120.072
G0 F6000 X155.475 Y120.472
G0 X155.035 Y120.472
G1 F3000 E43.07675
G0 F6000 X155.247 Y120.044
G0 X159.903 Y119.956
G0 X159.945 Y119.77
G0 X159.875 Y119.7
G1 F3000 E49.07675
G1 F1200 X161.875 Y119.7 E49.17653
G1 X161.875 Y117.76 E49.27332
G1 X159.875 Y117.76 E49.3731
G1 X159.875 Y117.533 E49.38442
G1 X155.475 Y117.532 E49.60394
G1 X155.475 Y119.928 E49.72348
G1 X159.571 Y119.928 E49.92783
G0 F1080 X159.875 Y119.928
G0 X159.875 Y119.7
G0 F6000 X160.275 Y119.7
G0 X160.275 Y119.8
G0 X161.92 Y119.736
G0 X179.1 Y116.419
;TYPE:WALL-INNER
G1 F1200 X178.485 Y116.574 E49.95947
G1 X177.936 Y116.822 E49.98952
G1 X177.79 Y116.909 E49.998
G1 X177.343 Y117.219 E50.02514
G1 X176.894 Y117.668 E50.05682
G1 X176.532 Y118.186 E50.08835
G1 X176.265 Y118.758 E50.11984
G1 X176.102 Y119.369 E50.15139
G1 X176.045 Y120 E50.183
G1 X176.102 Y120.631 E50.21461
G1 X176.265 Y121.242 E50.24616
G1 X176.532 Y121.815 E50.2777
G1 X176.894 Y122.332 E50.30918
G1 X177.343 Y122.781 E50.34086
G1 X177.861 Y123.143 E50.37239
G1 X178.392 Y123.39 E50.40161
G1 X178.991 Y123.559 E50.43266
G1 X179.619 Y123.624 E50.46416
G1 X180.25 Y123.581 E50.49571
G1 X180.865 Y123.426 E50.52735
G1 X181.409 Y123.181 E50.55712
G1 X181.557 Y123.096 E50.56563
G1 X182.007 Y122.781 E50.59304
G1 X182.456 Y122.332 E50.62472
G1 X182.818 Y121.815 E50.6562
G1 X183.085 Y121.242 E50.68774
G1 X183.248 Y120.631 E50.71929
G1 X183.305 Y120 E50.7509
G1 X183.248 Y119.369 E50.78251
G1 X183.085 Y118.758 E50.81406
G1 X182.818 Y118.186 E50.84555
G1 X182.456 Y117.668 E50.87708
G1 X182.007 Y117.219 E50.90876
G1 X181.49 Y116.857 E50.94025
G1 X180.959 Y116.61 E50.96946
G1 X180.357 Y116.441 E51.00066
G1 X179.731 Y116.376 E51.03206
G1 X179.631 Y116.383 E51.03706
G0 F1080 X179.1 Y116.419
G0 F6000 X179.163 Y116.816
G1 F1200 X178.617 Y116.953 E51.06514
G1 X178.121 Y117.177 E51.0923
G1 X178.007 Y117.245 E51.09892
G1 X177.601 Y117.527 E51.12358
G1 X177.202 Y117.926 E51.15173
G1 X176.88 Y118.387 E51.17979
G1 X176.642 Y118.895 E51.20777
G1 X176.497 Y119.439 E51.23586
G1 X176.447 Y120 E51.26396
G1 X176.497 Y120.561 E51.29206
G1 X176.642 Y121.105 E51.32015
G1 X176.88 Y121.614 E51.34818
G1 X177.202 Y122.074 E51.3762
G1 X177.601 Y122.473 E51.40435
G1 X178.062 Y122.795 E51.4324
G1 X178.532 Y123.014 E51.45827
G1 X179.067 Y123.165 E51.486
G1 X179.626 Y123.223 E51.51404
G1 X180.187 Y123.184 E51.5421
G1 X180.733 Y123.047 E51.57018
G1 X181.227 Y122.824 E51.59722
G1 X181.342 Y122.758 E51.60384
G1 X181.749 Y122.473 E51.62863
G1 X182.148 Y122.074 E51.65678
G1 X182.47 Y121.614 E51.68479
G1 X182.708 Y121.105 E51.71283
G1 X182.853 Y120.561 E51.74091
G1 X182.903 Y120 E51.76901
G1 X182.853 Y119.439 E51.79711
G1 X182.708 Y118.895 E51.8252
G1 X182.47 Y118.387 E51.85319
G1 X182.148 Y117.926 E51.88124
G1 X181.749 Y117.527 E51.90939
G1 X181.289 Y117.205 E51.93741
G1 X180.819 Y116.986 E51.96328
G1 X180.282 Y116.835 E51.99111
G1 X179.724 Y116.777 E52.01909
G1 X179.694 Y116.78 E52.0206
G0 F1080 X179.163 Y116.816
G0 F6000 X179.226 Y117.213
;TYPE:WALL-OUTER
G1 F1200 X178.749 Y117.332 E52.04513
G1 X178.306 Y117.532 E52.06938
G1 X178.224 Y117.581 E52.07414
G1 X177.859 Y117.835 E52.09633
G1 X177.51 Y118.184 E52.12095
G1 X177.228 Y118.588 E52.14553
G1 X177.019 Y119.033 E52.17006
G1 X176.892 Y119.509 E52.19464
G1 X176.849 Y120 E52.21923
G1 X176.892 Y120.491 E52.24382
G1 X177.019 Y120.967 E52.26839
G1 X177.228 Y121.413 E52.29297
G1 X177.51 Y121.816 E52.31751
G1 X177.859 Y122.165 E52.34213
G1 X178.263 Y122.447 E52.36671
G1 X178.672 Y122.638 E52.38923
G1 X179.143 Y122.771 E52.41365
G1 X179.633 Y122.822 E52.43823
G1 X180.124 Y122.787 E52.46279
G1 X180.601 Y122.668 E52.48731
G1 X181.044 Y122.468 E52.51156
G1 X181.127 Y122.42 E52.51635
G1 X181.491 Y122.165 E52.53852
G1 X181.84 Y121.816 E52.56314
G1 X182.122 Y121.413 E52.58768
G1 X182.331 Y120.967 E52.61225
G1 X182.458 Y120.491 E52.63683
G1 X182.501 Y120 E52.66142
G1 X182.458 Y119.509 E52.68601
G1 X182.331 Y119.033 E52.71059
G1 X182.122 Y118.588 E52.73512
G1 X181.84 Y118.184 E52.7597
G1 X181.491 Y117.835 E52.78432
G1 X181.088 Y117.553 E52.80886
G1 X180.679 Y117.362 E52.83138
G1 X180.207 Y117.229 E52.85585
G1 X179.756 Y117.182 E52.87847
G0 F1080 X179.717 Y117.178
G0 X179.226 Y117.213
G0 F6000 X178.838 Y117.309
G0 X178.732 Y116.882
G1 F3000 E46.87847
G0 F6000 X162.103 Y119.728
G0 X160.123 Y119.933
G0 X40.565 Y122.128
G0 X40.519 Y122.422
G1 F3000 E52.87847
G1 F1200 X39.856 Y122.322 E52.91192
G1 X39.219 Y122.201 E52.94427
G1 X38.623 Y122.056 E52.97487
G1 X38.056 Y121.887 E53.00439
G1 X37.791 Y121.795 E53.01838
G1 X37.556 Y121.704 E53.03096
G1 X37.33 Y121.608 E53.04321
G1 X37.122 Y121.508 E53.05472
G1 X36.928 Y121.403 E53.06573
G1 X36.765 Y121.305 E53.07522
G1 X36.608 Y121.198 E53.08469
G1 X36.479 Y121.096 E53.0929
G1 X36.359 Y120.988 E53.10095
G1 X36.263 Y120.886 E53.10794
G1 X36.183 Y120.785 E53.11437
G1 X36.126 Y120.697 E53.1196
G1 X36.078 Y120.596 E53.12518
G1 X36.049 Y120.514 E53.12952
G1 X36.031 Y120.428 E53.1339
G1 X36.023 Y120.275 E53.14155
G1 X36.026 Y119.593 E53.17557
G1 X36.046 Y119.476 E53.18149
G1 X36.077 Y119.386 E53.18624
G1 X36.119 Y119.298 E53.19111
G1 X36.18 Y119.198 E53.19695
G1 X36.256 Y119.103 E53.20302
G1 X36.352 Y118.999 E53.21008
G1 X36.47 Y118.891 E53.21806
G1 X36.595 Y118.792 E53.22602
G1 X36.743 Y118.69 E53.23498
G1 X36.922 Y118.581 E53.24544
G1 X37.109 Y118.48 E53.25604
G1 X37.315 Y118.38 E53.26747
G1 X37.532 Y118.285 E53.27929
