;FLAVOR:Marlin
;TIME:3158
;Filament used: 2.12149m
;Layer height: 0.2
;MINX:66.9
;MINY:95.9
;MINZ:0.2
;MAXX:168.1
;MAXY:139.1
;MAXZ:2.75
;Generated with Cura_SteamEngine 4.7.0
M140 S60
M105
M190 S60
M104 S205
M105
M109 S205
M82 ;absolute extrusion mode
M201 X500.00 Y500.00 Z100.00 E5000.00 ;Setup machine max acceleration
M203 X500.00 Y500.00 Z10.00 E75.00 ;Setup machine max feedrate
M204 P500.00 R1000.00 T500.00 ;Setup Print/Retract/Travel acceleration
M205 X8.00 Y8.00 Z0.40 E5.00 ;Setup Jerk
M220 S100 ;Reset Feedrate
M221 S100 ;Reset Flowrate

G21 ; (metric values)
G90 ; (absolute positioning)
M82 ; (set extruder to absolute mode)
G28 ; (home all axis)
G29 ; (Auto Level)

G92 E0 ;Reset Extruder
G1 Z2.0 F3000 ;Move Z Axis up
G1 X1.1 Y50 Z0.28 F5000.0 ;Move to start position
G1 X1.1 Y200.0 Z0.28 F1500.0 E15 ;Draw the first line
G1 X1.4 Y200.0 Z0.28 F5000.0 ;Move to side a little
G1 X1.4 Y100 Z0.28 F1500.0 E30 ;Draw the second line
G92 E0 ;Reset Extruder
G1 Z2.0 F3000 ;Move Z Axis up
G92 E0
G92 E0
G1 F1500 E-7
;LAYER_COUNT:12
;LAYER:0
M107
G1 F300 Z0.55
G0 F6000 X69.343 Y96.89 Z0.55
;TYPE:SKIRT
G1 F300 Z0.2
G1 F1500 E0
G1 F900 X69.916 Y96.545 E0.02225
G1 X70.527 Y96.272 E0.0445
G1 X71.165 Y96.073 E0.06673
G1 X71.823 Y95.951 E0.08899
G1 X72.352 Y95.911 E0.10664
G1 X72.673 Y95.902 E0.11732
G1 X72.83 Y95.9 E0.12254
G1 X161.793 Y95.9 E3.08146
G1 X162.571 Y95.911 E3.10734
G1 X163.238 Y95.96 E3.12958
G1 X163.895 Y96.089 E3.15185
G1 X164.531 Y96.295 E3.17409
G1 X165.139 Y96.576 E3.19636
G1 X165.708 Y96.926 E3.21858
G1 X166.232 Y97.343 E3.24086
G1 X166.702 Y97.819 E3.26311
G1 X167.112 Y98.347 E3.28534
G1 X167.457 Y98.921 E3.30761
G1 X167.73 Y99.532 E3.32987
G1 X167.928 Y100.171 E3.35212
G1 X168.049 Y100.829 E3.37438
G1 X168.089 Y101.353 E3.39185
G1 X168.098 Y101.673 E3.4025
G1 X168.1 Y101.83 E3.40772
G1 X168.1 Y132.833 E4.43889
G1 X168.091 Y133.56 E4.46307
G1 X168.042 Y134.228 E4.48535
G1 X167.915 Y134.884 E4.50757
G1 X167.71 Y135.521 E4.52983
G1 X167.431 Y136.129 E4.55208
G1 X167.081 Y136.699 E4.57432
G1 X166.665 Y137.224 E4.5966
G1 X166.19 Y137.695 E4.61885
G1 X165.663 Y138.106 E4.64108
G1 X165.09 Y138.452 E4.66334
G1 X164.48 Y138.726 E4.68558
G1 X163.841 Y138.926 E4.70785
G1 X163.183 Y139.048 E4.73011
G1 X162.648 Y139.089 E4.74796
G1 X162.327 Y139.098 E4.75864
G1 X162.17 Y139.1 E4.76386
G1 X73.135 Y139.1 E7.72518
G1 X72.437 Y139.091 E7.7484
G1 X71.77 Y139.042 E7.77064
G1 X71.113 Y138.914 E7.7929
G1 X70.476 Y138.709 E7.81516
G1 X69.868 Y138.429 E7.83742
G1 X69.298 Y138.079 E7.85967
G1 X68.774 Y137.663 E7.88192
G1 X68.303 Y137.188 E7.90417
G1 X67.892 Y136.66 E7.92643
G1 X67.547 Y136.087 E7.94867
G1 X67.273 Y135.477 E7.97091
G1 X67.073 Y134.838 E7.99318
G1 X66.952 Y134.18 E8.01544
G1 X66.911 Y133.642 E8.03338
G1 X66.902 Y133.309 E8.04446
G1 X66.9 Y133.158 E8.04948
G1 X66.901 Y102.098 E9.08254
G1 X66.91 Y101.433 E9.10466
G1 X66.959 Y100.766 E9.12691
G1 X67.087 Y100.109 E9.14917
G1 X67.292 Y99.473 E9.1714
G1 X67.572 Y98.865 E9.19366
G1 X67.923 Y98.295 E9.21592
G1 X68.339 Y97.771 E9.23818
G1 X68.814 Y97.301 E9.2604
G1 X69.343 Y96.89 E9.28268
G0 F6000 X69.726 Y97.117
G1 F900 X70.29 Y96.806 E9.3041
G1 X70.889 Y96.568 E9.32554
G1 X71.513 Y96.405 E9.34699
G1 X72.363 Y96.311 E9.37544
G1 X72.684 Y96.302 E9.38612
G1 X72.83 Y96.3 E9.39097
G1 X161.793 Y96.3 E12.3499
G1 X162.565 Y96.311 E12.37557
G1 X163.208 Y96.36 E12.39702
G1 X163.84 Y96.488 E12.41847
G1 X164.451 Y96.694 E12.43992
G1 X165.032 Y96.973 E12.46135
G1 X165.574 Y97.322 E12.48279
G1 X166.068 Y97.736 E12.50423
G1 X166.508 Y98.208 E12.52569
G1 X166.886 Y98.73 E12.54713
G1 X167.196 Y99.295 E12.56856
G1 X167.434 Y99.894 E12.59
G1 X167.596 Y100.518 E12.61144
G1 X167.689 Y101.364 E12.63975
G1 X167.698 Y101.684 E12.6504
G1 X167.7 Y101.83 E12.65526
G1 X167.7 Y132.828 E13.68625
G1 X167.691 Y133.555 E13.71043
G1 X167.643 Y134.198 E13.73188
G1 X167.516 Y134.83 E13.75332
G1 X167.311 Y135.442 E13.77479
G1 X167.033 Y136.023 E13.79621
G1 X166.685 Y136.566 E13.81766
G1 X166.272 Y137.061 E13.8391
G1 X165.801 Y137.501 E13.86054
G1 X165.279 Y137.88 E13.882
G1 X164.715 Y138.191 E13.90342
G1 X164.116 Y138.43 E13.92487
G1 X163.493 Y138.594 E13.94629
G1 X162.637 Y138.689 E13.97494
G1 X162.316 Y138.698 E13.98562
G1 X162.17 Y138.7 E13.99048
G1 X73.14 Y138.7 E16.95163
G1 X72.442 Y138.691 E16.97484
G1 X71.799 Y138.642 E16.99629
G1 X71.167 Y138.515 E17.01773
G1 X70.556 Y138.31 E17.03917
G1 X69.975 Y138.032 E17.06059
G1 X69.432 Y137.683 E17.08206
G1 X68.937 Y137.27 E17.1035
G1 X68.497 Y136.799 E17.12494
G1 X68.118 Y136.277 E17.1464
G1 X67.807 Y135.713 E17.16782
G1 X67.569 Y135.114 E17.18925
G1 X67.406 Y134.49 E17.21071
G1 X67.311 Y133.631 E17.23945
G1 X67.302 Y133.298 E17.25053
G1 X67.3 Y133.158 E17.25519
G1 X67.3 Y102.104 E18.28805
G1 X67.309 Y101.439 E18.31017
G1 X67.358 Y100.796 E18.33161
G1 X67.486 Y100.164 E18.35306
G1 X67.691 Y99.553 E18.3745
G1 X67.97 Y98.972 E18.39593
G1 X68.319 Y98.429 E18.4174
G1 X68.732 Y97.935 E18.43882
G1 X69.203 Y97.495 E18.46026
G1 X69.726 Y97.117 E18.48172
G1 F1500 E11.48172
G1 F300 Z0.55
;MESH:Horizontal_Expansion_ruler.stl
G0 F6000 X72.7 Y101.7 Z0.55
;TYPE:WALL-OUTER
G1 F300 Z0.2
G1 F1500 E18.48172
G1 F900 X162.3 Y101.7 E21.46183
G1 X162.3 Y133.3 E22.51285
G1 X72.7 Y133.3 E25.49296
G1 X72.7 Y101.7 E26.54398
G0 F6000 X73.1 Y101.7
G0 X73.14 Y102.14
G1 F1500 E19.54398
G1 F300 Z0.55
G0 F6000 X142.361 Y116.706 Z0.55
G1 F300 Z0.2
G1 F1500 E26.54398
G1 F900 X142.299 Y117.5 E26.57047
G1 X142.361 Y118.294 E26.59695
G1 X142.542 Y119.069 E26.62342
G1 X142.839 Y119.808 E26.64991
G1 X143.246 Y120.492 E26.67639
G1 X143.753 Y121.106 E26.70287
G1 X144.347 Y121.635 E26.72933
G1 X145.015 Y122.069 E26.75582
G1 X145.742 Y122.395 E26.78232
G1 X146.51 Y122.606 E26.80881
G1 X147.3 Y122.696 E26.83526
G1 X148.096 Y122.666 E26.86175
G1 X148.878 Y122.514 E26.88825
G1 X149.627 Y122.246 E26.91471
G1 X150.327 Y121.865 E26.94121
G1 X150.961 Y121.383 E26.9677
G1 X151.512 Y120.809 E26.99417
G1 X151.97 Y120.158 E27.02064
G1 X152.324 Y119.444 E27.04715
G1 X152.563 Y118.685 E27.07361
G1 X152.685 Y117.898 E27.1001
G1 X152.685 Y117.102 E27.12658
G1 X152.563 Y116.315 E27.15306
G1 X152.324 Y115.556 E27.17953
G1 X151.97 Y114.842 E27.20604
G1 X151.512 Y114.191 E27.23251
G1 X150.961 Y113.617 E27.25898
G1 X150.327 Y113.135 E27.28546
G1 X149.627 Y112.754 E27.31197
G1 X148.878 Y112.486 E27.33843
G1 X148.096 Y112.334 E27.36493
G1 X147.3 Y112.304 E27.39142
G1 X146.51 Y112.394 E27.41787
G1 X145.742 Y112.605 E27.44436
G1 X145.015 Y112.931 E27.47086
G1 X144.347 Y113.365 E27.49735
G1 X143.753 Y113.894 E27.52381
G1 X143.246 Y114.508 E27.55029
G1 X142.839 Y115.192 E27.57676
G1 X142.542 Y115.931 E27.60325
G1 X142.361 Y116.706 E27.62972
G0 F6000 X142.33 Y117.104
G0 X141.898 Y117.5
;TYPE:WALL-INNER
G1 F900 X141.965 Y118.355 E27.65825
G1 X142.159 Y119.19 E27.68676
G1 X142.479 Y119.986 E27.71529
G1 X142.918 Y120.723 E27.74383
G1 X143.464 Y121.384 E27.77234
G1 X144.104 Y121.954 E27.80085
G1 X144.823 Y122.421 E27.82936
G1 X145.606 Y122.773 E27.85792
G1 X146.434 Y123 E27.88647
G1 X147.285 Y123.097 E27.91496
G1 X148.142 Y123.065 E27.94348
G1 X148.984 Y122.901 E27.97201
G1 X149.791 Y122.612 E28.00052
G1 X150.545 Y122.202 E28.02907
G1 X151.228 Y121.683 E28.0576
G1 X151.822 Y121.064 E28.08613
G1 X152.315 Y120.363 E28.11464
G1 X152.696 Y119.594 E28.14318
G1 X152.954 Y118.776 E28.17171
G1 X153.085 Y117.929 E28.20022
G1 X153.085 Y117.071 E28.22875
G1 X152.954 Y116.224 E28.25726
G1 X152.696 Y115.406 E28.28579
G1 X152.315 Y114.637 E28.31433
G1 X151.822 Y113.936 E28.34284
G1 X151.228 Y113.317 E28.37137
G1 X150.545 Y112.798 E28.3999
G1 X149.791 Y112.388 E28.42845
G1 X148.984 Y112.099 E28.45696
G1 X148.142 Y111.935 E28.48549
G1 X147.285 Y111.903 E28.51401
G1 X146.434 Y112 E28.5425
G1 X145.606 Y112.227 E28.57106
G1 X144.823 Y112.579 E28.59961
G1 X144.104 Y113.046 E28.62813
G1 X143.464 Y113.616 E28.65663
G1 X142.918 Y114.277 E28.68515
G1 X142.479 Y115.014 E28.71368
G1 X142.159 Y115.81 E28.74221
G1 X141.965 Y116.645 E28.77072
G1 X141.898 Y117.5 E28.79925
G0 F6000 X141.569 Y116.584
G1 F900 X141.497 Y117.5 E28.82981
G1 X141.569 Y118.416 E28.86037
G1 X141.776 Y119.311 E28.89092
G1 X142.119 Y120.164 E28.9215
G1 X142.59 Y120.954 E28.95209
G1 X143.175 Y121.662 E28.98264
G1 X143.861 Y122.273 E29.01319
G1 X144.631 Y122.773 E29.04373
G1 X145.47 Y123.151 E29.07434
G1 X146.358 Y123.394 E29.10496
G1 X147.27 Y123.498 E29.13549
G1 X148.188 Y123.464 E29.16604
G1 X149.09 Y123.288 E29.19661
G1 X149.955 Y122.978 E29.22717
G1 X150.763 Y122.539 E29.25775
G1 X151.495 Y121.983 E29.28833
G1 X152.132 Y121.319 E29.31893
G1 X152.66 Y120.568 E29.34946
G1 X153.068 Y119.744 E29.38005
G1 X153.345 Y118.867 E29.41064
G1 X153.485 Y117.96 E29.44116
G1 X153.485 Y117.04 E29.47176
G1 X153.345 Y116.133 E29.50228
G1 X153.068 Y115.256 E29.53287
G1 X152.66 Y114.432 E29.56345
G1 X152.132 Y113.681 E29.59399
G1 X151.495 Y113.017 E29.62459
G1 X150.763 Y112.461 E29.65517
G1 X149.955 Y112.022 E29.68575
G1 X149.09 Y111.712 E29.71631
G1 X148.188 Y111.536 E29.74688
G1 X147.27 Y111.502 E29.77743
G1 X146.358 Y111.606 E29.80796
G1 X145.47 Y111.849 E29.83858
G1 X144.631 Y112.227 E29.86919
G1 X143.861 Y112.727 E29.89973
G1 X143.175 Y113.338 E29.93028
G1 X142.59 Y114.046 E29.96083
G1 X142.119 Y114.836 E29.99142
G1 X141.776 Y115.689 E30.022
G1 X141.569 Y116.584 E30.05255
G1 F1500 E23.05255
G1 F300 Z0.55
G0 F6000 X125.2 Y117.5 Z0.55
;TYPE:WALL-OUTER
G1 F300 Z0.2
G1 F1500 E30.05255
G1 F900 X125.14 Y116.535 E30.08471
G1 X124.958 Y115.585 E30.11688
G1 X124.659 Y114.665 E30.14906
G1 X124.248 Y113.79 E30.18121
G1 X123.73 Y112.974 E30.21336
G1 X123.113 Y112.229 E30.24553
G1 X122.409 Y111.567 E30.27767
G1 X121.626 Y110.999 E30.30984
G1 X120.778 Y110.533 E30.34203
G1 X119.88 Y110.176 E30.37417
G1 X118.943 Y109.936 E30.40634
G1 X117.984 Y109.815 E30.43849
G1 X117.016 Y109.815 E30.47068
G1 X116.057 Y109.936 E30.50283
G1 X115.12 Y110.176 E30.535
G1 X114.222 Y110.533 E30.56714
G1 X113.374 Y110.999 E30.59933
G1 X112.591 Y111.567 E30.6315
G1 X111.887 Y112.229 E30.66364
G1 X111.27 Y112.974 E30.69582
G1 X110.752 Y113.79 E30.72796
G1 X110.341 Y114.665 E30.76012
G1 X110.042 Y115.585 E30.79229
G1 X109.86 Y116.535 E30.82446
G1 X109.8 Y117.5 E30.85662
G1 X109.86 Y118.465 E30.88878
G1 X110.042 Y119.415 E30.92095
G1 X110.341 Y120.335 E30.95312
G1 X110.752 Y121.21 E30.98528
G1 X111.27 Y122.026 E31.01742
G1 X111.887 Y122.771 E31.0496
G1 X112.591 Y123.433 E31.08174
G1 X113.374 Y124.001 E31.11391
G1 X114.222 Y124.467 E31.1461
G1 X115.12 Y124.824 E31.17824
G1 X116.057 Y125.064 E31.21041
G1 X117.016 Y125.185 E31.24256
G1 X117.984 Y125.185 E31.27475
G1 X118.943 Y125.064 E31.3069
G1 X119.88 Y124.824 E31.33907
G1 X120.778 Y124.467 E31.37121
G1 X121.626 Y124.001 E31.4034
G1 X122.409 Y123.433 E31.43557
G1 X123.113 Y122.771 E31.46771
G1 X123.73 Y122.026 E31.49988
G1 X124.248 Y121.21 E31.53203
G1 X124.659 Y120.335 E31.56418
G1 X124.958 Y119.415 E31.59636
G1 X125.14 Y118.465 E31.62853
G1 X125.2 Y117.5 E31.66069
G0 F6000 X125.176 Y117.101
G0 X125.601 Y117.5
;TYPE:WALL-INNER
G1 F900 X125.538 Y116.485 E31.69451
G1 X125.346 Y115.485 E31.72838
G1 X125.032 Y114.518 E31.7622
G1 X124.599 Y113.597 E31.79605
G1 X124.054 Y112.738 E31.82988
G1 X123.405 Y111.955 E31.86371
G1 X122.664 Y111.258 E31.89754
G1 X121.841 Y110.661 E31.93136
G1 X120.949 Y110.17 E31.96522
G1 X120.004 Y109.795 E31.99904
G1 X119.018 Y109.542 E32.0329
G1 X118.009 Y109.415 E32.06672
G1 X116.991 Y109.415 E32.10058
G1 X115.982 Y109.542 E32.1344
G1 X114.996 Y109.795 E32.16826
G1 X114.051 Y110.17 E32.20208
G1 X113.159 Y110.661 E32.23594
G1 X112.336 Y111.258 E32.26976
G1 X111.595 Y111.955 E32.30359
G1 X110.946 Y112.738 E32.33742
G1 X110.401 Y113.597 E32.37125
G1 X109.968 Y114.518 E32.4051
G1 X109.654 Y115.485 E32.43892
G1 X109.462 Y116.485 E32.47279
G1 X109.399 Y117.5 E32.50661
G1 X109.462 Y118.515 E32.54044
G1 X109.654 Y119.515 E32.5743
G1 X109.968 Y120.482 E32.60812
G1 X110.401 Y121.403 E32.64197
G1 X110.946 Y122.262 E32.6758
G1 X111.595 Y123.045 E32.70963
G1 X112.336 Y123.742 E32.74346
G1 X113.159 Y124.339 E32.77728
G1 X114.051 Y124.83 E32.81115
G1 X114.996 Y125.205 E32.84496
G1 X115.982 Y125.458 E32.87882
G1 X116.991 Y125.585 E32.91264
G1 X118.009 Y125.585 E32.9465
G1 X119.018 Y125.458 E32.98033
G1 X120.004 Y125.205 E33.01418
G1 X120.949 Y124.83 E33.048
G1 X121.841 Y124.339 E33.08186
G1 X122.664 Y123.742 E33.11568
G1 X123.405 Y123.045 E33.14952
G1 X124.054 Y122.262 E33.18334
G1 X124.599 Y121.403 E33.21718
G1 X125.032 Y120.482 E33.25103
G1 X125.346 Y119.515 E33.28484
G1 X125.538 Y118.515 E33.31871
G1 X125.601 Y117.5 E33.35253
G0 F6000 X126.002 Y117.5
G1 F900 X125.936 Y116.435 E33.38802
G1 X125.734 Y115.385 E33.42359
G1 X125.405 Y114.371 E33.45904
G1 X124.95 Y113.404 E33.49459
G1 X124.378 Y112.502 E33.53011
G1 X123.697 Y111.681 E33.56559
G1 X122.919 Y110.949 E33.60112
G1 X122.056 Y110.323 E33.63658
G1 X121.12 Y109.807 E33.67213
G1 X120.128 Y109.414 E33.70762
G1 X119.093 Y109.148 E33.74316
G1 X118.034 Y109.015 E33.77866
G1 X116.966 Y109.015 E33.81418
G1 X115.907 Y109.148 E33.84968
G1 X114.872 Y109.414 E33.88522
G1 X113.88 Y109.807 E33.92071
G1 X112.944 Y110.323 E33.95626
G1 X112.081 Y110.949 E33.99172
G1 X111.303 Y111.681 E34.02725
G1 X110.622 Y112.502 E34.06273
G1 X110.05 Y113.404 E34.09825
G1 X109.595 Y114.371 E34.1338
G1 X109.266 Y115.385 E34.16925
G1 X109.064 Y116.435 E34.20482
G1 X108.998 Y117.5 E34.24031
G1 X109.064 Y118.565 E34.2758
G1 X109.266 Y119.615 E34.31136
G1 X109.595 Y120.629 E34.34682
G1 X110.05 Y121.596 E34.38236
G1 X110.622 Y122.498 E34.41789
G1 X111.303 Y123.319 E34.45336
G1 X112.081 Y124.051 E34.48889
G1 X112.944 Y124.677 E34.52435
G1 X113.88 Y125.193 E34.5599
G1 X114.872 Y125.586 E34.59539
G1 X115.907 Y125.852 E34.63093
G1 X116.966 Y125.985 E34.66643
G1 X118.034 Y125.985 E34.70196
G1 X119.093 Y125.852 E34.73745
G1 X120.128 Y125.586 E34.773
G1 X121.12 Y125.193 E34.80849
G1 X122.056 Y124.677 E34.84404
G1 X122.919 Y124.051 E34.8795
G1 X123.697 Y123.319 E34.91502
G1 X124.378 Y122.498 E34.9505
G1 X124.95 Y121.596 E34.98603
G1 X125.405 Y120.629 E35.02157
G1 X125.734 Y119.615 E35.05703
G1 X125.936 Y118.565 E35.09259
G1 X126.002 Y117.5 E35.12808
G1 F1500 E28.12808
G1 F300 Z0.55
G0 F6000 X97.7 Y117.5 Z0.55
;TYPE:WALL-OUTER
G1 F300 Z0.2
G1 F1500 E35.12808
G1 F900 X97.64 Y116.397 E35.16482
G1 X97.462 Y115.307 E35.20156
G1 X97.182 Y114.294 E35.23651
G1 X97.166 Y114.241 E35.23835
G1 X96.758 Y113.217 E35.27502
G1 X96.241 Y112.241 E35.31175
G1 X95.62 Y111.327 E35.3485
G1 X94.905 Y110.485 E35.38524
G1 X94.104 Y109.725 E35.42197
G1 X93.224 Y109.057 E35.45871
G1 X92.278 Y108.488 E35.49543
G1 X91.275 Y108.024 E35.53219
G1 X90.229 Y107.672 E35.5689
G1 X89.15 Y107.434 E35.60565
G1 X88.106 Y107.322 E35.64057
G1 X88.055 Y107.315 E35.64228
G1 X86.948 Y107.315 E35.6791
G1 X85.902 Y107.427 E35.71409
G1 X85.847 Y107.435 E35.71594
G1 X84.771 Y107.672 E35.75258
G1 X83.725 Y108.024 E35.78929
G1 X82.722 Y108.488 E35.82605
G1 X81.776 Y109.057 E35.86276
G1 X80.896 Y109.725 E35.89951
G1 X80.095 Y110.485 E35.93624
G1 X79.38 Y111.327 E35.97297
G1 X78.759 Y112.241 E36.00973
G1 X78.242 Y113.217 E36.04646
G1 X77.833 Y114.243 E36.0832
G1 X77.539 Y115.305 E36.11985
G1 X77.36 Y116.397 E36.15665
G1 X77.3 Y117.5 E36.19339
G1 X77.36 Y118.603 E36.23013
G1 X77.538 Y119.693 E36.26687
G1 X77.818 Y120.706 E36.30182
G1 X77.834 Y120.759 E36.30367
G1 X78.242 Y121.783 E36.34033
G1 X78.759 Y122.759 E36.37706
G1 X79.38 Y123.673 E36.41382
G1 X80.095 Y124.515 E36.45056
G1 X80.896 Y125.275 E36.48728
G1 X81.776 Y125.943 E36.52403
G1 X82.722 Y126.512 E36.56074
