;FLAVOR:Marlin
;TIME:1938
;Filament used: 0.649704m
;Layer height: 0.12
;MINX:92.05
;MINY:90.8
;MINZ:0.2
;MAXX:142.95
;MAXY:144.2
;MAXZ:3.31
;Generated with Cura_SteamEngine 4.7.0
M140 S60
M105
M190 S60
M104 S205
M105
M109 S205
M82 ;absolute extrusion mode
M201 X500.00 Y500.00 Z100.00 E5000.00 ;Setup machine max acceleration
M203 X500.00 Y500.00 Z10.00 E75.00 ;Setup machine max feedrate
M204 P500.00 R1000.00 T500.00 ;Setup Print/Retract/Travel acceleration
M205 X8.00 Y8.00 Z0.40 E5.00 ;Setup Jerk
M220 S100 ;Reset Feedrate
M221 S100 ;Reset Flowrate

G21 ; (metric values)
G90 ; (absolute positioning)
M82 ; (set extruder to absolute mode)
G28 ; (home all axis)
G29 ; (Auto Level)

G92 E0 ;Reset Extruder
G1 Z2.0 F3000 ;Move Z Axis up
G1 X1.1 Y50 Z0.28 F5000.0 ;Move to start position
G1 X1.1 Y200.0 Z0.28 F1500.0 E15 ;Draw the first line
G1 X1.4 Y200.0 Z0.28 F5000.0 ;Move to side a little
G1 X1.4 Y100 Z0.28 F1500.0 E30 ;Draw the second line
G92 E0 ;Reset Extruder
G1 Z2.0 F3000 ;Move Z Axis up
G92 E0
G92 E0
G1 F1500 E-7
;LAYER_COUNT:24
;LAYER:0
M107
G1 F300 Z0.55
G0 F6000 X94.146 Y93.088 Z0.55
;TYPE:SKIRT
G1 F300 Z0.2
G1 F1500 E0
G1 F900 X94.289 Y92.944 E0.00675
G1 X94.723 Y92.551 E0.02622
G1 X94.886 Y92.418 E0.03322
G1 X95.382 Y92.057 E0.05362
G1 X95.558 Y91.943 E0.0606
G1 X96.14 Y91.613 E0.08285
G1 X96.474 Y91.463 E0.09503
G1 X96.866 Y91.302 E0.10912
G1 X97.499 Y91.085 E0.13138
G1 X97.885 Y90.993 E0.14458
G1 X98.172 Y90.935 E0.15432
G1 X98.731 Y90.851 E0.17312
G1 X98.812 Y90.843 E0.17583
G1 X99.157 Y90.82 E0.18733
G1 X99.375 Y90.812 E0.19458
G1 X99.505 Y90.809 E0.19891
G1 X100.177 Y90.8 E0.22126
G1 X134.891 Y90.802 E1.37585
G1 X135.635 Y90.813 E1.4006
G1 X136.028 Y90.832 E1.41369
G1 X136.239 Y90.85 E1.42073
G1 X137.031 Y90.976 E1.4474
G1 X137.332 Y91.046 E1.45768
G1 X137.703 Y91.145 E1.47045
G1 X138.523 Y91.463 E1.49971
G1 X138.901 Y91.645 E1.51366
G1 X139.486 Y91.971 E1.53593
G1 X139.796 Y92.185 E1.54846
G1 X140.04 Y92.365 E1.55855
G1 X140.62 Y92.856 E1.58382
G1 X140.765 Y92.997 E1.59055
G1 X141.221 Y93.497 E1.61306
G1 X141.35 Y93.657 E1.61989
G1 X141.695 Y94.135 E1.6395
G1 X141.833 Y94.348 E1.64794
G1 X142.285 Y95.22 E1.68061
G1 X142.445 Y95.608 E1.69457
G1 X142.663 Y96.241 E1.71683
G1 X142.756 Y96.63 E1.73014
G1 X142.813 Y96.911 E1.73967
G1 X142.913 Y97.653 E1.76458
G1 X142.928 Y97.879 E1.77211
G1 X142.939 Y98.165 E1.78163
G1 X142.95 Y98.91 E1.80641
G1 X142.948 Y136.124 E3.04415
G1 X142.937 Y136.884 E3.06943
G1 X142.918 Y137.279 E3.08259
G1 X142.9 Y137.49 E3.08963
G1 X142.774 Y138.286 E3.11643
G1 X142.704 Y138.586 E3.12668
G1 X142.605 Y138.953 E3.13932
G1 X142.287 Y139.773 E3.16858
G1 X142.105 Y140.151 E3.18253
G1 X141.779 Y140.736 E3.2048
G1 X141.565 Y141.046 E3.21733
G1 X141.385 Y141.29 E3.22742
G1 X140.992 Y141.767 E3.24797
G1 X140.931 Y141.833 E3.25096
G1 X140.486 Y142.264 E3.27157
G1 X140.246 Y142.472 E3.28213
G1 X139.621 Y142.941 E3.30812
G1 X139.448 Y143.053 E3.31497
G1 X139.276 Y143.16 E3.32171
G1 X138.525 Y143.537 E3.34966
G1 X138.136 Y143.697 E3.36365
G1 X137.503 Y143.914 E3.38591
G1 X137.115 Y144.007 E3.39918
G1 X136.828 Y144.065 E3.40892
G1 X136.269 Y144.149 E3.42772
G1 X136.188 Y144.157 E3.43042
G1 X135.843 Y144.18 E3.44192
G1 X135.625 Y144.188 E3.44918
G1 X135.495 Y144.191 E3.4535
G1 X134.823 Y144.2 E3.47586
G1 X100.109 Y144.198 E4.63045
G1 X99.365 Y144.187 E4.6552
G1 X98.972 Y144.168 E4.66828
G1 X98.761 Y144.15 E4.67533
G1 X97.973 Y144.025 E4.70186
G1 X97.671 Y143.955 E4.71218
G1 X97.275 Y143.848 E4.72582
G1 X97.246 Y143.839 E4.72683
G1 X96.476 Y143.536 E4.75435
G1 X96.096 Y143.353 E4.76838
G1 X95.512 Y143.028 E4.79061
G1 X95.192 Y142.808 E4.80352
G1 X94.945 Y142.625 E4.81375
G1 X94.276 Y142.041 E4.84328
G1 X94.096 Y141.857 E4.85185
G1 X93.519 Y141.163 E4.88186
G1 X93.315 Y140.873 E4.89366
G1 X92.963 Y140.304 E4.91591
G1 X92.719 Y139.789 E4.93486
G1 X92.555 Y139.392 E4.94915
G1 X92.337 Y138.76 E4.97139
G1 X92.24 Y138.352 E4.98534
G1 X92.183 Y138.067 E4.995
G1 X92.083 Y137.293 E5.02096
G1 X92.068 Y137.034 E5.02959
G1 X92.06 Y136.786 E5.03784
G1 X92.05 Y136.043 E5.06256
G1 X92.052 Y98.823 E6.3005
G1 X92.063 Y98.111 E6.32418
G1 X92.082 Y97.722 E6.33714
G1 X92.1 Y97.511 E6.34418
G1 X92.226 Y96.716 E6.37095
G1 X92.298 Y96.407 E6.3815
G1 X92.402 Y96.024 E6.3947
G1 X92.716 Y95.22 E6.42341
G1 X92.898 Y94.843 E6.43734
G1 X93.224 Y94.259 E6.45958
G1 X93.426 Y93.966 E6.47142
G1 X93.605 Y93.722 E6.48148
G1 X94.146 Y93.088 E6.5092
G0 F6000 X94.43 Y93.37
G1 F900 X94.573 Y93.226 E6.51595
G1 X94.976 Y92.861 E6.53404
G1 X95.139 Y92.728 E6.54103
G1 X95.599 Y92.393 E6.55996
G1 X95.775 Y92.279 E6.56694
G1 X96.626 Y91.833 E6.59889
G1 X97.018 Y91.672 E6.61299
G1 X97.629 Y91.464 E6.63445
G1 X97.964 Y91.385 E6.6459
G1 X98.251 Y91.327 E6.65564
G1 X98.77 Y91.249 E6.6731
G1 X98.851 Y91.241 E6.6758
G1 X99.171 Y91.219 E6.68647
G1 X99.51 Y91.208 E6.69775
G1 X100.177 Y91.2 E6.71994
G1 X134.885 Y91.202 E7.87433
G1 X135.629 Y91.213 E7.89908
G1 X135.994 Y91.231 E7.91123
G1 X136.205 Y91.249 E7.91828
G1 X136.941 Y91.365 E7.94306
G1 X137.242 Y91.435 E7.95334
G1 X137.588 Y91.528 E7.96525
G1 X138.35 Y91.824 E7.99244
G1 X138.728 Y92.006 E8.0064
G1 X139.29 Y92.321 E8.02783
G1 X139.559 Y92.506 E8.03868
G1 X139.803 Y92.686 E8.04877
G1 X140.341 Y93.143 E8.07225
G1 X140.486 Y93.284 E8.07897
G1 X140.909 Y93.748 E8.09986
G1 X141.038 Y93.908 E8.10669
G1 X141.359 Y94.352 E8.12492
G1 X141.495 Y94.563 E8.13327
G1 X141.915 Y95.373 E8.16361
G1 X142.075 Y95.761 E8.17757
G1 X142.284 Y96.371 E8.19902
G1 X142.364 Y96.709 E8.21057
G1 X142.421 Y96.99 E8.22011
G1 X142.514 Y97.68 E8.24326
G1 X142.529 Y97.906 E8.2508
G1 X142.539 Y98.171 E8.25962
G1 X142.55 Y98.91 E8.2842
G1 X142.548 Y136.118 E9.52174
G1 X142.537 Y136.878 E9.54702
G1 X142.519 Y137.245 E9.55924
G1 X142.501 Y137.456 E9.56629
G1 X142.384 Y138.196 E9.59121
G1 X142.314 Y138.496 E9.60145
G1 X142.222 Y138.838 E9.61323
G1 X141.926 Y139.6 E9.64042
G1 X141.744 Y139.978 E9.65437
G1 X141.429 Y140.54 E9.6758
G1 X141.244 Y140.809 E9.68666
G1 X141.064 Y141.053 E9.69675
G1 X140.698 Y141.495 E9.71583
G1 X140.637 Y141.561 E9.71882
G1 X140.224 Y141.962 E9.73797
G1 X139.984 Y142.17 E9.74853
G1 X139.404 Y142.605 E9.77264
G1 X139.231 Y142.717 E9.7795
G1 X139.07 Y142.817 E9.7858
G1 X138.373 Y143.167 E9.81174
G1 X137.984 Y143.327 E9.82573
G1 X137.374 Y143.535 E9.84717
G1 X137.036 Y143.615 E9.85872
G1 X136.749 Y143.673 E9.86846
G1 X136.23 Y143.751 E9.88592
G1 X136.149 Y143.759 E9.88862
G1 X135.829 Y143.781 E9.89929
G1 X135.49 Y143.792 E9.91057
G1 X134.823 Y143.8 E9.93276
G1 X100.115 Y143.798 E11.08715
G1 X99.371 Y143.787 E11.1119
G1 X99.006 Y143.769 E11.12405
G1 X98.795 Y143.751 E11.1311
G1 X98.063 Y143.636 E11.15574
G1 X97.761 Y143.566 E11.16605
G1 X97.365 Y143.457 E11.17972
G1 X96.65 Y143.176 E11.20527
G1 X96.27 Y142.993 E11.21929
G1 X95.707 Y142.678 E11.24075
G1 X95.43 Y142.486 E11.25196
G1 X95.183 Y142.303 E11.26219
G1 X94.562 Y141.761 E11.2896
G1 X94.382 Y141.577 E11.29816
G1 X93.846 Y140.933 E11.32603
G1 X93.642 Y140.643 E11.33782
G1 X93.304 Y140.094 E11.35927
G1 X93.089 Y139.636 E11.37609
G1 X92.925 Y139.239 E11.39038
G1 X92.716 Y138.629 E11.41183
G1 X92.632 Y138.274 E11.42396
G1 X92.575 Y137.989 E11.43363
G1 X92.483 Y137.27 E11.45774
G1 X92.468 Y137.011 E11.46637
G1 X92.459 Y136.78 E11.47405
G1 X92.45 Y136.043 E11.49857
G1 X92.452 Y98.83 E12.73628
G1 X92.463 Y98.118 E12.75996
G1 X92.481 Y97.756 E12.77202
G1 X92.499 Y97.545 E12.77906
G1 X92.616 Y96.807 E12.80391
G1 X92.688 Y96.498 E12.81447
G1 X92.784 Y96.141 E12.82676
G1 X93.076 Y95.394 E12.85344
G1 X93.258 Y95.017 E12.86736
G1 X93.748 Y94.202 E12.89899
G1 X93.927 Y93.958 E12.90906
G1 X94.43 Y93.37 E12.93479
G1 F1500 E5.93479
G1 F300 Z0.55
;MESH:horizontal expansion test.stl
G0 F6000 X120.54 Y113.868 Z0.55
;TYPE:WALL-INNER
G1 F300 Z0.2
G1 F1500 E12.93479
G1 F900 X120.281 Y114.263 E12.9505
G1 X120.043 Y114.671 E12.96621
G1 X119.827 Y115.092 E12.98195
G1 X119.636 Y115.524 E12.99766
G1 X119.469 Y115.966 E13.01338
G1 X119.326 Y116.417 E13.02911
G1 X119.21 Y116.875 E13.04483
G1 X119.118 Y117.336 E13.06046
G1 X119.118 Y117.337 E13.06049
G1 X119.051 Y117.807 E13.07628
G1 X119.012 Y118.278 E13.092
G1 X119 Y118.75 E13.10771
G1 X119.012 Y119.222 E13.12341
G1 X119.051 Y119.693 E13.13913
G1 X119.118 Y120.163 E13.15492
G1 X119.118 Y120.164 E13.15495
G1 X119.21 Y120.625 E13.17059
G1 X119.326 Y121.083 E13.1863
G1 X119.469 Y121.534 E13.20204
G1 X119.636 Y121.976 E13.21776
G1 X119.827 Y122.408 E13.23347
G1 X120.043 Y122.829 E13.2492
G1 X120.281 Y123.237 E13.26491
G1 X120.54 Y123.632 E13.28062
G1 X120.824 Y124.011 E13.29638
G1 X121.125 Y124.372 E13.31201
G1 X121.448 Y124.718 E13.32775
G1 X121.788 Y125.045 E13.34344
G1 X122.146 Y125.353 E13.35915
G1 X122.523 Y125.641 E13.37493
G1 X122.913 Y125.907 E13.39063
G1 X123.318 Y126.152 E13.40637
G1 X123.737 Y126.372 E13.42211
G1 X124.166 Y126.569 E13.43781
G1 X124.606 Y126.742 E13.45354
G1 X125.054 Y126.891 E13.46924
G1 X125.5 Y127.012 E13.48461
G1 X125.5 Y137.75 E13.84176
G1 X135.477 Y137.75 E14.1736
G1 X135.5 Y137.75 E14.17436
G1 X135.5 Y137.712 E14.17563
G1 X135.5 Y126.75 E14.54022
G1 X131.313 Y126.75 E14.67948
G1 X131.051 Y126.75 E14.6882
G1 X130.616 Y126.75 E14.70267
G1 X130.363 Y126.75 E14.71108
G1 X130.616 Y126.659 E14.71242
G1 X131.051 Y126.473 E14.72019
G1 X131.286 Y126.358 E14.72759
G1 X131.474 Y126.265 E14.73457
G1 X131.885 Y126.032 E14.75028
G1 X132.285 Y125.777 E14.76606
G1 X132.667 Y125.5 E14.78176
G1 X133.035 Y125.203 E14.79748
G1 X133.386 Y124.883 E14.81328
G1 X133.716 Y124.547 E14.82895
G1 X134.028 Y124.194 E14.84462
G1 X134.32 Y123.824 E14.86029
G1 X134.593 Y123.436 E14.87607
G1 X134.843 Y123.035 E14.89179
G1 X135.069 Y122.619 E14.90754
G1 X135.272 Y122.192 E14.92326
G1 X135.45 Y121.756 E14.93892
G1 X135.607 Y121.308 E14.95471
G1 X135.735 Y120.853 E14.97043
G1 X135.838 Y120.395 E14.98605
G1 X135.919 Y119.929 E15.00178
G1 X135.971 Y119.457 E15.01757
G1 X135.997 Y118.985 E15.0333
G1 X135.997 Y118.515 E15.04893
G1 X135.971 Y118.043 E15.06465
G1 X135.919 Y117.571 E15.08044
G1 X135.838 Y117.105 E15.09618
G1 X135.735 Y116.647 E15.11179
G1 X135.607 Y116.192 E15.12751
G1 X135.45 Y115.744 E15.1433
G1 X135.272 Y115.308 E15.15896
G1 X135.069 Y114.881 E15.17469
G1 X134.843 Y114.465 E15.19043
G1 X134.593 Y114.064 E15.20615
G1 X134.32 Y113.676 E15.22193
G1 X134.028 Y113.306 E15.23761
G1 X133.716 Y112.953 E15.25328
G1 X133.386 Y112.617 E15.26894
G1 X133.035 Y112.297 E15.28474
G1 X132.667 Y112 E15.30047
G1 X132.285 Y111.723 E15.31616
G1 X131.885 Y111.468 E15.33194
G1 X131.474 Y111.235 E15.34765
G1 X131.051 Y111.027 E15.36333
G1 X130.616 Y110.841 E15.37907
G1 X130.172 Y110.681 E15.39476
G1 X129.721 Y110.545 E15.41043
G1 X129.258 Y110.432 E15.42628
G1 X128.794 Y110.349 E15.44196
G1 X128.327 Y110.29 E15.45762
G1 X127.853 Y110.257 E15.47342
G1 X127.383 Y110.251 E15.48905
G1 X126.91 Y110.269 E15.5048
G1 X126.439 Y110.317 E15.52054
G1 X125.972 Y110.387 E15.53625
G1 X125.509 Y110.486 E15.552
G1 X125.054 Y110.609 E15.56767
G1 X124.606 Y110.758 E15.58338
G1 X124.166 Y110.931 E15.5991
G1 X123.737 Y111.128 E15.6148
G1 X123.318 Y111.348 E15.63054
G1 X122.913 Y111.593 E15.64629
G1 X122.523 Y111.859 E15.66199
G1 X122.146 Y112.147 E15.67777
G1 X121.788 Y112.455 E15.69347
G1 X121.448 Y112.782 E15.70916
G1 X121.125 Y113.128 E15.72491
G1 X120.824 Y113.489 E15.74054
G1 X120.54 Y113.868 E15.75629
G0 F6000 X120.868 Y114.098
;TYPE:WALL-OUTER
G1 F900 X120.621 Y114.474 E15.77125
G1 X120.394 Y114.863 E15.78623
G1 X120.188 Y115.264 E15.80123
G1 X120.006 Y115.676 E15.81621
G1 X119.847 Y116.097 E15.83118
G1 X119.711 Y116.527 E15.84618
G1 X119.6 Y116.964 E15.86117
G1 X119.512 Y117.404 E15.8761
G1 X119.449 Y117.851 E15.89111
G1 X119.412 Y118.3 E15.9061
G1 X119.4 Y118.75 E15.92107
G1 X119.412 Y119.2 E15.93604
G1 X119.449 Y119.649 E15.95102
G1 X119.512 Y120.096 E15.96604
G1 X119.6 Y120.536 E15.98096
G1 X119.711 Y120.973 E15.99596
G1 X119.847 Y121.403 E16.01096
G1 X120.006 Y121.824 E16.02593
G1 X120.188 Y122.236 E16.04091
G1 X120.394 Y122.637 E16.0559
G1 X120.621 Y123.026 E16.07088
G1 X120.868 Y123.402 E16.08585
G1 X121.138 Y123.763 E16.10084
G1 X121.425 Y124.107 E16.11574
G1 X121.733 Y124.437 E16.13075
G1 X122.057 Y124.749 E16.14571
G1 X122.398 Y125.042 E16.16067
G1 X122.757 Y125.317 E16.17571
G1 X123.129 Y125.57 E16.19067
G1 X123.515 Y125.803 E16.20567
G1 X123.914 Y126.013 E16.22066
G1 X124.323 Y126.201 E16.23564
G1 X124.742 Y126.366 E16.25061
G1 X125.169 Y126.508 E16.26558
G1 X125.603 Y126.625 E16.28053
G1 X126.044 Y126.719 E16.29553
G1 X126.489 Y126.786 E16.3105
G1 X126.938 Y126.832 E16.32551
G1 X127.388 Y126.849 E16.34048
G1 X127.837 Y126.843 E16.35542
G1 X128.288 Y126.812 E16.37046
G1 X128.733 Y126.755 E16.38538
G1 X129.176 Y126.676 E16.40034
G1 X129.616 Y126.569 E16.41541
G1 X130.046 Y126.439 E16.43035
G1 X130.469 Y126.287 E16.4453
G1 X130.884 Y126.109 E16.46032
G1 X131.287 Y125.911 E16.47525
G1 X131.679 Y125.689 E16.49023
G1 X132.06 Y125.446 E16.50526
G1 X132.424 Y125.182 E16.52022
G1 X132.774 Y124.899 E16.53519
G1 X133.108 Y124.595 E16.55021
G1 X133.423 Y124.274 E16.56517
G1 X133.721 Y123.937 E16.58013
G1 X133.999 Y123.585 E16.59505
G1 X134.259 Y123.215 E16.61009
G1 X134.497 Y122.833 E16.62506
G1 X134.713 Y122.437 E16.64006
G1 X134.906 Y122.031 E16.65501
G1 X135.076 Y121.614 E16.66999
G1 X135.225 Y121.188 E16.685
G1 X135.347 Y120.755 E16.69997
G1 X135.446 Y120.317 E16.7149
G1 X135.523 Y119.873 E16.72989
G1 X135.572 Y119.424 E16.74491
G1 X135.597 Y118.974 E16.7599
G1 X135.597 Y118.526 E16.7748
G1 X135.572 Y118.076 E16.78979
G1 X135.523 Y117.627 E16.80481
G1 X135.446 Y117.183 E16.8198
G1 X135.347 Y116.745 E16.83474
G1 X135.225 Y116.312 E16.8497
G1 X135.076 Y115.886 E16.86471
G1 X134.906 Y115.469 E16.87969
G1 X134.713 Y115.063 E16.89464
G1 X134.497 Y114.667 E16.90964
G1 X134.259 Y114.285 E16.92461
G1 X133.999 Y113.915 E16.93965
G1 X133.721 Y113.563 E16.95457
G1 X133.423 Y113.226 E16.96953
G1 X133.108 Y112.905 E16.98449
G1 X132.774 Y112.601 E16.99951
G1 X132.424 Y112.318 E17.01448
G1 X132.06 Y112.054 E17.02944
G1 X131.679 Y111.811 E17.04447
G1 X131.287 Y111.589 E17.05945
G1 X130.884 Y111.391 E17.07439
G1 X130.469 Y111.213 E17.08941
G1 X130.046 Y111.061 E17.10436
G1 X129.616 Y110.931 E17.1193
G1 X129.176 Y110.824 E17.13436
G1 X128.733 Y110.745 E17.14933
G1 X128.288 Y110.688 E17.16425
G1 X127.837 Y110.657 E17.17928
G1 X127.388 Y110.651 E17.19422
G1 X126.938 Y110.668 E17.2092
G1 X126.489 Y110.714 E17.22421
G1 X126.044 Y110.781 E17.23918
G1 X125.603 Y110.875 E17.25417
G1 X125.169 Y110.992 E17.26912
G1 X124.742 Y111.134 E17.28409
G1 X124.323 Y111.299 E17.29907
G1 X123.914 Y111.487 E17.31404
G1 X123.515 Y111.697 E17.32904
G1 X123.129 Y111.93 E17.34403
G1 X122.757 Y112.183 E17.35899
G1 X122.398 Y112.458 E17.37404
G1 X122.057 Y112.751 E17.38899
G1 X121.733 Y113.063 E17.40395
G1 X121.425 Y113.393 E17.41896
G1 X121.138 Y113.737 E17.43386
G1 X120.868 Y114.098 E17.44886
G0 F6000 X120.648 Y114.432
G0 X120.281 Y114.19
G1 F1500 E10.44886
G1 F300 Z0.55
G0 F6000 X125.9 Y127.15 Z0.55
G1 F300 Z0.2
G1 F1500 E17.44886
G1 F900 X125.9 Y137.35 E17.78811
G1 X135.1 Y137.35 E18.0941
G1 X135.1 Y127.15 E18.43336
G1 X125.9 Y127.15 E18.73935
G0 F6000 X125.9 Y127.55
G0 X125.46 Y127.55
G1 F1500 E11.73935
G1 F300 Z0.55
G0 F6000 X98.65 Y130.384 Z0.55
;TYPE:WALL-INNER
G1 F300 Z0.2
G1 F1500 E18.73935
G1 F900 X98.65 Y120.606 E19.06457
G1 X98.65 Y120.597 E19.06487
G1 X98.65 Y120.255 E19.07624
G1 X98.65 Y119.9 E19.08805
G1 X98.65 Y119.53 E19.10036
G1 X98.65 Y119.389 E19.10505
G1 X98.671 Y119.53 E19.1052
G1 X98.76 Y119.9 E19.10749
