;FLAVOR:Marlin
;TIME:6673
;Filament used: 3.45055m
;Layer height: 0.2
;MINX:96.874
;MINY:100.958
;MINZ:0.2
;MAXX:140.999
;MAXY:134.042
;MAXZ:76.35
;POSTPROCESSED
;Generated with Cura_SteamEngine 4.7.0
M140 S60
M105
M190 S60
M104 S230
M105
M109 S230
M82 ;absolute extrusion mode
M201 X500.00 Y500.00 Z100.00 E5000.00 ;Setup machine max acceleration
M203 X500.00 Y500.00 Z10.00 E75.00 ;Setup machine max feedrate
M204 P500.00 R1000.00 T500.00 ;Setup Print/Retract/Travel acceleration
M205 X8.00 Y8.00 Z0.40 E5.00 ;Setup Jerk
M220 S100 ;Reset Feedrate
M221 S100 ;Reset Flowrate
G21 ; (metric values)
G90 ; (absolute positioning)
M82 ; (set extruder to absolute mode)
G28 ; (home all axis)
G29 ; (Auto Level)
G92 E0 ;Reset Extruder
G1 Z2.0 F3000 ;Move Z Axis up
G1 X1.1 Y50 Z0.28 F5000.0 ;Move to start position
G1 X1.1 Y200.0 Z0.28 F1500.0 E15 ;Draw the first line
G1 X1.4 Y200.0 Z0.28 F5000.0 ;Move to side a little
G1 X1.4 Y100 Z0.28 F1500.0 E30 ;Draw the second line
G92 E0 ;Reset Extruder
G1 Z2.0 F3000 ;Move Z Axis up
G92 E0
G92 E0
G1 F1500 E-7
;LAYER_COUNT:380
;LAYER:0
M107
G1 F300 Z0.55
G0 F6000 X98.65 Y102.943 Z0.55
;TYPE:SKIRT
G1 F300 Z0.2
G1 F1500 E0
G1 F900 X99.156 Y102.47 E0.02304
G1 X99.713 Y102.058 E0.04608
G1 X100.537 Y101.607 E0.07732
G1 X100.675 Y101.545 E0.08236
G1 X101.322 Y101.298 E0.10539
G1 X102.275 Y101.08 E0.13791
G1 X102.593 Y101.034 E0.14859
G1 X103.283 Y100.974 E0.17163
G1 X103.795 Y100.982 E0.18866
G1 X104.127 Y101.001 E0.19972
G1 X104.616 Y101.049 E0.21606
G1 X105.755 Y101.208 E0.25431
G1 X108.431 Y101.545 E0.34402
G1 X111.075 Y101.801 E0.43237
G1 X113.742 Y101.985 E0.52129
G1 X116.37 Y102.091 E0.60877
G1 X119.07 Y102.123 E0.69857
G1 X121.699 Y102.08 E0.78603
G1 X124.361 Y101.962 E0.87465
G1 X127.02 Y101.768 E0.96333
G1 X129.641 Y101.501 E1.05095
G1 X132.134 Y101.18 E1.13455
G1 X133.11 Y101.041 E1.16734
G1 X133.365 Y101.01 E1.17589
G1 X133.527 Y100.994 E1.1813
G1 X134.002 Y100.966 E1.19713
G1 X134.42 Y100.958 E1.21103
G1 X135.112 Y100.985 E1.23407
G1 X135.797 Y101.091 E1.25712
G1 X136.356 Y101.24 E1.27636
G1 X136.695 Y101.348 E1.2882
G1 X137.342 Y101.596 E1.31124
G1 X137.956 Y101.917 E1.33429
G1 X138.528 Y102.306 E1.35729
G1 X139.052 Y102.759 E1.38033
G1 X139.521 Y103.269 E1.40338
G1 X139.964 Y103.888 E1.42869
G1 X140.072 Y104.061 E1.43548
G1 X140.404 Y104.668 E1.45849
G1 X140.664 Y105.31 E1.48153
G1 X140.848 Y105.978 E1.50457
G1 X140.974 Y106.936 E1.53671
G1 X140.98 Y107.055 E1.54067
G1 X140.97 Y107.822 E1.56618
G1 X140.926 Y108.373 E1.58457
G1 X140.769 Y110.065 E1.64109
G1 X140.596 Y112.762 E1.73097
G1 X140.502 Y115.389 E1.8184
G1 X140.483 Y118.056 E1.90711
G1 X140.538 Y120.72 E1.99573
G1 X140.669 Y123.368 E2.08392
G1 X140.895 Y126.255 E2.18023
G1 X140.975 Y127.121 E2.20916
G1 X140.999 Y127.813 E2.23219
G1 X140.943 Y128.503 E2.25521
G1 X140.773 Y129.314 E2.28277
G1 X140.721 Y129.497 E2.2891
G1 X140.493 Y130.151 E2.31214
G1 X140.192 Y130.775 E2.33518
G1 X139.821 Y131.359 E2.35819
G1 X139.385 Y131.897 E2.38122
G1 X138.89 Y132.382 E2.40427
G1 X138.202 Y132.898 E2.43288
G1 X137.999 Y133.029 E2.44091
G1 X137.397 Y133.371 E2.46394
G1 X136.759 Y133.64 E2.48697
G1 X136.094 Y133.835 E2.51002
G1 X135.645 Y133.92 E2.52522
G1 X135.368 Y133.962 E2.53454
G1 X134.693 Y134.026 E2.55709
G1 X134.506 Y134.033 E2.56331
G1 X133.621 Y134.001 E2.59277
G1 X133.278 Y133.963 E2.60424
G1 X133.106 Y133.941 E2.61001
G1 X132.045 Y133.792 E2.64565
G1 X129.386 Y133.458 E2.73478
G1 X126.729 Y133.199 E2.82357
G1 X124.068 Y133.016 E2.91228
G1 X121.441 Y132.91 E2.99973
G1 X118.741 Y132.878 E3.08954
G1 X116.111 Y132.921 E3.17702
G1 X113.449 Y133.039 E3.26565
G1 X110.784 Y133.234 E3.35453
G1 X108.152 Y133.5 E3.44251
G1 X105.364 Y133.865 E3.53603
G1 X104.746 Y133.957 E3.55681
G1 X104.392 Y134.001 E3.56868
G1 X104.318 Y134.008 E3.57115
G1 X103.869 Y134.034 E3.58611
G1 X103.454 Y134.042 E3.59992
G1 X102.762 Y134.015 E3.62295
G1 X102.127 Y133.92 E3.6443
G1 X101.928 Y133.879 E3.65106
G1 X101.259 Y133.7 E3.6741
G1 X100.615 Y133.445 E3.69713
G1 X99.896 Y133.05 E3.72442
G1 X99.703 Y132.926 E3.73205
G1 X99.143 Y132.519 E3.75507
G1 X98.633 Y132.049 E3.77814
G1 X98.181 Y131.525 E3.80116
G1 X97.793 Y130.951 E3.8242
G1 X97.473 Y130.337 E3.84723
G1 X97.226 Y129.69 E3.87026
G1 X97.127 Y129.339 E3.88239
G1 X97.067 Y129.1 E3.89059
G1 X96.937 Y128.42 E3.91362
G1 X96.887 Y127.729 E3.93666
G1 X96.916 Y127.038 E3.95966
G1 X96.932 Y126.879 E3.96498
G1 X97.158 Y124.237 E4.05317
G1 X97.309 Y121.601 E4.14099
G1 X97.386 Y118.906 E4.23066
G1 X97.388 Y116.276 E4.31814
G1 X97.313 Y113.608 E4.40691
G1 X97.163 Y110.921 E4.49642
G1 X96.966 Y108.551 E4.57552
G1 X96.9 Y107.861 E4.59857
G1 X96.874 Y107.169 E4.6216
G1 X96.928 Y106.479 E4.64462
G1 X97.061 Y105.799 E4.66767
G1 X97.272 Y105.139 E4.69071
G1 X97.696 Y104.258 E4.72323
G1 X97.819 Y104.048 E4.73133
G1 X98.143 Y103.561 E4.75078
G0 F810 X98.203 Y103.471
G0 X98.65 Y102.943
G0 F6000 X98.972 Y103.186
G1 F900 X99.465 Y102.734 E4.77303
G1 X100.008 Y102.344 E4.79526
G1 X100.701 Y101.972 E4.82142
G1 X100.839 Y101.91 E4.82646
G1 X101.465 Y101.673 E4.84872
G1 X102.332 Y101.476 E4.87829
G1 X102.65 Y101.43 E4.88898
G1 X103.317 Y101.374 E4.91124
G1 X103.772 Y101.381 E4.92637
G1 X104.104 Y101.4 E4.93744
G1 X104.561 Y101.445 E4.95271
G1 X105.726 Y101.608 E4.99183
G1 X108.378 Y101.942 E5.08074
G1 X111.044 Y102.2 E5.16982
G1 X113.732 Y102.385 E5.25944
G1 X116.349 Y102.491 E5.34655
G1 X119.071 Y102.523 E5.43709
G1 X121.724 Y102.48 E5.52534
G1 X124.372 Y102.362 E5.6135
G1 X127.053 Y102.166 E5.70291
G1 X129.696 Y101.898 E5.79127
G1 X132.163 Y101.58 E5.874
G1 X133.166 Y101.437 E5.9077
G1 X133.405 Y101.408 E5.9157
G1 X133.567 Y101.392 E5.92112
G1 X134.01 Y101.366 E5.93588
G1 X134.428 Y101.358 E5.94978
G1 X135.096 Y101.385 E5.97202
G1 X135.757 Y101.492 E5.99429
G1 X136.235 Y101.621 E6.01076
G1 X136.574 Y101.729 E6.02259
G1 X137.198 Y101.97 E6.04484
G1 X137.789 Y102.284 E6.0671
G1 X138.339 Y102.665 E6.08935
G1 X138.838 Y103.11 E6.11159
G1 X139.282 Y103.611 E6.13385
G1 X139.624 Y104.099 E6.15367
G1 X139.732 Y104.272 E6.16046
G1 X140.052 Y104.86 E6.18272
G1 X140.299 Y105.482 E6.20498
G1 X140.471 Y106.128 E6.22722
G1 X140.575 Y106.956 E6.25497
G1 X140.581 Y107.075 E6.25894
G1 X140.571 Y107.791 E6.28275
G1 X140.528 Y108.336 E6.30094
G1 X140.37 Y110.038 E6.35779
G1 X140.196 Y112.756 E6.44837
G1 X140.103 Y115.372 E6.53544
G1 X140.083 Y118.061 E6.62488
G1 X140.139 Y120.748 E6.71427
G1 X140.268 Y123.384 E6.80204
G1 X140.494 Y126.264 E6.89813
G1 X140.577 Y127.157 E6.92796
G1 X140.599 Y127.826 E6.95022
G1 X140.541 Y128.493 E6.97249
G1 X140.388 Y129.205 E6.99671
G1 X140.336 Y129.388 E7.00304
G1 X140.115 Y130.019 E7.02528
G1 X139.82 Y130.62 E7.04754
G1 X139.456 Y131.181 E7.06979
G1 X139.027 Y131.695 E7.09205
G1 X138.54 Y132.154 E7.11431
G1 X137.985 Y132.562 E7.13722
G1 X137.782 Y132.693 E7.14526
G1 X137.2 Y133.022 E7.16749
G1 X136.582 Y133.279 E7.18976
G1 X135.938 Y133.46 E7.212
G1 X135.586 Y133.525 E7.22391
G1 X135.309 Y133.567 E7.23323
G1 X134.678 Y133.626 E7.25431
G1 X134.491 Y133.633 E7.26053
G1 X133.665 Y133.603 E7.28802
G1 X133.322 Y133.565 E7.2995
G1 X133.161 Y133.545 E7.3049
G1 X132.07 Y133.392 E7.34154
G1 X129.442 Y133.061 E7.42964
G1 X126.756 Y132.8 E7.51939
G1 X124.078 Y132.616 E7.60867
G1 X121.462 Y132.51 E7.69575
G1 X118.739 Y132.478 E7.78633
G1 X116.086 Y132.521 E7.87458
G1 X113.438 Y132.639 E7.96274
G1 X110.748 Y132.835 E8.05245
G1 X108.13 Y133.101 E8.13997
G1 X105.255 Y133.476 E8.2364
G1 X104.956 Y133.52 E8.24645
G1 X104.685 Y133.562 E8.25558
G1 X104.354 Y133.603 E8.26667
G1 X104.28 Y133.61 E8.26914
G1 X103.861 Y133.634 E8.2831
G1 X103.446 Y133.642 E8.2969
G1 X102.777 Y133.615 E8.31917
G1 X102.208 Y133.528 E8.33832
G1 X102.009 Y133.487 E8.34508
G1 X101.363 Y133.313 E8.36733
G1 X100.742 Y133.063 E8.38959
G1 X100.112 Y132.713 E8.41356
G1 X99.919 Y132.589 E8.42119
G1 X99.379 Y132.195 E8.44343
G1 X98.889 Y131.739 E8.46569
G1 X98.458 Y131.227 E8.48795
G1 X98.091 Y130.668 E8.51019
G1 X97.792 Y130.069 E8.53246
G1 X97.515 Y129.242 E8.56147
G1 X97.455 Y129.003 E8.56966
G1 X97.331 Y128.345 E8.59193
G1 X97.286 Y127.678 E8.61417
G1 X97.314 Y127.078 E8.63414
G1 X97.325 Y126.973 E8.63766
G1 X97.557 Y124.258 E8.72829
G1 X97.709 Y121.6 E8.81684
G1 X97.786 Y118.919 E8.90604
G1 X97.788 Y116.264 E8.99435
G1 X97.713 Y113.576 E9.08379
G1 X97.565 Y110.939 E9.17163
G1 X97.364 Y108.513 E9.2526
G1 X97.298 Y107.823 E9.27565
G1 X97.275 Y107.155 E9.29788
G1 X97.331 Y106.488 E9.32015
G1 X97.466 Y105.833 E9.34239
G1 X97.678 Y105.198 E9.36466
G1 X98.041 Y104.46 E9.39201
G1 X98.164 Y104.25 E9.4001
G1 X98.464 Y103.803 E9.41801
G0 F810 X98.536 Y103.694
G0 X98.972 Y103.186
G0 F6000 X99.292 Y103.431
G1 F900 X99.772 Y103 E9.43947
G1 X100.301 Y102.633 E9.46088
G1 X100.865 Y102.337 E9.48207
G1 X101.003 Y102.275 E9.4871
G1 X101.606 Y102.047 E9.50854
G1 X102.39 Y101.872 E9.53526
G1 X102.708 Y101.826 E9.54594
G1 X103.35 Y101.773 E9.56737
G1 X103.749 Y101.78 E9.58064
G1 X104.081 Y101.799 E9.5917
G1 X104.505 Y101.841 E9.60587
G1 X105.683 Y102.006 E9.64544
G1 X108.323 Y102.338 E9.73393
G1 X111.015 Y102.599 E9.82389
G1 X113.689 Y102.783 E9.91304
G1 X116.363 Y102.891 E10.00205
G1 X119.073 Y102.923 E10.09219
G1 X121.712 Y102.88 E10.17998
G1 X124.42 Y102.76 E10.27013
G1 X127.086 Y102.565 E10.35904
G1 X129.752 Y102.294 E10.44817
G1 X132.192 Y101.98 E10.52999
G1 X133.222 Y101.833 E10.5646
G1 X133.444 Y101.806 E10.57204
G1 X133.606 Y101.79 E10.57745
G1 X134.017 Y101.766 E10.59114
G1 X134.435 Y101.758 E10.60505
G1 X135.08 Y101.786 E10.62652
G1 X135.715 Y101.893 E10.64794
G1 X136.113 Y102.002 E10.66166
G1 X136.452 Y102.11 E10.6735
G1 X137.053 Y102.344 E10.69495
G1 X137.621 Y102.65 E10.71641
G1 X138.146 Y103.024 E10.73785
G1 X138.621 Y103.459 E10.75927
G1 X139.038 Y103.951 E10.78072
G1 X139.285 Y104.311 E10.79524
G1 X139.393 Y104.484 E10.80203
G1 X139.7 Y105.051 E10.82347
G1 X139.934 Y105.652 E10.84492
G1 X140.092 Y106.277 E10.86636
G1 X140.175 Y106.976 E10.88978
G1 X140.181 Y107.095 E10.89374
G1 X140.172 Y107.76 E10.91586
G1 X140.13 Y108.3 E10.93387
G1 X139.968 Y110.048 E10.99226
G1 X139.799 Y112.682 E11.08005
G1 X139.702 Y115.391 E11.17021
G1 X139.683 Y118.066 E11.25918
G1 X139.738 Y120.742 E11.3482
G1 X139.871 Y123.433 E11.43782
G1 X140.091 Y126.244 E11.5316
G1 X140.179 Y127.194 E11.56333
G1 X140.198 Y127.839 E11.58479
G1 X140.138 Y128.481 E11.60624
G1 X140.003 Y129.095 E11.62715
G1 X139.951 Y129.278 E11.63347
G1 X139.737 Y129.886 E11.65491
G1 X139.449 Y130.463 E11.67636
G1 X139.092 Y131 E11.69781
G1 X138.671 Y131.488 E11.71924
G1 X138.193 Y131.921 E11.7407
G1 X137.769 Y132.226 E11.75807
G1 X137.566 Y132.357 E11.7661
G1 X137.003 Y132.673 E11.78758
G1 X136.406 Y132.916 E11.80902
G1 X135.526 Y133.129 E11.83913
G1 X135.249 Y133.171 E11.84845
G1 X134.664 Y133.226 E11.86799
G1 X134.477 Y133.233 E11.87421
G1 X133.709 Y133.205 E11.89978
G1 X133.366 Y133.167 E11.91125
G1 X133.217 Y133.149 E11.91625
G1 X132.126 Y132.996 E11.95289
G1 X129.494 Y132.665 E12.04112
G1 X126.789 Y132.401 E12.13151
G1 X124.121 Y132.218 E12.22046
G1 X121.448 Y132.11 E12.30944
G1 X118.738 Y132.078 E12.39958
G1 X116.098 Y132.121 E12.4874
G1 X113.39 Y132.241 E12.57755
G1 X110.75 Y132.434 E12.66559
G1 X108.037 Y132.709 E12.75629
G1 X105.274 Y133.07 E12.84897
G1 X104.849 Y133.132 E12.86326
G1 X104.623 Y133.167 E12.87086
G1 X104.317 Y133.205 E12.88112
G1 X104.243 Y133.212 E12.88359
G1 X103.853 Y133.234 E12.89658
G1 X103.438 Y133.242 E12.91039
G1 X102.794 Y133.214 E12.93183
G1 X102.289 Y133.136 E12.94882
G1 X102.09 Y133.095 E12.95558
G1 X101.468 Y132.926 E12.97702
G1 X100.871 Y132.681 E12.99848
G1 X100.328 Y132.377 E13.01918
G1 X100.135 Y132.253 E13.02681
G1 X99.615 Y131.871 E13.04827
G1 X99.147 Y131.429 E13.06968
G1 X98.737 Y130.931 E13.09114
G1 X98.391 Y130.387 E13.11258
G1 X98.116 Y129.804 E13.13402
G1 X97.903 Y129.144 E13.15708
G1 X97.843 Y128.905 E13.16528
G1 X97.725 Y128.271 E13.18673
G1 X97.686 Y127.628 E13.20816
G1 X97.712 Y127.118 E13.22514
G1 X97.728 Y126.959 E13.23046
G1 X97.957 Y124.279 E13.31992
G1 X98.109 Y121.635 E13.408
G1 X98.186 Y118.93 E13.49801
G1 X98.188 Y116.254 E13.58701
G1 X98.113 Y113.576 E13.67612
G1 X97.962 Y110.882 E13.76586
G1 X97.757 Y108.41 E13.84836
G1 X97.697 Y107.785 E13.86924
G1 X97.675 Y107.141 E13.89068
G1 X97.734 Y106.499 E13.91212
G1 X97.871 Y105.869 E13.93356
G1 X98.085 Y105.261 E13.955
G1 X98.386 Y104.662 E13.9773
G1 X98.509 Y104.452 E13.98539
G1 X98.782 Y104.046 E14.00167
G0 F810 X98.869 Y103.917
G0 X99.292 Y103.431
G1 F1500 E7.00167
G1 F300 Z0.55
;MESH:SmartTemperatureTower_PLA_180-225.stl
G0 F6000 X110.328 Y117.921 Z0.55
;TYPE:WALL-OUTER
G1 F300 Z0.2
G1 F1500 E14.00167
G1 F900 X110.32 Y117.884 E14.00292
G1 X110.419 Y117.884 E14.00622
G1 X110.416 Y117.897 E14.00666
G1 X110.394 Y117.957 E14.00879
G1 X110.385 Y117.963 E14.00915
G1 X110.369 Y117.965 E14.00968
G1 X110.344 Y117.962 E14.01052
G1 X110.341 Y117.959 E14.01066
G1 X110.334 Y117.94 E14.01133
G0 F810 X110.328 Y117.921
G0 F6000 X110.32 Y117.884
G0 X110.419 Y117.884
G0 X110.416 Y117.897
G0 X110.394 Y117.957
G0 X110.385 Y117.963
G0 X110.369 Y117.965
G0 X110.344 Y117.962
G0 X110.341 Y117.959
G0 X110.328 Y117.921
G0 X110.32 Y117.884
G0 X110.376 Y117.884
G1 F1500 E7.01133
G1 F300 Z0.55
G0 F6000 X112.918 Y117.962 Z0.55
G1 F300 Z0.2
G1 F1500 E14.01133
G1 F900 X112.915 Y117.959 E14.01148
G1 X112.902 Y117.921 E14.01281
G1 X112.894 Y117.884 E14.01407
G1 X112.993 Y117.884 E14.01736
G1 X112.99 Y117.897 E14.01781
G1 X112.967 Y117.958 E14.01998
G1 X112.961 Y117.962 E14.02022
G1 X112.943 Y117.965 E14.02082
G1 X112.94 Y117.964 E14.02093
G0 F810 X112.918 Y117.962
G0 F6000 X112.915 Y117.959
G0 X112.902 Y117.921
G0 X112.894 Y117.884
G0 X112.993 Y117.884
G0 X112.99 Y117.897
G0 X112.967 Y117.958
G0 X112.961 Y117.962
G0 X112.943 Y117.965
G0 X112.918 Y117.962
G0 X112.915 Y117.959
G0 X112.902 Y117.921
G0 X112.894 Y117.884
G0 X112.905 Y117.884
G1 F1500 E7.02093
G1 F300 Z0.55
G0 F6000 X117.128 Y117.861 Z0.55
G1 F300 Z0.2
G1 F1500 E14.02093
G1 F900 X117.114 Y117.817 E14.02246
G1 X117.101 Y117.767 E14.02418
G1 X117.096 Y117.738 E14.02516
G1 X117.09 Y117.651 E14.02806
G1 X117.09 Y117.18 E14.04373
G1 X117.092 Y117.155 E14.04456
G1 X117.109 Y117.061 E14.04774
G1 X117.125 Y117.006 E14.04964
G1 X117.131 Y116.994 E14.05009
G1 X117.164 Y116.987 E14.05121
G1 X117.197 Y116.989 E14.05231
G1 X117.207 Y116.999 E14.05278
G1 X117.223 Y117.048 E14.0545
G1 X117.236 Y117.1 E14.05628
G1 X117.24 Y117.123 E14.05705
G1 X117.247 Y117.222 E14.06036
G1 X117.246 Y117.697 E14.07615
G1 X117.244 Y117.72 E14.07692
G1 X117.236 Y117.767 E14.07851
G1 X117.227 Y117.803 E14.07974
G1 X117.223 Y117.813 E14.0801
G0 F810 X117.205 Y117.867
G0 X117.195 Y117.871
G0 X117.167 Y117.875
G0 X117.137 Y117.871
G0 X117.128 Y117.861
G0 F6000 X117.114 Y117.817
G0 X117.101 Y117.767
G0 X117.096 Y117.738
G0 X117.09 Y117.651
G0 X117.09 Y117.464
G1 F1500 E7.0801
G1 F300 Z0.55
G0 F6000 X122.642 Y117.04 Z0.55
G1 F300 Z0.2
G1 F1500 E14.0801
G1 F900 X122.64 Y117.058 E14.0807
G1 X122.612 Y117.064 E14.08165
G1 X122.597 Y117.064 E14.08215
G1 X122.597 Y116.961 E14.08558
G1 X122.62 Y116.953 E14.08639
G1 X122.641 Y116.949 E14.0871
G1 X122.643 Y116.999 E14.08876
G1 X122.642 Y117.02 E14.08946
G0 F810 X122.642 Y117.04
G0 F6000 X122.64 Y117.058
G0 X122.612 Y117.064
G0 X122.597 Y117.064
G0 X122.597 Y116.961
G0 X122.62 Y116.953
G0 X122.641 Y116.949
G0 X122.643 Y116.999
G0 X122.642 Y117.04
G0 X122.64 Y117.058
G0 X122.612 Y117.064
G0 X122.597 Y117.064
G0 X122.597 Y117.025
G1 F1500 E7.08946
G1 F300 Z0.55
G0 F6000 X125.27 Y117.04 Z0.55
G1 F300 Z0.2
G1 F1500 E14.08946
