;FLAVOR:Marlin
;TIME:2199
;Filament used: 1.69347m
;Layer height: 0.2
;MINX:94
;MINY:104
;MINZ:0.3
;MAXX:126
;MAXY:136
;MAXZ:19.9
;Generated with Cura_SteamEngine 4.4.1
M140 S60
M105
M190 S60
M104 S205
M105
M109 S205
M82 ;absolute extrusion mode
M201 X500.00 Y500.00 Z100.00 E5000.00 ;Setup machine max acceleration
M203 X500.00 Y500.00 Z10.00 E75.00 ;Setup machine max feedrate
M204 P500.00 R1000.00 T500.00 ;Setup Print/Retract/Travel acceleration
M205 X8.00 Y8.00 Z0.40 E5.00 ;Setup Jerk
M220 S100 ;Reset Feedrate
M221 S100 ;Reset Flowrate

G21 ; (metric values)
G90 ; (absolute positioning)
M82 ; (set extruder to absolute mode)
G28 ; (home all axis)
G29 ; (Auto Level)

G92 E0 ;Reset Extruder
G1 Z2.0 F3000 ;Move Z Axis up
G1 X1.1 Y50 Z0.28 F5000.0 ;Move to start position
G1 X1.1 Y200.0 Z0.28 F1500.0 E15 ;Draw the first line
G1 X1.4 Y200.0 Z0.28 F5000.0 ;Move to side a little
G1 X1.4 Y100 Z0.28 F1500.0 E30 ;Draw the second line
G92 E0 ;Reset Extruder
G1 Z2.0 F3000 ;Move Z Axis up
G92 E0
G92 E0
G1 F3000 E-6
;LAYER_COUNT:99
;LAYER:0
M107
G1 F300 Z0.65
G0 F6000 X95.924 Y105.614 Z0.65
;TYPE:SKIRT
G1 F300 Z0.3
G1 F3000 E0
G1 F1200 X96.458 Y105.173 E0.03455
G1 X97.039 Y104.796 E0.06911
G1 X97.659 Y104.488 E0.10364
G1 X98.311 Y104.254 E0.1382
G1 X98.985 Y104.097 E0.17273
G1 X99.841 Y104.011 E0.21565
G1 X100.162 Y104.002 E0.23167
G1 X100.33 Y104 E0.24005
G1 X119.293 Y104 E1.18612
G1 X119.379 Y104.001 E1.19041
G1 X120.077 Y104.011 E1.22524
G1 X120.768 Y104.06 E1.2598
G1 X121.448 Y104.19 E1.29434
G1 X122.109 Y104.396 E1.32888
G1 X122.742 Y104.678 E1.36345
G1 X123.338 Y105.03 E1.39799
G1 X123.889 Y105.449 E1.43252
G1 X124.389 Y105.929 E1.4671
G1 X124.83 Y106.463 E1.50165
G1 X125.207 Y107.044 E1.53621
G1 X125.514 Y107.665 E1.57077
G1 X125.747 Y108.317 E1.60531
G1 X125.904 Y108.991 E1.63984
G1 X125.989 Y109.841 E1.68246
G1 X125.998 Y110.161 E1.69843
G1 X126 Y110.33 E1.70686
G1 X126 Y129.338 E2.65517
G1 X125.991 Y130.065 E2.69145
G1 X125.942 Y130.756 E2.72601
G1 X125.814 Y131.437 E2.76058
G1 X125.609 Y132.098 E2.7951
G1 X125.329 Y132.731 E2.82964
G1 X124.977 Y133.328 E2.86421
G1 X124.56 Y133.881 E2.89877
G1 X124.081 Y134.381 E2.93331
G1 X123.548 Y134.823 E2.96786
G1 X122.967 Y135.201 E3.00244
G1 X122.347 Y135.509 E3.03698
G1 X121.696 Y135.744 E3.07151
G1 X121.021 Y135.902 E3.10609
G1 X120.159 Y135.989 E3.14932
G1 X119.838 Y135.998 E3.16534
G1 X119.67 Y136 E3.17372
G1 X100.63 Y136 E4.12363
G1 X99.932 Y135.991 E4.15845
G1 X99.241 Y135.942 E4.19301
G1 X98.56 Y135.813 E4.22759
G1 X97.899 Y135.608 E4.26212
G1 X97.266 Y135.327 E4.29667
G1 X96.669 Y134.976 E4.33122
G1 X96.117 Y134.558 E4.36577
G1 X95.617 Y134.079 E4.40031
G1 X95.175 Y133.545 E4.4349
G1 X94.798 Y132.965 E4.46941
G1 X94.49 Y132.344 E4.50399
G1 X94.255 Y131.693 E4.53852
G1 X94.098 Y131.018 E4.5731
G1 X94.011 Y130.153 E4.61647
G1 X94.002 Y129.82 E4.63309
G1 X94 Y129.658 E4.64117
G1 X94 Y110.674 E5.58829
G1 X94.001 Y110.593 E5.59233
G1 X94.01 Y109.928 E5.62551
G1 X94.059 Y109.237 E5.66007
G1 X94.187 Y108.557 E5.69459
G1 X94.394 Y107.895 E5.7292
G1 X94.675 Y107.262 E5.76375
G1 X95.027 Y106.666 E5.79828
G1 X95.445 Y106.114 E5.83283
G1 X95.556 Y105.998 E5.84084
G0 F1080 X95.924 Y105.614
G0 F6000 X96.314 Y105.801
G1 F1200 X96.843 Y105.39 E5.87426
G1 X97.416 Y105.045 E5.90763
G1 X98.027 Y104.772 E5.94101
G1 X98.665 Y104.573 E5.97435
G1 X99.323 Y104.451 E6.00774
G1 X99.852 Y104.411 E6.03421
G1 X100.173 Y104.402 E6.05023
G1 X100.33 Y104.4 E6.05806
G1 X119.293 Y104.4 E7.00413
G1 X119.373 Y104.401 E7.00812
G1 X120.071 Y104.411 E7.04295
G1 X120.738 Y104.46 E7.07632
G1 X121.395 Y104.589 E7.10972
G1 X122.031 Y104.795 E7.14307
G1 X122.639 Y105.076 E7.17649
G1 X123.208 Y105.426 E7.20982
G1 X123.732 Y105.843 E7.24323
G1 X124.202 Y106.319 E7.2766
G1 X124.612 Y106.847 E7.30995
G1 X124.957 Y107.421 E7.34336
G1 X125.23 Y108.032 E7.37675
G1 X125.428 Y108.671 E7.41013
G1 X125.549 Y109.329 E7.4435
G1 X125.589 Y109.853 E7.46972
G1 X125.598 Y110.173 E7.48569
G1 X125.6 Y110.33 E7.49353
G1 X125.6 Y129.333 E8.44159
G1 X125.591 Y130.06 E8.47786
G1 X125.542 Y130.728 E8.51128
G1 X125.415 Y131.384 E8.54462
G1 X125.21 Y132.021 E8.578
G1 X124.931 Y132.629 E8.61138
G1 X124.581 Y133.199 E8.64475
G1 X124.165 Y133.724 E8.67816
G1 X123.69 Y134.195 E8.71154
G1 X123.163 Y134.606 E8.74488
G1 X122.59 Y134.952 E8.77827
G1 X121.98 Y135.226 E8.81164
G1 X121.341 Y135.426 E8.84504
G1 X120.683 Y135.548 E8.87843
G1 X120.148 Y135.589 E8.9052
G1 X119.827 Y135.598 E8.92122
G1 X119.67 Y135.6 E8.92905
G1 X100.635 Y135.6 E9.87871
G1 X99.937 Y135.591 E9.91354
G1 X99.27 Y135.542 E9.94691
G1 X98.613 Y135.414 E9.9803
G1 X97.976 Y135.209 E10.01369
G1 X97.368 Y134.929 E10.04708
G1 X96.798 Y134.579 E10.08045
G1 X96.274 Y134.163 E10.11383
G1 X95.803 Y133.688 E10.1472
G1 X95.392 Y133.16 E10.18059
G1 X95.047 Y132.587 E10.21395
G1 X94.773 Y131.977 E10.24732
G1 X94.573 Y131.338 E10.28072
G1 X94.452 Y130.68 E10.3141
G1 X94.411 Y130.142 E10.34102
G1 X94.402 Y129.809 E10.35764
G1 X94.4 Y129.658 E10.36517
G1 X94.4 Y110.674 E11.31229
G1 X94.401 Y110.598 E11.31608
G1 X94.41 Y109.933 E11.34926
G1 X94.459 Y109.266 E11.38263
G1 X94.587 Y108.609 E11.41602
G1 X94.792 Y107.973 E11.44936
G1 X95.072 Y107.365 E11.48275
G1 X95.423 Y106.795 E11.51615
G1 X95.839 Y106.271 E11.54953
G1 X95.936 Y106.175 E11.55634
G0 F1080 X96.314 Y105.801
G0 F6000 X96.703 Y105.995
G1 F1200 X97.226 Y105.617 E11.58853
G1 X97.79 Y105.306 E11.62066
G1 X98.389 Y105.068 E11.65282
G1 X99.013 Y104.905 E11.685
G1 X99.863 Y104.811 E11.72766
G1 X100.184 Y104.802 E11.74368
G1 X100.33 Y104.8 E11.75097
G1 X119.293 Y104.8 E12.69704
G1 X119.367 Y104.801 E12.70073
G1 X120.065 Y104.811 E12.73555
G1 X120.708 Y104.86 E12.76773
G1 X121.34 Y104.988 E12.7999
G1 X121.951 Y105.194 E12.83207
G1 X122.532 Y105.473 E12.86422
G1 X123.074 Y105.822 E12.89638
G1 X123.568 Y106.236 E12.92854
G1 X124.008 Y106.708 E12.96073
G1 X124.386 Y107.23 E12.99289
G1 X124.696 Y107.795 E13.02504
G1 X124.934 Y108.394 E13.0572
G1 X125.096 Y109.018 E13.08936
G1 X125.189 Y109.864 E13.13182
G1 X125.198 Y110.184 E13.14779
G1 X125.2 Y110.33 E13.15508
G1 X125.2 Y129.328 E14.10289
G1 X125.191 Y130.055 E14.13916
G1 X125.143 Y130.698 E14.17133
G1 X125.016 Y131.33 E14.20349
G1 X124.811 Y131.942 E14.23569
G1 X124.533 Y132.523 E14.26783
G1 X124.185 Y133.066 E14.3
G1 X123.772 Y133.561 E14.33217
G1 X123.301 Y134.001 E14.36432
G1 X122.779 Y134.38 E14.3965
G1 X122.215 Y134.691 E14.42864
G1 X121.616 Y134.93 E14.46081
G1 X120.993 Y135.094 E14.49295
G1 X120.137 Y135.189 E14.53592
G1 X119.816 Y135.198 E14.55194
G1 X119.67 Y135.2 E14.55923
G1 X100.64 Y135.2 E15.50864
G1 X99.942 Y135.191 E15.54346
G1 X99.299 Y135.142 E15.57564
G1 X98.667 Y135.015 E15.6078
G1 X98.056 Y134.81 E15.63995
G1 X97.475 Y134.532 E15.67208
G1 X96.932 Y134.183 E15.70429
G1 X96.437 Y133.77 E15.73645
G1 X95.997 Y133.299 E15.76861
G1 X95.618 Y132.777 E15.80079
G1 X95.307 Y132.213 E15.83292
G1 X95.069 Y131.614 E15.86508
G1 X94.906 Y130.99 E15.89725
G1 X94.811 Y130.131 E15.94037
G1 X94.802 Y129.798 E15.95699
G1 X94.8 Y129.658 E15.96398
G1 X94.8 Y110.604 E16.91458
G1 X94.809 Y109.939 E16.94776
G1 X94.858 Y109.296 E16.97994
G1 X94.986 Y108.664 E17.01211
G1 X95.191 Y108.053 E17.04426
G1 X95.47 Y107.472 E17.07642
G1 X95.819 Y106.929 E17.10862
G1 X96.232 Y106.435 E17.14074
G1 X96.314 Y106.358 E17.14635
G0 F1080 X96.703 Y105.995
G1 F3000 E11.14635
G1 F300 Z0.65
;MESH:xyzCalibration_cube.stl
G0 F6000 X119 Y129 Z0.65
;TYPE:WALL-INNER
G1 F300 Z0.3
G1 F3000 E17.14635
G1 F1200 X101 Y129 E18.04438
G1 X101 Y111 E18.9424
G1 X119 Y111 E19.84043
G1 X119 Y128.468 E20.71191
G0 F1080 X119 Y129
G0 F6000 X119.4 Y129.4
G1 F1200 X100.6 Y129.4 E21.64984
G1 X100.6 Y110.6 E22.58778
G1 X119.4 Y110.6 E23.52571
G1 X119.4 Y128.868 E24.43711
G0 F1080 X119.4 Y129.4
G0 F6000 X119.8 Y129.8
;TYPE:WALL-OUTER
G1 F1200 X100.2 Y129.8 E25.41496
G1 X100.2 Y110.2 E26.39281
G1 X119.8 Y110.2 E27.37065
G1 X119.8 Y129.268 E28.32196
G0 F1080 X119.8 Y129.8
G0 F6000 X119.4 Y129.8
G0 X119.36 Y129.36
G0 X119.3 Y129.36
G0 X118.61 Y128.61
;TYPE:SKIN
G1 F1200 X101.39 Y128.61 E29.18107
G1 X101.39 Y111.39 E30.04018
G1 X118.61 Y111.39 E30.89929
G1 X118.61 Y128.078 E31.73186
G0 F1080 X118.61 Y128.61
G0 F6000 X110.25 Y120.25
G1 F1200 X109.75 Y120.25 E31.7568
G1 X109.75 Y119.75 E31.78175
G1 X110.25 Y119.75 E31.80669
G1 X110.25 Y120.14 E31.82615
G0 F1080 X110.25 Y120.25
G0 F6000 X110.65 Y120.65
G1 F1200 X109.35 Y120.65 E31.891
G1 X109.35 Y119.35 E31.95586
G1 X110.65 Y119.35 E32.02072
G1 X110.65 Y120.362 E32.07121
G0 F1080 X110.65 Y120.65
G0 F6000 X111.05 Y121.05
G1 F1200 X108.95 Y121.05 E32.17598
G1 X108.95 Y118.95 E32.28075
G1 X111.05 Y118.95 E32.38552
G1 X111.05 Y120.585 E32.46709
G0 F1080 X111.05 Y121.05
G0 F6000 X111.45 Y121.45
G1 F1200 X108.55 Y121.45 E32.61177
G1 X108.55 Y118.55 E32.75645
G1 X111.45 Y118.55 E32.90113
G1 X111.45 Y120.918 E33.01927
G0 F1080 X111.45 Y121.45
G0 F6000 X111.85 Y121.85
G1 F1200 X108.15 Y121.85 E33.20387
G1 X108.15 Y118.15 E33.38846
G1 X111.85 Y118.15 E33.57305
G1 X111.85 Y121.318 E33.73111
G0 F1080 X111.85 Y121.85
G0 F6000 X112.25 Y122.25
G1 F1200 X107.75 Y122.25 E33.95561
G1 X107.75 Y117.75 E34.18012
G1 X112.25 Y117.75 E34.40462
G1 X112.25 Y121.718 E34.60259
G0 F1080 X112.25 Y122.25
G0 F6000 X112.65 Y122.65
G1 F1200 X107.35 Y122.65 E34.86701
G1 X107.35 Y117.35 E35.13142
G1 X112.65 Y117.35 E35.39584
G1 X112.65 Y122.118 E35.63372
G0 F1080 X112.65 Y122.65
G0 F6000 X113.05 Y123.05
G1 F1200 X106.95 Y123.05 E35.93805
G1 X106.95 Y116.95 E36.24238
G1 X113.05 Y116.95 E36.54671
G1 X113.05 Y122.518 E36.8245
G0 F1080 X113.05 Y123.05
G0 F6000 X113.45 Y123.45
G1 F1200 X106.55 Y123.45 E37.16874
G1 X106.55 Y116.55 E37.51298
G1 X113.45 Y116.55 E37.85722
G1 X113.45 Y122.918 E38.17493
G0 F1080 X113.45 Y123.45
G0 F6000 X113.85 Y123.85
G1 F1200 X106.15 Y123.85 E38.55908
G1 X106.15 Y116.15 E38.94323
G1 X113.85 Y116.15 E39.32739
G1 X113.85 Y123.318 E39.685
G0 F1080 X113.85 Y123.85
G0 F6000 X114.25 Y124.25
G1 F1200 X105.75 Y124.25 E40.10907
G1 X105.75 Y115.75 E40.53314
G1 X114.25 Y115.75 E40.9572
G1 X114.25 Y123.718 E41.35473
G0 F1080 X114.25 Y124.25
G0 F6000 X114.65 Y124.65
G1 F1200 X105.35 Y124.65 E41.81871
G1 X105.35 Y115.35 E42.28268
G1 X114.65 Y115.35 E42.74666
G1 X114.65 Y124.118 E43.1841
G0 F1080 X114.65 Y124.65
G0 F6000 X115.05 Y125.05
G1 F1200 X104.95 Y125.05 E43.68799
G1 X104.95 Y114.95 E44.19188
G1 X115.05 Y114.95 E44.69577
G1 X115.05 Y124.518 E45.17312
G0 F1080 X115.05 Y125.05
G0 F6000 X115.45 Y125.45
G1 F1200 X104.55 Y125.45 E45.71693
G1 X104.55 Y114.55 E46.26073
G1 X115.45 Y114.55 E46.80453
G1 X115.45 Y124.918 E47.3218
G0 F1080 X115.45 Y125.45
G0 F6000 X115.85 Y125.85
G1 F1200 X104.15 Y125.85 E47.90551
G1 X104.15 Y114.15 E48.48923
G1 X115.85 Y114.15 E49.07294
G1 X115.85 Y125.318 E49.63011
G0 F1080 X115.85 Y125.85
G0 F6000 X116.25 Y126.25
G1 F1200 X103.75 Y126.25 E50.25374
G1 X103.75 Y113.75 E50.87737
G1 X116.25 Y113.75 E51.501
G1 X116.25 Y125.718 E52.09808
G0 F1080 X116.25 Y126.25
G0 F6000 X116.65 Y126.65
G1 F1200 X103.35 Y126.65 E52.76162
G1 X103.35 Y113.35 E53.42516
G1 X116.65 Y113.35 E54.0887
G1 X116.65 Y126.118 E54.7257
G0 F1080 X116.65 Y126.65
G0 F6000 X117.05 Y127.05
G1 F1200 X102.95 Y127.05 E55.42915
G1 X102.95 Y112.95 E56.1326
G1 X117.05 Y112.95 E56.83606
G1 X117.05 Y126.518 E57.51297
G0 F1080 X117.05 Y127.05
G0 F6000 X117.45 Y127.45
G1 F1200 X102.55 Y127.45 E58.25633
G1 X102.55 Y112.55 E58.99969
G1 X117.45 Y112.55 E59.74306
G1 X117.45 Y126.918 E60.45988
G0 F1080 X117.45 Y127.45
G0 F6000 X117.85 Y127.85
G1 F1200 X102.15 Y127.85 E61.24316
G1 X102.15 Y112.15 E62.02643
G1 X117.85 Y112.15 E62.80971
G1 X117.85 Y127.318 E63.56644
G0 F1080 X117.85 Y127.85
G0 F6000 X118.25 Y128.25
G1 F1200 X101.75 Y128.25 E64.38963
G1 X101.75 Y111.75 E65.21282
G1 X118.25 Y111.75 E66.03601
G1 X118.25 Y127.718 E66.83266
G0 F1080 X118.25 Y128.25
G0 F6000 X110.074 Y119.974
;TYPE:SKIN
G1 F1200 X110.025 Y119.924 E66.8344
G1 F3000 E60.8344
;MESH:NONMESH
G0 F300 X110.025 Y119.924 Z0.5
G0 F6000 X119 Y129
;TIME_ELAPSED:77.153152
;LAYER:1
M140 S45
M106 S85
;TYPE:WALL-INNER
;MESH:xyzCalibration_cube.stl
G1 F3000 E66.8344
G1 F1350 X101 Y129 E67.43308
G1 X101 Y111 E68.03177
G1 X119 Y111 E68.63045
G1 X119 Y128.2 E69.20252
G0 F1215 X119 Y129
G0 F7500 X119.4 Y129.4
G1 F1350 X100.6 Y129.4 E69.82781
G1 X100.6 Y110.6 E70.4531
G1 X119.4 Y110.6 E71.0784
G1 X119.4 Y128.6 E71.67708
G0 F1215 X119.4 Y129.4
G0 F7500 X119.8 Y129.8
;TYPE:WALL-OUTER
G1 F1350 X100.2 Y129.8 E72.32898
G1 X100.2 Y110.2 E72.98088
G1 X119.8 Y110.2 E73.63277
G1 X119.8 Y129 E74.25806
G0 F1215 X119.8 Y129.8
G0 F7500 X119.4 Y129.8
G0 X119.36 Y129.36
G0 X119.3 Y129.36
G0 X118.61 Y128.61
;TYPE:SKIN
G1 F1350 X101.39 Y128.61 E74.8308
G1 X101.39 Y111.39 E75.40354
G1 X118.61 Y111.39 E75.97628
G1 X118.61 Y127.81 E76.52241
G0 F1215 X118.61 Y128.61
G0 F7500 X118.189 Y128.449
G1 F1350 X118.449 Y128.189 E76.53464
G0 F7500 X118.449 Y127.623
G1 F1350 X117.623 Y128.449 E76.5735
G0 F7500 X117.057 Y128.449
G1 F1350 X118.449 Y127.057 E76.63897
G0 F7500 X118.449 Y126.492
G1 F1350 X116.492 Y128.449 E76.73102
G0 F7500 X115.926 Y128.449
G1 F1350 X118.449 Y125.926 E76.8497
G0 F7500 X118.449 Y125.36
G1 F1350 X115.36 Y128.449 E76.99499
G0 F7500 X114.795 Y128.449
G1 F1350 X118.449 Y124.795 E77.16687
G0 F7500 X118.449 Y124.229
G1 F1350 X114.229 Y128.449 E77.36536
G0 F7500 X113.663 Y128.449
G1 F1350 X118.449 Y123.663 E77.59048
G0 F7500 X118.449 Y123.098
G1 F1350 X113.098 Y128.449 E77.84218
G0 F7500 X112.532 Y128.449
G1 F1350 X118.449 Y122.532 E78.12049
G0 F7500 X118.449 Y121.966
G1 F1350 X111.966 Y128.449 E78.42543
G0 F7500 X111.401 Y128.449
G1 F1350 X118.449 Y121.401 E78.75695
G0 F7500 X118.449 Y120.835
G1 F1350 X110.835 Y128.449 E79.11509
G0 F7500 X110.269 Y128.449
G1 F1350 X118.449 Y120.269 E79.49985
G0 F7500 X118.449 Y119.703
G1 F1350 X109.704 Y128.449 E79.91121
G0 F7500 X109.138 Y128.449
G1 F1350 X118.449 Y119.138 E80.34917
G0 F7500 X118.449 Y118.572
G1 F1350 X108.572 Y128.449 E80.81376
G0 F7500 X108.007 Y128.449
G1 F1350 X118.449 Y118.006 E81.30494
G0 F7500 X118.449 Y117.441
G1 F1350 X107.441 Y128.449 E81.82272
G0 F7500 X106.875 Y128.449
G1 F1350 X118.449 Y116.875 E82.36713
G0 F7500 X118.449 Y116.309
G1 F1350 X106.309 Y128.449 E82.93816
G0 F7500 X105.744 Y128.449
G1 F1350 X118.449 Y115.744 E83.53576
G0 F7500 X118.449 Y115.178
G1 F1350 X105.178 Y128.449 E84.15999
G0 F7500 X104.612 Y128.449
G1 F1350 X118.449 Y114.612 E84.81084
G0 F7500 X118.449 Y114.047
G1 F1350 X104.047 Y128.449 E85.48827
G0 F7500 X103.481 Y128.449
G1 F1350 X118.449 Y113.481 E86.19231
G0 F7500 X118.449 Y112.915
G1 F1350 X102.915 Y128.449 E86.92299
G0 F7500 X102.35 Y128.449
G1 F1350 X118.449 Y112.35 E87.68023
G0 F7500 X118.449 Y111.784
G1 F1350 X101.784 Y128.449 E88.4641
G0 F7500 X101.549 Y128.118
G1 F1350 X118.118 Y111.549 E89.24346
G0 F7500 X117.552 Y111.549
G1 F1350 X101.549 Y127.552 E89.99619
G0 F7500 X101.549 Y126.987
G1 F1350 X116.987 Y111.549 E90.72235
G0 F7500 X116.421 Y111.549
G1 F1350 X101.549 Y126.421 E91.42188
G0 F7500 X101.549 Y125.855
G1 F1350 X115.855 Y111.549 E92.09479
G0 F7500 X115.29 Y111.549
G1 F1350 X101.549 Y125.29 E92.74113
G0 F7500 X101.549 Y124.724
G1 F1350 X114.724 Y111.549 E93.36084
G0 F7500 X114.158 Y111.549
G1 F1350 X101.549 Y124.158 E93.95393
G0 F7500 X101.549 Y123.593
G1 F1350 X113.593 Y111.549 E94.52044
G0 F7500 X113.027 Y111.549
G1 F1350 X101.549 Y123.027 E95.06033
G0 F7500 X101.549 Y122.461
G1 F1350 X112.461 Y111.549 E95.5736
G0 F7500 X111.896 Y111.549
G1 F1350 X101.549 Y121.896 E96.06029
G0 F7500 X101.549 Y121.33
G1 F1350 X111.33 Y111.549 E96.52036
