;FLAVOR:Marlin
;TIME:3825
;Filament used: 2.71599m
;Layer height: 0.2
;MINX:93.9
;MINY:69.4
;MINZ:0.3
;MAXX:126.1
;MAXY:170.6
;MAXZ:34.85
;Generated with Cura_SteamEngine 4.4.1
M140 S60
M105
M190 S60
M104 S205
M105
M109 S205
M82 ;absolute extrusion mode
M201 X500.00 Y500.00 Z100.00 E5000.00 ;Setup machine max acceleration
M203 X500.00 Y500.00 Z10.00 E75.00 ;Setup machine max feedrate
M204 P500.00 R1000.00 T500.00 ;Setup Print/Retract/Travel acceleration
M205 X8.00 Y8.00 Z0.40 E5.00 ;Setup Jerk
M220 S100 ;Reset Feedrate
M221 S100 ;Reset Flowrate

G21 ; (metric values)
G90 ; (absolute positioning)
M82 ; (set extruder to absolute mode)
G28 ; (home all axis)
G29 ; (Auto Level)

G92 E0 ;Reset Extruder
G1 Z2.0 F3000 ;Move Z Axis up
G1 X1.1 Y50 Z0.28 F5000.0 ;Move to start position
G1 X1.1 Y200.0 Z0.28 F1500.0 E15 ;Draw the first line
G1 X1.4 Y200.0 Z0.28 F5000.0 ;Move to side a little
G1 X1.4 Y100 Z0.28 F1500.0 E30 ;Draw the second line
G92 E0 ;Reset Extruder
G1 Z2.0 F3000 ;Move Z Axis up
G92 E0
G92 E0
G1 F3000 E-6
;LAYER_COUNT:172
;LAYER:0
M107
G1 F300 Z0.65
G0 F6000 X94.923 Y71.795 Z0.65
;TYPE:SKIRT
G1 F300 Z0.3
G1 F3000 E0
G1 F1200 X95.339 Y71.271 E0.03338
G1 X95.814 Y70.801 E0.06672
G1 X96.343 Y70.39 E0.10014
G1 X96.916 Y70.045 E0.13351
G1 X97.527 Y69.772 E0.16689
G1 X98.165 Y69.573 E0.20024
G1 X98.823 Y69.451 E0.23362
G1 X99.352 Y69.411 E0.26009
G1 X99.673 Y69.402 E0.27611
G1 X99.83 Y69.4 E0.28395
G1 X119.793 Y69.4 E1.2799
G1 X119.873 Y69.401 E1.2839
G1 X120.571 Y69.411 E1.31872
G1 X121.238 Y69.46 E1.35209
G1 X121.895 Y69.589 E1.38549
G1 X122.531 Y69.795 E1.41885
G1 X123.139 Y70.076 E1.45226
G1 X123.708 Y70.426 E1.48559
G1 X124.232 Y70.843 E1.519
G1 X124.702 Y71.319 E1.55237
G1 X125.112 Y71.847 E1.58572
G1 X125.457 Y72.421 E1.61914
G1 X125.73 Y73.032 E1.65252
G1 X125.928 Y73.671 E1.6859
G1 X126.049 Y74.329 E1.71928
G1 X126.089 Y74.853 E1.7455
G1 X126.098 Y75.173 E1.76147
G1 X126.1 Y75.33 E1.7693
G1 X126.1 Y164.333 E6.20968
G1 X126.091 Y165.06 E6.24595
G1 X126.042 Y165.728 E6.27937
G1 X125.915 Y166.384 E6.3127
G1 X125.71 Y167.021 E6.34609
G1 X125.431 Y167.629 E6.37946
G1 X125.081 Y168.199 E6.41283
G1 X124.665 Y168.724 E6.44625
G1 X124.19 Y169.195 E6.47962
G1 X123.663 Y169.606 E6.51297
G1 X123.09 Y169.952 E6.54636
G1 X122.48 Y170.226 E6.57972
G1 X121.841 Y170.426 E6.61313
G1 X121.183 Y170.548 E6.64652
G1 X120.648 Y170.589 E6.67329
G1 X120.327 Y170.598 E6.68931
G1 X120.17 Y170.6 E6.69714
G1 X100.135 Y170.6 E7.69669
G1 X99.437 Y170.591 E7.73152
G1 X98.77 Y170.542 E7.76488
G1 X98.113 Y170.414 E7.79828
G1 X97.476 Y170.209 E7.83166
G1 X96.868 Y169.929 E7.86506
G1 X96.298 Y169.579 E7.89843
G1 X95.774 Y169.163 E7.93181
G1 X95.303 Y168.688 E7.96518
G1 X94.892 Y168.16 E7.99856
G1 X94.547 Y167.587 E8.03193
G1 X94.273 Y166.977 E8.06529
G1 X94.073 Y166.338 E8.0987
G1 X93.952 Y165.68 E8.13208
G1 X93.911 Y165.142 E8.15899
G1 X93.902 Y164.809 E8.17561
G1 X93.9 Y164.658 E8.18315
G1 X93.9 Y75.674 E12.62258
G1 X93.901 Y75.598 E12.62637
G1 X93.91 Y74.933 E12.65955
G1 X93.959 Y74.266 E12.69292
G1 X94.087 Y73.609 E12.72631
G1 X94.292 Y72.973 E12.75965
G1 X94.572 Y72.365 E12.79304
G1 X94.644 Y72.248 E12.7999
G0 F1080 X94.923 Y71.795
G0 F6000 X95.319 Y71.929
G1 F1200 X95.732 Y71.435 E12.83202
G1 X96.203 Y70.995 E12.86418
G1 X96.726 Y70.617 E12.89637
G1 X97.29 Y70.306 E12.9285
G1 X97.889 Y70.068 E12.96066
G1 X98.513 Y69.905 E12.99284
G1 X99.363 Y69.811 E13.0355
G1 X99.684 Y69.802 E13.05152
G1 X99.83 Y69.8 E13.05881
G1 X119.793 Y69.8 E14.05477
G1 X119.867 Y69.801 E14.05846
G1 X120.565 Y69.811 E14.09329
G1 X121.208 Y69.86 E14.12546
G1 X121.84 Y69.988 E14.15763
G1 X122.451 Y70.194 E14.1898
G1 X123.032 Y70.473 E14.22195
G1 X123.574 Y70.822 E14.25411
G1 X124.068 Y71.236 E14.28627
G1 X124.508 Y71.708 E14.31846
G1 X124.886 Y72.23 E14.35062
G1 X125.196 Y72.795 E14.38277
G1 X125.434 Y73.394 E14.41493
G1 X125.596 Y74.018 E14.44709
G1 X125.689 Y74.864 E14.48955
G1 X125.698 Y75.184 E14.50552
G1 X125.7 Y75.33 E14.51281
G1 X125.7 Y164.328 E18.95294
G1 X125.691 Y165.055 E18.98921
G1 X125.643 Y165.698 E19.02138
G1 X125.516 Y166.33 E19.05354
G1 X125.311 Y166.942 E19.08574
G1 X125.033 Y167.523 E19.11787
G1 X124.685 Y168.066 E19.15005
G1 X124.272 Y168.561 E19.18221
G1 X123.801 Y169.001 E19.21437
G1 X123.279 Y169.38 E19.24655
G1 X122.715 Y169.691 E19.27868
G1 X122.116 Y169.93 E19.31086
G1 X121.493 Y170.094 E19.343
G1 X120.637 Y170.189 E19.38597
G1 X120.316 Y170.198 E19.40199
G1 X120.17 Y170.2 E19.40927
G1 X100.14 Y170.2 E20.40857
G1 X99.442 Y170.191 E20.4434
G1 X98.799 Y170.142 E20.47557
G1 X98.167 Y170.015 E20.50773
G1 X97.556 Y169.81 E20.53989
G1 X96.975 Y169.532 E20.57202
G1 X96.432 Y169.183 E20.60422
G1 X95.937 Y168.77 E20.63638
G1 X95.497 Y168.299 E20.66854
G1 X95.118 Y167.777 E20.70072
G1 X94.807 Y167.213 E20.73286
G1 X94.569 Y166.614 E20.76501
G1 X94.406 Y165.99 E20.79719
G1 X94.311 Y165.131 E20.84031
G1 X94.302 Y164.798 E20.85693
G1 X94.3 Y164.658 E20.86391
G1 X94.3 Y75.604 E25.30683
G1 X94.309 Y74.939 E25.34001
G1 X94.358 Y74.296 E25.37219
G1 X94.486 Y73.664 E25.40436
G1 X94.691 Y73.053 E25.43651
G1 X94.97 Y72.472 E25.46866
G1 X95.032 Y72.376 E25.47437
G0 F1080 X95.319 Y71.929
G1 F3000 E19.47437
G1 F300 Z0.65
;MESH:stringing.stl
G0 F6000 X119.5 Y164 Z0.65
;TYPE:WALL-INNER
G1 F300 Z0.3
G1 F3000 E25.47437
G1 F1200 X100.5 Y164 E26.42228
G1 X100.5 Y76 E30.81262
G1 X119.5 Y76 E31.76053
G1 X119.5 Y163.468 E36.12433
G0 F1080 X119.5 Y164
G0 F6000 X119.9 Y164.4
G1 F1200 X100.1 Y164.4 E37.11215
G1 X100.1 Y75.6 E41.5424
G1 X119.9 Y75.6 E42.53023
G1 X119.9 Y163.868 E46.93394
G0 F1080 X119.9 Y164.4
G0 F6000 X120.3 Y164.8
;TYPE:WALL-OUTER
G1 F1200 X99.7 Y164.8 E47.96168
G1 X99.7 Y75.2 E52.43184
G1 X120.3 Y75.2 E53.45958
G1 X120.3 Y164.268 E57.9032
G0 F1080 X120.3 Y164.8
G0 F6000 X119.9 Y164.8
G0 X119.86 Y164.36
G0 X119.8 Y164.36
G0 X119.11 Y163.61
;TYPE:SKIN
G1 F1200 X100.89 Y163.61 E58.8122
G1 X100.89 Y76.39 E63.16362
G1 X119.11 Y76.39 E64.07262
G1 X119.11 Y163.078 E68.3975
G0 F1080 X119.11 Y163.61
G0 F6000 X110.35 Y154.85
G1 F1200 X109.65 Y154.85 E68.43242
G1 X109.65 Y85.15 E71.90977
G1 X110.35 Y85.15 E71.9447
G1 X110.35 Y154.318 E75.3955
G0 F1080 X110.35 Y154.85
G0 F6000 X110.75 Y155.25
G1 F1200 X109.25 Y155.25 E75.47034
G1 X109.25 Y84.75 E78.9876
G1 X110.75 Y84.75 E79.06243
G1 X110.75 Y154.718 E82.55315
G0 F1080 X110.75 Y155.25
G0 F6000 X111.15 Y155.65
G1 F1200 X108.85 Y155.65 E82.6679
G1 X108.85 Y84.35 E86.22507
G1 X111.15 Y84.35 E86.33981
G1 X111.15 Y155.118 E89.87044
G0 F1080 X111.15 Y155.65
G0 F6000 X111.55 Y156.05
G1 F1200 X108.45 Y156.05 E90.0251
G1 X108.45 Y83.95 E93.62219
G1 X111.55 Y83.95 E93.77685
G1 X111.55 Y155.518 E97.34739
G0 F1080 X111.55 Y156.05
G0 F6000 X111.95 Y156.45
G1 F1200 X108.05 Y156.45 E97.54196
G1 X108.05 Y83.55 E101.17896
G1 X111.95 Y83.55 E101.37353
G1 X111.95 Y155.918 E104.98398
G0 F1080 X111.95 Y156.45
G0 F6000 X112.35 Y156.85
G1 F1200 X107.65 Y156.85 E105.21847
G1 X107.65 Y83.15 E108.89537
G1 X112.35 Y83.15 E109.12986
G1 X112.35 Y156.318 E112.78023
G0 F1080 X112.35 Y156.85
G0 F6000 X112.75 Y157.25
G1 F1200 X107.25 Y157.25 E113.05462
G1 X107.25 Y82.75 E116.77144
G1 X112.75 Y82.75 E117.04584
G1 X112.75 Y156.718 E120.73612
G0 F1080 X112.75 Y157.25
G0 F6000 X113.15 Y157.65
G1 F1200 X106.85 Y157.65 E121.05042
G1 X106.85 Y82.35 E124.80716
G1 X113.15 Y82.35 E125.12146
G1 X113.15 Y157.118 E128.85166
G0 F1080 X113.15 Y157.65
G0 F6000 X113.55 Y158.05
G1 F1200 X106.45 Y158.05 E129.20588
G1 X106.45 Y81.95 E133.00252
G1 X113.55 Y81.95 E133.35674
G1 X113.55 Y157.518 E137.12684
G0 F1080 X113.55 Y158.05
G0 F6000 X113.95 Y158.45
G1 F1200 X106.05 Y158.45 E137.52098
G1 X106.05 Y81.55 E141.35753
G1 X113.95 Y81.55 E141.75167
G1 X113.95 Y157.918 E145.56168
G0 F1080 X113.95 Y158.45
G0 F6000 X114.35 Y158.85
G1 F1200 X105.65 Y158.85 E145.99573
G1 X105.65 Y81.15 E149.87219
G1 X114.35 Y81.15 E150.30624
G1 X114.35 Y158.318 E154.15617
G0 F1080 X114.35 Y158.85
G0 F6000 X114.75 Y159.25
G1 F1200 X105.25 Y159.25 E154.63012
G1 X105.25 Y80.75 E158.5465
G1 X114.75 Y80.75 E159.02046
G1 X114.75 Y158.718 E162.9103
G0 F1080 X114.75 Y159.25
G0 F6000 X115.15 Y159.65
G1 F1200 X104.85 Y159.65 E163.42417
G1 X104.85 Y80.35 E167.38046
G1 X115.15 Y80.35 E167.89433
G1 X115.15 Y159.118 E171.82408
G0 F1080 X115.15 Y159.65
G0 F6000 X115.55 Y160.05
G1 F1200 X104.45 Y160.05 E172.37786
G1 X104.45 Y79.95 E176.37407
G1 X115.55 Y79.95 E176.92785
G1 X115.55 Y159.518 E180.89751
G0 F1080 X115.55 Y160.05
G0 F6000 X115.95 Y160.45
G1 F1200 X104.05 Y160.45 E181.49121
G1 X104.05 Y79.55 E185.52732
G1 X115.95 Y79.55 E186.12102
G1 X115.95 Y159.918 E190.13059
G0 F1080 X115.95 Y160.45
G0 F6000 X116.35 Y160.85
G1 F1200 X103.65 Y160.85 E190.7642
G1 X103.65 Y79.15 E194.84023
G1 X116.35 Y79.15 E195.47383
G1 X116.35 Y160.318 E199.52332
G0 F1080 X116.35 Y160.85
G0 F6000 X116.75 Y161.25
G1 F1200 X103.25 Y161.25 E200.19684
G1 X103.25 Y78.75 E204.31278
G1 X116.75 Y78.75 E204.9863
G1 X116.75 Y160.718 E209.0757
G0 F1080 X116.75 Y161.25
G0 F6000 X117.15 Y161.65
G1 F1200 X102.85 Y161.65 E209.78913
G1 X102.85 Y78.35 E213.94498
G1 X117.15 Y78.35 E214.65841
G1 X117.15 Y161.118 E218.78773
G0 F1080 X117.15 Y161.65
G0 F6000 X117.55 Y162.05
G1 F1200 X102.45 Y162.05 E219.54107
G1 X102.45 Y77.95 E223.73683
G1 X117.55 Y77.95 E224.49018
G1 X117.55 Y161.518 E228.6594
G0 F1080 X117.55 Y162.05
G0 F6000 X117.95 Y162.45
G1 F1200 X102.05 Y162.45 E229.45265
G1 X102.05 Y77.55 E233.68833
G1 X117.95 Y77.55 E234.48159
G1 X117.95 Y161.918 E238.69072
G0 F1080 X117.95 Y162.45
G0 F6000 X118.35 Y162.85
G1 F1200 X101.65 Y162.85 E239.52389
G1 X101.65 Y77.15 E243.79948
G1 X118.35 Y77.15 E244.63265
G1 X118.35 Y162.318 E248.8817
G0 F1080 X118.35 Y162.85
G0 F6000 X118.75 Y163.25
G1 F1200 X101.25 Y163.25 E249.75477
G1 X101.25 Y76.75 E254.07028
G1 X118.75 Y76.75 E254.94336
G1 X118.75 Y162.718 E259.23232
G0 F1080 X118.75 Y163.25
G0 F6000 X110.175 Y154.581
;TYPE:SKIN
G1 F1200 X109.824 Y154.23 E259.2447
G0 F6000 X109.824 Y153.947
G1 F1200 X110.175 Y154.298 E259.25708
G0 F6000 X110.175 Y154.015
G1 F1200 X109.824 Y153.664 E259.26946
G0 F6000 X109.824 Y153.382
G1 F1200 X110.175 Y153.732 E259.28183
G0 F6000 X110.175 Y153.449
G1 F1200 X109.824 Y153.099 E259.29419
G0 F6000 X109.824 Y152.816
G1 F1200 X110.175 Y153.167 E259.30658
G0 F6000 X110.175 Y152.884
G1 F1200 X109.824 Y152.533 E259.31896
G0 F6000 X109.824 Y152.25
G1 F1200 X110.175 Y152.601 E259.33134
G0 F6000 X110.175 Y152.318
G1 F1200 X109.824 Y151.967 E259.34372
G0 F6000 X109.824 Y151.685
G1 F1200 X110.175 Y152.035 E259.35609
G0 F6000 X110.175 Y151.752
G1 F1200 X109.824 Y151.402 E259.36845
G0 F6000 X109.824 Y151.119
G1 F1200 X110.175 Y151.47 E259.38084
G0 F6000 X110.175 Y151.187
G1 F1200 X109.824 Y150.836 E259.39322
G0 F6000 X109.824 Y150.553
G1 F1200 X110.175 Y150.904 E259.4056
G0 F6000 X110.175 Y150.621
G1 F1200 X109.824 Y150.27 E259.41798
G0 F6000 X109.824 Y149.987
G1 F1200 X110.175 Y150.338 E259.43037
G0 F6000 X110.175 Y150.055
G1 F1200 X109.824 Y149.705 E259.44273
G0 F6000 X109.824 Y149.422
G1 F1200 X110.175 Y149.772 E259.45509
G0 F6000 X110.175 Y149.49
G1 F1200 X109.824 Y149.139 E259.46748
G0 F6000 X109.824 Y148.856
G1 F1200 X110.175 Y149.207 E259.47986
G0 F6000 X110.175 Y148.924
G1 F1200 X109.824 Y148.573 E259.49224
G0 F6000 X109.824 Y148.29
G1 F1200 X110.175 Y148.641 E259.50462
G0 F6000 X110.175 Y148.358
G1 F1200 X109.824 Y148.008 E259.51699
G0 F6000 X109.824 Y147.725
G1 F1200 X110.175 Y148.075 E259.52935
G0 F6000 X110.175 Y147.793
G1 F1200 X109.824 Y147.442 E259.54174
G0 F6000 X109.824 Y147.159
G1 F1200 X110.175 Y147.51 E259.55412
G0 F6000 X110.175 Y147.227
G1 F1200 X109.824 Y146.876 E259.5665
G0 F6000 X109.824 Y146.593
G1 F1200 X110.175 Y146.944 E259.57888
G0 F6000 X110.175 Y146.661
G1 F1200 X109.824 Y146.31 E259.59127
G0 F6000 X109.824 Y146.028
G1 F1200 X110.175 Y146.378 E259.60363
G0 F6000 X110.175 Y146.096
G1 F1200 X109.824 Y145.745 E259.61601
G0 F6000 X109.824 Y145.462
G1 F1200 X110.175 Y145.813 E259.6284
G0 F6000 X110.175 Y145.53
G1 F1200 X109.824 Y145.179 E259.64078
G0 F6000 X109.824 Y144.896
G1 F1200 X110.175 Y145.247 E259.65316
G0 F6000 X110.175 Y144.964
G1 F1200 X109.824 Y144.613 E259.66554
G0 F6000 X109.824 Y144.331
G1 F1200 X110.175 Y144.681 E259.67791
G0 F6000 X110.175 Y144.398
G1 F1200 X109.824 Y144.048 E259.69027
G0 F6000 X109.824 Y143.765
G1 F1200 X110.175 Y144.116 E259.70266
G0 F6000 X110.175 Y143.833
G1 F1200 X109.824 Y143.482 E259.71504
G0 F6000 X109.824 Y143.199
G1 F1200 X110.175 Y143.55 E259.72742
G0 F6000 X110.175 Y143.267
G1 F1200 X109.824 Y142.916 E259.7398
G0 F6000 X109.824 Y142.634
G1 F1200 X110.175 Y142.984 E259.75217
G0 F6000 X110.175 Y142.701
G1 F1200 X109.824 Y142.351 E259.76453
G0 F6000 X109.824 Y142.068
G1 F1200 X110.175 Y142.419 E259.77692
G0 F6000 X110.175 Y142.136
G1 F1200 X109.824 Y141.785 E259.7893
G0 F6000 X109.824 Y141.502
G1 F1200 X110.175 Y141.853 E259.80168
G0 F6000 X110.175 Y141.57
G1 F1200 X109.824 Y141.219 E259.81406
G0 F6000 X109.824 Y140.936
G1 F1200 X110.175 Y141.287 E259.82645
G0 F6000 X110.175 Y141.004
G1 F1200 X109.824 Y140.654 E259.83881
G0 F6000 X109.824 Y140.371
G1 F1200 X110.175 Y140.722 E259.85119
G0 F6000 X110.175 Y140.439
G1 F1200 X109.824 Y140.088 E259.86358
G0 F6000 X109.824 Y139.805
G1 F1200 X110.175 Y140.156 E259.87596
G0 F6000 X110.175 Y139.873
G1 F1200 X109.824 Y139.522 E259.88834
G0 F6000 X109.824 Y139.239
G1 F1200 X110.175 Y139.59 E259.90072
G0 F6000 X110.175 Y139.307
G1 F1200 X109.824 Y138.957 E259.91309
G0 F6000 X109.824 Y138.674
G1 F1200 X110.175 Y139.024 E259.92545
G0 F6000 X110.175 Y138.742
G1 F1200 X109.824 Y138.391 E259.93783
G0 F6000 X109.824 Y138.108
G1 F1200 X110.175 Y138.459 E259.95022
G0 F6000 X110.175 Y138.176
G1 F1200 X109.824 Y137.825 E259.9626
G0 F6000 X109.824 Y137.542
G1 F1200 X110.175 Y137.893 E259.97498
G0 F6000 X110.175 Y137.61
G1 F1200 X109.824 Y137.26 E259.98735
G0 F6000 X109.824 Y136.977
G1 F1200 X110.175 Y137.327 E259.99971
G0 F6000 X110.175 Y137.045
G1 F1200 X109.824 Y136.694 E260.01209
G0 F6000 X109.824 Y136.411
G1 F1200 X110.175 Y136.762 E260.02448
G0 F6000 X110.175 Y136.479
G1 F1200 X109.824 Y136.128 E260.03686
G0 F6000 X109.824 Y135.845
G1 F1200 X110.175 Y136.196 E260.04924
G0 F6000 X110.175 Y135.913
G1 F1200 X109.824 Y135.562 E260.06162
G0 F6000 X109.824 Y135.28
G1 F1200 X110.175 Y135.63 E260.07399
G0 F6000 X110.175 Y135.348
G1 F1200 X109.824 Y134.997 E260.08637
G0 F6000 X109.824 Y134.714
G1 F1200 X110.175 Y135.065 E260.09875
G0 F6000 X110.175 Y134.782
G1 F1200 X109.824 Y134.431 E260.11114
G0 F6000 X109.824 Y134.148
G1 F1200 X110.175 Y134.499 E260.12352
G0 F6000 X110.175 Y134.216
G1 F1200 X109.824 Y133.865 E260.1359
G0 F6000 X109.824 Y133.583
G1 F1200 X110.175 Y133.933 E260.14827
G0 F6000 X110.175 Y133.65
G1 F1200 X109.824 Y133.3 E260.16063
G0 F6000 X109.824 Y133.017
G1 F1200 X110.175 Y133.368 E260.17301
G0 F6000 X110.175 Y133.085
G1 F1200 X109.824 Y132.734 E260.1854
G0 F6000 X109.824 Y132.451
G1 F1200 X110.175 Y132.802 E260.19778
G0 F6000 X110.175 Y132.519
G1 F1200 X109.824 Y132.168 E260.21016
G0 F6000 X109.824 Y131.886
G1 F1200 X110.175 Y132.236 E260.22253
G0 F6000 X110.175 Y131.953
G1 F1200 X109.824 Y131.603 E260.23489
G0 F6000 X109.824 Y131.32
G1 F1200 X110.175 Y131.671 E260.24727
G0 F6000 X110.175 Y131.388
G1 F1200 X109.824 Y131.037 E260.25966
G0 F6000 X109.824 Y130.754
G1 F1200 X110.175 Y131.105 E260.27204
G0 F6000 X110.175 Y130.822
G1 F1200 X109.824 Y130.471 E260.28442
G0 F6000 X109.824 Y130.188
G1 F1200 X110.175 Y130.539 E260.2968
G0 F6000 X110.175 Y130.256
G1 F1200 X109.824 Y129.906 E260.30917
G0 F6000 X109.824 Y129.623
