;FLAVOR:Marlin
;TIME:8105
;Filament used: 3.85693m
;Layer height: 0.2
;MINX:79.4
;MINY:89.4
;MINZ:0.3
;MAXX:140.6
;MAXY:150.6
;MAXZ:56.45
;Generated with Cura_SteamEngine 4.4.1
M140 S60
M105
M190 S60
M104 S205
M105
M109 S205
M82 ;absolute extrusion mode
M201 X500.00 Y500.00 Z100.00 E5000.00 ;Setup machine max acceleration
M203 X500.00 Y500.00 Z10.00 E75.00 ;Setup machine max feedrate
M204 P500.00 R1000.00 T500.00 ;Setup Print/Retract/Travel acceleration
M205 X8.00 Y8.00 Z0.40 E5.00 ;Setup Jerk
M220 S100 ;Reset Feedrate
M221 S100 ;Reset Flowrate

G21 ; (metric values)
G90 ; (absolute positioning)
M82 ; (set extruder to absolute mode)
G28 ; (home all axis)
G29 ; (Auto Level)

G92 E0 ;Reset Extruder
G1 Z2.0 F3000 ;Move Z Axis up
G1 X1.1 Y50 Z0.28 F5000.0 ;Move to start position
G1 X1.1 Y200.0 Z0.28 F1500.0 E15 ;Draw the first line
G1 X1.4 Y200.0 Z0.28 F5000.0 ;Move to side a little
G1 X1.4 Y100 Z0.28 F1500.0 E30 ;Draw the second line
G92 E0 ;Reset Extruder
G1 Z2.0 F3000 ;Move Z Axis up
G92 E0
G92 E0
G1 F3000 E-6
;LAYER_COUNT:280
;LAYER:0
M107
G1 F300 Z0.65
G0 F6000 X81.314 Y90.801 Z0.65
;TYPE:SKIRT
G1 F300 Z0.3
G1 F3000 E0
G1 F1200 X81.843 Y90.39 E0.03342
G1 X82.416 Y90.045 E0.06679
G1 X83.027 Y89.772 E0.10018
G1 X83.665 Y89.573 E0.13352
G1 X84.323 Y89.451 E0.16691
G1 X84.852 Y89.411 E0.19337
G1 X85.173 Y89.402 E0.2094
G1 X85.33 Y89.4 E0.21723
G1 X134.293 Y89.4 E2.66
G1 X134.373 Y89.401 E2.66399
G1 X135.071 Y89.411 E2.69882
G1 X135.738 Y89.46 E2.73219
G1 X136.395 Y89.589 E2.76559
G1 X137.031 Y89.795 E2.79894
G1 X137.639 Y90.076 E2.83236
G1 X138.208 Y90.426 E2.86569
G1 X138.732 Y90.843 E2.8991
G1 X139.202 Y91.319 E2.93247
G1 X139.612 Y91.847 E2.96582
G1 X139.957 Y92.421 E2.99924
G1 X140.23 Y93.032 E3.03262
G1 X140.428 Y93.671 E3.066
G1 X140.549 Y94.329 E3.09938
G1 X140.589 Y94.853 E3.12559
G1 X140.598 Y95.173 E3.14157
G1 X140.6 Y95.33 E3.1494
G1 X140.6 Y144.333 E5.59417
G1 X140.591 Y145.06 E5.63044
G1 X140.542 Y145.728 E5.66386
G1 X140.415 Y146.384 E5.69719
G1 X140.21 Y147.021 E5.73058
G1 X139.931 Y147.629 E5.76395
G1 X139.581 Y148.199 E5.79732
G1 X139.165 Y148.724 E5.83074
G1 X138.69 Y149.195 E5.86411
G1 X138.163 Y149.606 E5.89746
G1 X137.59 Y149.952 E5.93085
G1 X136.98 Y150.226 E5.96421
G1 X136.341 Y150.426 E5.99762
G1 X135.683 Y150.548 E6.03101
G1 X135.148 Y150.589 E6.05778
G1 X134.827 Y150.598 E6.0738
G1 X134.67 Y150.6 E6.08163
G1 X85.635 Y150.6 E8.528
G1 X84.937 Y150.591 E8.56282
G1 X84.27 Y150.542 E8.59619
G1 X83.613 Y150.414 E8.62958
G1 X82.976 Y150.209 E8.66297
G1 X82.368 Y149.929 E8.69636
G1 X81.798 Y149.579 E8.72973
G1 X81.274 Y149.163 E8.76311
G1 X80.803 Y148.688 E8.79649
G1 X80.392 Y148.16 E8.82987
G1 X80.047 Y147.587 E8.86324
G1 X79.773 Y146.977 E8.8966
G1 X79.573 Y146.338 E8.93
G1 X79.452 Y145.68 E8.96338
G1 X79.411 Y145.142 E8.9903
G1 X79.402 Y144.809 E9.00692
G1 X79.4 Y144.658 E9.01445
G1 X79.4 Y95.674 E11.45828
G1 X79.401 Y95.598 E11.46207
G1 X79.41 Y94.933 E11.49525
G1 X79.459 Y94.266 E11.52861
G1 X79.587 Y93.609 E11.56201
G1 X79.792 Y92.973 E11.59535
G1 X80.072 Y92.365 E11.62874
G1 X80.423 Y91.795 E11.66214
G1 X80.839 Y91.271 E11.69552
G1 X80.936 Y91.175 E11.70233
G0 F1080 X81.314 Y90.801
G0 F6000 X81.703 Y90.995
G1 F1200 X82.226 Y90.617 E11.73452
G1 X82.79 Y90.306 E11.76665
G1 X83.389 Y90.068 E11.79881
G1 X84.013 Y89.905 E11.83099
G1 X84.863 Y89.811 E11.87365
G1 X85.184 Y89.802 E11.88967
G1 X85.33 Y89.8 E11.89696
G1 X134.293 Y89.8 E14.33973
G1 X134.367 Y89.801 E14.34342
G1 X135.065 Y89.811 E14.37825
G1 X135.708 Y89.86 E14.41042
G1 X136.34 Y89.988 E14.44259
G1 X136.951 Y90.194 E14.47476
G1 X137.532 Y90.473 E14.50692
G1 X138.074 Y90.822 E14.53908
G1 X138.568 Y91.236 E14.57123
G1 X139.008 Y91.708 E14.60343
G1 X139.386 Y92.23 E14.63558
G1 X139.696 Y92.795 E14.66773
G1 X139.934 Y93.394 E14.69989
G1 X140.096 Y94.018 E14.73205
G1 X140.189 Y94.864 E14.77452
G1 X140.198 Y95.184 E14.79049
G1 X140.2 Y95.33 E14.79777
G1 X140.2 Y144.328 E17.24229
G1 X140.191 Y145.055 E17.27856
G1 X140.143 Y145.698 E17.31073
G1 X140.016 Y146.33 E17.34289
G1 X139.811 Y146.942 E17.37509
G1 X139.533 Y147.523 E17.40723
G1 X139.185 Y148.066 E17.4394
G1 X138.772 Y148.561 E17.47157
G1 X138.301 Y149.001 E17.50372
G1 X137.779 Y149.38 E17.53591
G1 X137.215 Y149.691 E17.56804
G1 X136.616 Y149.93 E17.60021
G1 X135.993 Y150.094 E17.63235
G1 X135.137 Y150.189 E17.67532
G1 X134.816 Y150.198 E17.69134
G1 X134.67 Y150.2 E17.69863
G1 X85.64 Y150.2 E20.14474
G1 X84.942 Y150.191 E20.17957
G1 X84.299 Y150.142 E20.21174
G1 X83.667 Y150.015 E20.2439
G1 X83.056 Y149.81 E20.27606
G1 X82.475 Y149.532 E20.30819
G1 X81.932 Y149.183 E20.34039
G1 X81.437 Y148.77 E20.37256
G1 X80.997 Y148.299 E20.40471
G1 X80.618 Y147.777 E20.4369
G1 X80.307 Y147.213 E20.46903
G1 X80.069 Y146.614 E20.50119
G1 X79.906 Y145.99 E20.53336
G1 X79.811 Y145.131 E20.57648
G1 X79.802 Y144.798 E20.5931
G1 X79.8 Y144.658 E20.60008
G1 X79.8 Y95.604 E23.0474
G1 X79.809 Y94.939 E23.08058
G1 X79.858 Y94.296 E23.11275
G1 X79.986 Y93.664 E23.14492
G1 X80.191 Y93.053 E23.17707
G1 X80.47 Y92.472 E23.20923
G1 X80.819 Y91.929 E23.24143
G1 X81.232 Y91.435 E23.27356
G1 X81.314 Y91.358 E23.27917
G0 F1080 X81.703 Y90.995
G1 F3000 E17.27917
G1 F300 Z0.65
;MESH:AIl_In_One_3D_printer_test_micro.stl
G0 F6000 X134 Y144 Z0.65
;TYPE:WALL-INNER
G1 F300 Z0.3
G1 F3000 E23.27917
G1 F1200 X86 Y144 E25.6739
G1 X86 Y96 E28.06863
G1 X134 Y96 E30.46336
G1 X134 Y143.468 E32.83155
G0 F1080 X134 Y144
G0 F6000 X134.4 Y144.4
G1 F1200 X85.6 Y144.4 E35.26619
G1 X85.6 Y95.6 E37.70083
G1 X134.4 Y95.6 E40.13547
G1 X134.4 Y143.868 E42.54357
G0 F1080 X134.4 Y144.4
G0 F6000 X134.8 Y144.8
;TYPE:WALL-OUTER
G1 F1200 X85.2 Y144.8 E45.01813
G1 X85.2 Y95.2 E47.49268
G1 X134.8 Y95.2 E49.96723
G1 X134.8 Y144.268 E52.41525
G0 F1080 X134.8 Y144.8
G0 F6000 X134.4 Y144.8
G0 X134.36 Y144.36
G0 X134.3 Y144.36
G0 X133.61 Y143.61
;TYPE:SKIN
G1 F1200 X86.39 Y143.61 E54.77106
G1 X86.39 Y96.39 E57.12688
G1 X133.61 Y96.39 E59.48269
G1 X133.61 Y143.078 E61.81197
G0 F1080 X133.61 Y143.61
G1 F3000 E55.81197
G0 F6000 X110.05 Y120.05
G1 F3000 E61.81197
G1 F1200 X109.95 Y120.05 E61.81695
G1 X109.95 Y119.95 E61.82194
G1 X110.05 Y119.95 E61.82693
G1 X110.05 Y120.028 E61.83082
G0 F1080 X110.05 Y120.05
G0 F6000 X110.45 Y120.45
G1 F1200 X109.55 Y120.45 E61.87573
G1 X109.55 Y119.55 E61.92063
G1 X110.45 Y119.55 E61.96553
G1 X110.45 Y120.251 E62.0005
G0 F1080 X110.45 Y120.45
G0 F6000 X110.85 Y120.85
G1 F1200 X109.15 Y120.85 E62.08531
G1 X109.15 Y119.15 E62.17013
G1 X110.85 Y119.15 E62.25494
G1 X110.85 Y120.474 E62.321
G0 F1080 X110.85 Y120.85
G0 F6000 X111.25 Y121.25
G1 F1200 X108.75 Y121.25 E62.44572
G1 X108.75 Y118.75 E62.57045
G1 X111.25 Y118.75 E62.69517
G1 X111.25 Y120.718 E62.79336
G0 F1080 X111.25 Y121.25
G0 F6000 X111.65 Y121.65
G1 F1200 X108.35 Y121.65 E62.95799
G1 X108.35 Y118.35 E63.12263
G1 X111.65 Y118.35 E63.28727
G1 X111.65 Y121.118 E63.42537
G0 F1080 X111.65 Y121.65
G0 F6000 X112.05 Y122.05
G1 F1200 X107.95 Y122.05 E63.62991
G1 X107.95 Y117.95 E63.83446
G1 X112.05 Y117.95 E64.03901
G1 X112.05 Y121.518 E64.21702
G0 F1080 X112.05 Y122.05
G0 F6000 X112.45 Y122.45
G1 F1200 X107.55 Y122.45 E64.46148
G1 X107.55 Y117.55 E64.70595
G1 X112.45 Y117.55 E64.95041
G1 X112.45 Y121.918 E65.16833
G0 F1080 X112.45 Y122.45
G0 F6000 X112.85 Y122.85
G1 F1200 X107.15 Y122.85 E65.4527
G1 X107.15 Y117.15 E65.73708
G1 X112.85 Y117.15 E66.02145
G1 X112.85 Y122.318 E66.27928
G0 F1080 X112.85 Y122.85
G0 F6000 X113.25 Y123.25
G1 F1200 X106.75 Y123.25 E66.60357
G1 X106.75 Y116.75 E66.92786
G1 X113.25 Y116.75 E67.25214
G1 X113.25 Y122.718 E67.54989
G0 F1080 X113.25 Y123.25
G0 F6000 X113.65 Y123.65
G1 F1200 X106.35 Y123.65 E67.91409
G1 X106.35 Y116.35 E68.27828
G1 X113.65 Y116.35 E68.64248
G1 X113.65 Y123.118 E68.98014
G0 F1080 X113.65 Y123.65
G0 F6000 X114.05 Y124.05
G1 F1200 X105.95 Y124.05 E69.38425
G1 X105.95 Y115.95 E69.78836
G1 X114.05 Y115.95 E70.19247
G1 X114.05 Y123.518 E70.57004
G0 F1080 X114.05 Y124.05
G0 F6000 X114.45 Y124.45
G1 F1200 X105.55 Y124.45 E71.01406
G1 X105.55 Y115.55 E71.45809
G1 X114.45 Y115.55 E71.90211
G1 X114.45 Y123.918 E72.31959
G0 F1080 X114.45 Y124.45
G0 F6000 X114.85 Y124.85
G1 F1200 X105.15 Y124.85 E72.80353
G1 X105.15 Y115.15 E73.28746
G1 X114.85 Y115.15 E73.7714
G1 X114.85 Y124.318 E74.22879
G0 F1080 X114.85 Y124.85
G0 F6000 X115.25 Y125.25
G1 F1200 X104.75 Y125.25 E74.75264
G1 X104.75 Y114.75 E75.27648
G1 X115.25 Y114.75 E75.80033
G1 X115.25 Y124.718 E76.29764
G0 F1080 X115.25 Y125.25
G0 F6000 X115.65 Y125.65
G1 F1200 X104.35 Y125.65 E76.8614
G1 X104.35 Y114.35 E77.42515
G1 X115.65 Y114.35 E77.98891
G1 X115.65 Y125.118 E78.52613
G0 F1080 X115.65 Y125.65
G0 F6000 X116.05 Y126.05
G1 F1200 X103.95 Y126.05 E79.1298
G1 X103.95 Y113.95 E79.73347
G1 X116.05 Y113.95 E80.33715
G1 X116.05 Y125.518 E80.91428
G0 F1080 X116.05 Y126.05
G0 F6000 X116.45 Y126.45
G1 F1200 X103.55 Y126.45 E81.55786
G1 X103.55 Y113.55 E82.20144
G1 X116.45 Y113.55 E82.84503
G1 X116.45 Y125.918 E83.46207
G0 F1080 X116.45 Y126.45
G0 F6000 X116.85 Y126.85
G1 F1200 X103.15 Y126.85 E84.14556
G1 X103.15 Y113.15 E84.82906
G1 X116.85 Y113.15 E85.51256
G1 X116.85 Y126.318 E86.16951
G0 F1080 X116.85 Y126.85
G0 F6000 X117.25 Y127.25
G1 F1200 X102.75 Y127.25 E86.89292
G1 X102.75 Y112.75 E87.61633
G1 X117.25 Y112.75 E88.33973
G1 X117.25 Y126.718 E89.0366
G0 F1080 X117.25 Y127.25
G0 F6000 X117.65 Y127.65
G1 F1200 X102.35 Y127.65 E89.79992
G1 X102.35 Y112.35 E90.56324
G1 X117.65 Y112.35 E91.32656
G1 X117.65 Y127.118 E92.06334
G0 F1080 X117.65 Y127.65
G0 F6000 X118.05 Y128.05
G1 F1200 X101.95 Y128.05 E92.86657
G1 X101.95 Y111.95 E93.6698
G1 X118.05 Y111.95 E94.47304
G1 X118.05 Y127.518 E95.24973
G0 F1080 X118.05 Y128.05
G0 F6000 X118.45 Y128.45
G1 F1200 X101.55 Y128.45 E96.09287
G1 X101.55 Y111.55 E96.93602
G1 X118.45 Y111.55 E97.77916
G1 X118.45 Y127.918 E98.59576
G0 F1080 X118.45 Y128.45
G0 F6000 X118.85 Y128.85
G1 F1200 X101.15 Y128.85 E99.47882
G1 X101.15 Y111.15 E100.36188
G1 X118.85 Y111.15 E101.24493
G1 X118.85 Y128.318 E102.10145
G0 F1080 X118.85 Y128.85
G0 F6000 X119.25 Y129.25
G1 F1200 X100.75 Y129.25 E103.02442
G1 X100.75 Y110.75 E103.94738
G1 X119.25 Y110.75 E104.87035
G1 X119.25 Y128.718 E105.76678
G0 F1080 X119.25 Y129.25
G0 F6000 X119.65 Y129.65
G1 F1200 X100.35 Y129.65 E106.72966
G1 X100.35 Y110.35 E107.69254
G1 X119.65 Y110.35 E108.65542
G1 X119.65 Y129.118 E109.59176
G0 F1080 X119.65 Y129.65
G0 F6000 X120.05 Y130.05
G1 F1200 X99.95 Y130.05 E110.59456
G1 X99.95 Y109.95 E111.59735
G1 X120.05 Y109.95 E112.60014
G1 X120.05 Y129.518 E113.57639
G0 F1080 X120.05 Y130.05
G0 F6000 X120.45 Y130.45
G1 F1200 X99.55 Y130.45 E114.6191
G1 X99.55 Y109.55 E115.6618
G1 X120.45 Y109.55 E116.70451
G1 X120.45 Y129.918 E117.72067
G0 F1080 X120.45 Y130.45
G0 F6000 X120.85 Y130.85
G1 F1200 X99.15 Y130.85 E118.80329
G1 X99.15 Y109.15 E119.88591
G1 X120.85 Y109.15 E120.96853
G1 X120.85 Y130.318 E122.0246
G0 F1080 X120.85 Y130.85
G0 F6000 X121.25 Y131.25
G1 F1200 X98.75 Y131.25 E123.14713
G1 X98.75 Y108.75 E124.26966
G1 X121.25 Y108.75 E125.39219
G1 X121.25 Y130.718 E126.48818
G0 F1080 X121.25 Y131.25
G0 F6000 X121.65 Y131.65
G1 F1200 X98.35 Y131.65 E127.65062
G1 X98.35 Y108.35 E128.81306
G1 X121.65 Y108.35 E129.9755
G1 X121.65 Y131.118 E131.1114
G0 F1080 X121.65 Y131.65
G0 F6000 X122.05 Y132.05
G1 F1200 X97.95 Y132.05 E132.31376
G1 X97.95 Y107.95 E133.51611
G1 X122.05 Y107.95 E134.71846
G1 X122.05 Y131.518 E135.89428
G0 F1080 X122.05 Y132.05
G0 F6000 X122.45 Y132.45
G1 F1200 X97.55 Y132.45 E137.13654
G1 X97.55 Y107.55 E138.37881
G1 X122.45 Y107.55 E139.62108
G1 X122.45 Y131.918 E140.8368
G0 F1080 X122.45 Y132.45
G0 F6000 X122.85 Y132.85
G1 F1200 X97.15 Y132.85 E142.11898
G1 X97.15 Y107.15 E143.40116
G1 X122.85 Y107.15 E144.68333
G1 X122.85 Y132.318 E145.93897
G0 F1080 X122.85 Y132.85
G0 F6000 X123.25 Y133.25
G1 F1200 X96.75 Y133.25 E147.26106
G1 X96.75 Y106.75 E148.58315
G1 X123.25 Y106.75 E149.90524
G1 X123.25 Y132.718 E151.20079
G0 F1080 X123.25 Y133.25
G0 F6000 X123.65 Y133.65
G1 F1200 X96.35 Y133.65 E152.56279
G1 X96.35 Y106.35 E153.9248
G1 X123.65 Y106.35 E155.2868
G1 X123.65 Y133.118 E156.62226
G0 F1080 X123.65 Y133.65
G0 F6000 X124.05 Y134.05
G1 F1200 X95.95 Y134.05 E158.02417
G1 X95.95 Y105.95 E159.42609
G1 X124.05 Y105.95 E160.828
G1 X124.05 Y133.518 E162.20338
G0 F1080 X124.05 Y134.05
G0 F6000 X124.45 Y134.45
G1 F1200 X95.55 Y134.45 E163.6452
G1 X95.55 Y105.55 E165.08703
G1 X124.45 Y105.55 E166.52886
G1 X124.45 Y133.918 E167.94414
G0 F1080 X124.45 Y134.45
G0 F6000 X124.85 Y134.85
G1 F1200 X95.15 Y134.85 E169.42588
G1 X95.15 Y105.15 E170.90762
G1 X124.85 Y105.15 E172.38936
G1 X124.85 Y134.318 E173.84456
G0 F1080 X124.85 Y134.85
G0 F6000 X125.25 Y135.25
G1 F1200 X94.75 Y135.25 E175.36621
G1 X94.75 Y104.75 E176.88786
G1 X125.25 Y104.75 E178.40951
G1 X125.25 Y134.718 E179.90462
G0 F1080 X125.25 Y135.25
G0 F6000 X125.65 Y135.65
G1 F1200 X94.35 Y135.65 E181.46618
G1 X94.35 Y104.35 E183.02775
G1 X125.65 Y104.35 E184.58931
G1 X125.65 Y135.118 E186.12433
G0 F1080 X125.65 Y135.65
G0 F6000 X126.05 Y136.05
G1 F1200 X93.95 Y136.05 E187.72581
G1 X93.95 Y103.95 E189.32728
G1 X126.05 Y103.95 E190.92876
G1 X126.05 Y135.518 E192.50369
G0 F1080 X126.05 Y136.05
G0 F6000 X126.45 Y136.45
G1 F1200 X93.55 Y136.45 E194.14508
G1 X93.55 Y103.55 E195.78647
G1 X126.45 Y103.55 E197.42785
G1 X126.45 Y135.918 E199.0427
G0 F1080 X126.45 Y136.45
G0 F6000 X126.85 Y136.85
G1 F1200 X93.15 Y136.85 E200.724
G1 X93.15 Y103.15 E202.4053
G1 X126.85 Y103.15 E204.0866
G1 X126.85 Y136.318 E205.74136
G0 F1080 X126.85 Y136.85
G0 F6000 X127.25 Y137.25
G1 F1200 X92.75 Y137.25 E207.46257
G1 X92.75 Y102.75 E209.18378
G1 X127.25 Y102.75 E210.90499
G1 X127.25 Y136.718 E212.59967
G0 F1080 X127.25 Y137.25
G0 F6000 X127.65 Y137.65
G1 F1200 X92.35 Y137.65 E214.36079
G1 X92.35 Y102.35 E216.12191
G1 X127.65 Y102.35 E217.88304
G1 X127.65 Y137.118 E219.61762
G0 F1080 X127.65 Y137.65
G0 F6000 X128.05 Y138.05
G1 F1200 X91.95 Y138.05 E221.41866
G1 X91.95 Y101.95 E223.21969
G1 X128.05 Y101.95 E225.02073
G1 X128.05 Y137.518 E226.79522
G0 F1080 X128.05 Y138.05
G0 F6000 X128.45 Y138.45
G1 F1200 X91.55 Y138.45 E228.63617
G1 X91.55 Y101.55 E230.47712
G1 X128.45 Y101.55 E232.31807
G1 X128.45 Y137.918 E234.13248
G0 F1080 X128.45 Y138.45
G0 F6000 X128.85 Y138.85
G1 F1200 X91.15 Y138.85 E236.01334
G1 X91.15 Y101.15 E237.8942
G1 X128.85 Y101.15 E239.77506
G1 X128.85 Y138.318 E241.62938
G0 F1080 X128.85 Y138.85
G0 F6000 X129.25 Y139.25
G1 F1200 X90.75 Y139.25 E243.55015
G1 X90.75 Y100.75 E245.47092
G1 X129.25 Y100.75 E247.3917
G1 X129.25 Y138.718 E249.28593
G0 F1080 X129.25 Y139.25
G0 F6000 X129.65 Y139.65
G1 F1200 X90.35 Y139.65 E251.24661
G1 X90.35 Y100.35 E253.2073
G1 X129.65 Y100.35 E255.16798
G1 X129.65 Y139.118 E257.10212
G0 F1080 X129.65 Y139.65
G0 F6000 X130.05 Y140.05
G1 F1200 X89.95 Y140.05 E259.10272
G1 X89.95 Y99.95 E261.10332
G1 X130.05 Y99.95 E263.10392
G1 X130.05 Y139.518 E265.07797
G0 F1080 X130.05 Y140.05
G0 F6000 X130.45 Y140.45
G1 F1200 X89.55 Y140.45 E267.11848
G1 X89.55 Y99.55 E269.15899
G1 X130.45 Y99.55 E271.1995
G1 X130.45 Y139.918 E273.21347
G0 F1080 X130.45 Y140.45
G0 F6000 X130.85 Y140.85
G1 F1200 X89.15 Y140.85 E275.29389
G1 X89.15 Y99.15 E277.37431
G1 X130.85 Y99.15 E279.45473
G1 X130.85 Y140.318 E281.50861
G0 F1080 X130.85 Y140.85
G0 F6000 X131.25 Y141.25
G1 F1200 X88.75 Y141.25 E283.62895
G1 X88.75 Y98.75 E285.74928
G1 X131.25 Y98.75 E287.86961
G1 X131.25 Y140.718 E289.9634
G0 F1080 X131.25 Y141.25
G0 F6000 X131.65 Y141.65
G1 F1200 X88.35 Y141.65 E292.12365
