;FLAVOR:Marlin
;TIME:5725
;Filament used: 2.25221m
;Layer height: 0.12
;MINX:86.4
;MINY:92.683
;MINZ:0.2
;MAXX:148.6
;MAXY:142.317
;MAXZ:11.95
;Generated with Cura_SteamEngine 4.7.0
M140 S60
M105
M190 S60
M104 S205
M105
M109 S205
M82 ;absolute extrusion mode
M201 X500.00 Y500.00 Z100.00 E5000.00 ;Setup machine max acceleration
M203 X500.00 Y500.00 Z10.00 E75.00 ;Setup machine max feedrate
M204 P500.00 R1000.00 T500.00 ;Setup Print/Retract/Travel acceleration
M205 X8.00 Y8.00 Z0.40 E5.00 ;Setup Jerk
M220 S100 ;Reset Feedrate
M221 S100 ;Reset Flowrate

G21 ; (metric values)
G90 ; (absolute positioning)
M82 ; (set extruder to absolute mode)
G28 ; (home all axis)
G29 ; (Auto Level)

G92 E0 ;Reset Extruder
G1 Z2.0 F3000 ;Move Z Axis up
G1 X1.1 Y50 Z0.28 F5000.0 ;Move to start position
G1 X1.1 Y200.0 Z0.28 F1500.0 E15 ;Draw the first line
G1 X1.4 Y200.0 Z0.28 F5000.0 ;Move to side a little
G1 X1.4 Y100 Z0.28 F1500.0 E30 ;Draw the second line
G92 E0 ;Reset Extruder
G1 Z2.0 F3000 ;Move Z Axis up
G92 E0
G92 E0
G1 F1500 E-6
;LAYER_COUNT:96
;LAYER:0
M107
G1 F300 Z0.55
G0 F6000 X88.312 Y94.085 Z0.55
;TYPE:SKIRT
G1 F300 Z0.2
G1 F1500 E0
G1 F1200 X88.84 Y93.675 E0.02223
G1 X89.414 Y93.33 E0.04451
G1 X90.024 Y93.056 E0.06675
G1 X90.663 Y92.856 E0.08902
G1 X91.321 Y92.734 E0.11128
G1 X91.852 Y92.694 E0.12899
G1 X92.173 Y92.685 E0.13967
G1 X92.33 Y92.683 E0.14489
G1 X132.872 Y92.684 E1.49332
G1 X133.442 Y92.692 E1.51228
G1 X133.954 Y92.722 E1.52934
G1 X134.453 Y92.775 E1.54603
G1 X135.113 Y92.886 E1.56829
G1 X135.903 Y93.129 E1.59578
G1 X136.935 Y93.533 E1.63264
G1 X138.15 Y94.035 E1.67637
G1 X140.646 Y94.987 E1.76522
G1 X142.633 Y95.669 E1.83509
G1 X143.499 Y95.975 E1.86564
G1 X143.666 Y96.037 E1.87157
G1 X144.264 Y96.27 E1.89291
G1 X144.872 Y96.55 E1.91518
G1 X145.577 Y96.998 E1.94296
G1 X145.895 Y97.235 E1.95615
G1 X146.407 Y97.666 E1.97841
G1 X146.716 Y97.984 E1.99316
G1 X146.795 Y98.072 E1.99709
G1 X147.206 Y98.588 E2.01903
G1 X147.38 Y98.835 E2.02908
G1 X147.732 Y99.404 E2.05133
G1 X147.919 Y99.786 E2.06548
G1 X148.027 Y100.029 E2.07432
G1 X148.262 Y100.655 E2.09656
G1 X148.352 Y100.981 E2.10781
G1 X148.413 Y101.232 E2.1164
G1 X148.492 Y101.614 E2.12938
G1 X148.5 Y101.661 E2.13096
G1 X148.578 Y102.493 E2.15876
G1 X148.6 Y103.694 E2.19871
G1 X148.599 Y110.212 E2.4155
G1 X148.592 Y110.679 E2.43103
G1 X148.587 Y110.861 E2.43709
G1 X148.568 Y111.26 E2.45037
G1 X148.497 Y111.921 E2.47248
G1 X148.448 Y112.213 E2.48233
G1 X148.373 Y112.58 E2.49479
G1 X148.145 Y113.54 E2.52761
G1 X147.565 Y116.157 E2.61676
G1 X147.065 Y118.748 E2.70453
G1 X146.623 Y121.454 E2.79572
G1 X146.272 Y124.073 E2.88361
G1 X145.989 Y126.754 E2.97328
G1 X145.785 Y129.397 E3.06145
G1 X145.654 Y132.08 E3.15079
G1 X145.607 Y134.025 E3.2155
G1 X145.589 Y135.29 E3.25758
G1 X145.54 Y135.957 E3.27982
G1 X145.411 Y136.613 E3.30206
G1 X145.205 Y137.25 E3.32432
G1 X144.924 Y137.857 E3.34657
G1 X144.573 Y138.427 E3.36884
G1 X144.157 Y138.95 E3.39106
G1 X143.681 Y139.421 E3.41334
G1 X143.152 Y139.831 E3.4356
G1 X142.579 Y140.175 E3.45782
G1 X141.968 Y140.448 E3.48008
G1 X141.563 Y140.584 E3.49429
G1 X140.671 Y140.845 E3.5252
G1 X139.709 Y141.111 E3.5584
G1 X137.141 Y141.899 E3.64774
G1 X136.722 Y142.035 E3.6624
G1 X136.074 Y142.203 E3.68466
G1 X135.169 Y142.304 E3.71495
G1 X134.841 Y142.314 E3.72586
G1 X134.67 Y142.317 E3.73155
G1 X123.186 Y142.316 E4.11351
G1 X122.482 Y142.306 E4.13693
G1 X121.815 Y142.257 E4.15917
G1 X120.953 Y142.071 E4.1885
G1 X120.823 Y142.032 E4.19302
G1 X118.231 Y141.278 E4.2828
G1 X115.65 Y140.606 E4.37151
G1 X113.055 Y140.007 E4.46009
G1 X110.478 Y139.488 E4.54752
G1 X107.801 Y139.028 E4.63786
G1 X105.148 Y138.65 E4.72699
G1 X102.509 Y138.349 E4.81533
G1 X99.835 Y138.121 E4.90459
G1 X97.178 Y137.97 E4.99311
G1 X94.477 Y137.893 E5.08298
G1 X93.106 Y137.883 E5.12858
G1 X92.707 Y137.883 E5.14185
G1 X91.929 Y137.872 E5.16773
G1 X91.262 Y137.823 E5.18998
G1 X90.605 Y137.694 E5.21225
G1 X89.969 Y137.488 E5.23448
G1 X89.361 Y137.207 E5.25676
G1 X88.792 Y136.857 E5.27898
G1 X88.268 Y136.44 E5.30125
G1 X87.798 Y135.964 E5.3235
G1 X87.388 Y135.436 E5.34573
G1 X87.043 Y134.862 E5.36801
G1 X86.77 Y134.251 E5.39027
G1 X86.572 Y133.612 E5.41252
G1 X86.451 Y132.954 E5.43477
G1 X86.411 Y132.425 E5.45241
G1 X86.402 Y132.093 E5.46346
G1 X86.4 Y131.941 E5.46852
G1 X86.401 Y131.384 E5.48704
G1 X86.412 Y130.684 E5.51033
G1 X86.456 Y130.061 E5.5311
G1 X86.626 Y128.733 E5.57563
G1 X86.926 Y126.093 E5.664
G1 X87.152 Y123.418 E5.75329
G1 X87.303 Y120.761 E5.8418
G1 X87.378 Y118.08 E5.93101
G1 X87.378 Y115.426 E6.01928
G1 X87.301 Y112.735 E6.10882
G1 X87.151 Y110.088 E6.197
G1 X86.923 Y107.414 E6.28626
G1 X86.619 Y104.744 E6.37564
G1 X86.519 Y104.021 E6.39992
G1 X86.45 Y103.447 E6.41914
G1 X86.413 Y102.969 E6.43509
G1 X86.404 Y102.657 E6.44547
G1 X86.4 Y102.248 E6.45908
G1 X86.4 Y98.908 E6.57017
G1 X86.409 Y98.219 E6.59308
G1 X86.458 Y97.552 E6.61533
G1 X86.586 Y96.895 E6.63759
G1 X86.791 Y96.258 E6.65985
G1 X87.071 Y95.65 E6.68211
G1 X87.421 Y95.08 E6.70436
G1 X87.755 Y94.659 E6.72223
G0 F1080 X87.837 Y94.556
G0 X88.312 Y94.085
G0 F6000 X88.702 Y94.279
G1 F1200 X89.224 Y93.901 E6.74367
G1 X89.788 Y93.59 E6.76509
G1 X90.387 Y93.351 E6.78654
G1 X91.011 Y93.189 E6.80798
G1 X91.863 Y93.094 E6.8365
G1 X92.184 Y93.085 E6.84718
G1 X92.33 Y93.083 E6.85203
G1 X132.866 Y93.084 E8.20026
G1 X133.436 Y93.092 E8.21923
G1 X133.912 Y93.12 E8.23508
G1 X134.411 Y93.173 E8.25177
G1 X135.047 Y93.281 E8.27323
G1 X135.758 Y93.502 E8.29799
G1 X136.79 Y93.906 E8.33486
G1 X137.992 Y94.403 E8.37812
G1 X140.501 Y95.36 E8.46743
G1 X142.499 Y96.046 E8.53769
G1 X143.365 Y96.352 E8.56824
G1 X143.521 Y96.41 E8.57378
G1 X144.119 Y96.643 E8.59512
G1 X144.704 Y96.914 E8.61657
G1 X145.338 Y97.319 E8.64159
G1 X145.656 Y97.556 E8.65478
G1 X146.148 Y97.972 E8.67621
G1 X146.418 Y98.251 E8.68912
G1 X146.497 Y98.339 E8.69306
G1 X146.879 Y98.818 E8.71343
G1 X147.053 Y99.065 E8.72348
G1 X147.391 Y99.614 E8.74493
G1 X147.554 Y99.948 E8.75729
G1 X147.662 Y100.191 E8.76613
G1 X147.963 Y101.075 E8.79719
G1 X148.024 Y101.326 E8.80578
G1 X148.097 Y101.681 E8.81784
G1 X148.105 Y101.728 E8.81942
G1 X148.178 Y102.501 E8.84525
G1 X148.2 Y103.694 E8.88493
G1 X148.199 Y110.206 E9.10152
G1 X148.192 Y110.673 E9.11706
G1 X148.187 Y110.842 E9.12268
G1 X148.168 Y111.241 E9.13597
G1 X148.102 Y111.855 E9.15651
G1 X148.053 Y112.147 E9.16635
G1 X147.984 Y112.487 E9.17789
G1 X147.765 Y113.409 E9.20941
G1 X147.168 Y116.101 E9.30112
G1 X146.67 Y118.684 E9.38862
G1 X146.231 Y121.374 E9.47927
G1 X145.872 Y124.05 E9.56907
G1 X145.594 Y126.682 E9.6571
G1 X145.386 Y129.381 E9.74713
G1 X145.254 Y132.082 E9.83708
G1 X145.207 Y134.015 E9.90139
G1 X145.189 Y135.284 E9.9436
G1 X145.14 Y135.927 E9.96505
G1 X145.012 Y136.558 E9.98646
G1 X144.806 Y137.169 E10.00791
G1 X144.527 Y137.75 E10.02934
G1 X144.177 Y138.292 E10.0508
G1 X143.764 Y138.787 E10.07224
G1 X143.292 Y139.226 E10.09368
G1 X142.77 Y139.604 E10.11512
G1 X142.204 Y139.914 E10.13658
G1 X141.45 Y140.2 E10.16341
G1 X140.481 Y140.483 E10.19698
G1 X139.6 Y140.726 E10.22738
G1 X136.97 Y141.534 E10.31889
G1 X136.599 Y141.654 E10.33186
G1 X135.974 Y141.814 E10.35331
G1 X135.156 Y141.905 E10.38069
G1 X134.828 Y141.915 E10.3916
G1 X134.67 Y141.917 E10.39686
G1 X123.192 Y141.916 E10.77862
G1 X122.488 Y141.906 E10.80204
G1 X121.845 Y141.857 E10.82348
G1 X121.068 Y141.688 E10.84993
G1 X120.938 Y141.649 E10.85444
G1 X118.339 Y140.893 E10.94447
G1 X115.736 Y140.215 E11.03394
G1 X113.118 Y139.611 E11.1233
G1 X110.561 Y139.095 E11.21006
G1 X110.547 Y139.094 E11.21053
G1 X107.853 Y138.631 E11.30144
G1 X105.213 Y138.255 E11.39013
G1 X102.517 Y137.948 E11.48038
G1 X99.891 Y137.724 E11.56804
G1 X97.178 Y137.57 E11.65842
G1 X94.491 Y137.493 E11.74783
G1 X93.109 Y137.483 E11.7938
G1 X92.707 Y137.483 E11.80717
G1 X91.935 Y137.472 E11.83285
G1 X91.292 Y137.423 E11.85429
G1 X90.66 Y137.295 E11.87574
G1 X90.049 Y137.089 E11.89719
G1 X89.468 Y136.81 E11.91862
G1 X88.926 Y136.461 E11.94006
G1 X88.432 Y136.047 E11.9615
G1 X87.992 Y135.575 E11.98296
G1 X87.614 Y135.053 E12.0044
G1 X87.304 Y134.488 E12.02583
G1 X87.066 Y133.889 E12.04727
G1 X86.904 Y133.265 E12.06871
G1 X86.811 Y132.414 E12.09719
G1 X86.802 Y132.082 E12.10823
G1 X86.8 Y131.941 E12.11292
G1 X86.801 Y131.39 E12.13125
G1 X86.812 Y130.69 E12.15454
G1 X86.853 Y130.112 E12.17381
G1 X87.018 Y128.825 E12.21696
G1 X87.327 Y126.101 E12.30815
G1 X87.55 Y123.474 E12.39583
G1 X87.703 Y120.761 E12.48621
G1 X87.778 Y118.091 E12.57505
G1 X87.778 Y115.415 E12.66406
G1 X87.701 Y112.735 E12.75323
G1 X87.548 Y110.032 E12.84328
G1 X87.324 Y107.402 E12.93107
G1 X87.015 Y104.688 E13.02192
G1 X86.916 Y103.974 E13.04589
G1 X86.847 Y103.4 E13.06512
G1 X86.813 Y102.955 E13.07997
G1 X86.804 Y102.653 E13.09001
G1 X86.8 Y102.244 E13.10362
G1 X86.8 Y98.913 E13.21441
G1 X86.809 Y98.224 E13.23733
G1 X86.858 Y97.581 E13.25877
G1 X86.985 Y96.949 E13.28022
G1 X87.19 Y96.338 E13.30165
G1 X87.469 Y95.757 E13.32309
G1 X87.817 Y95.214 E13.34454
G1 X88.131 Y94.838 E13.36083
G0 F1080 X88.231 Y94.719
G0 X88.702 Y94.279
G1 F1500 E7.36083
G1 F300 Z0.55
G0 F6000 X122.678 Y132.117 Z0.55
G1 F300 Z0.2
G1 F1500 E13.36083
G1 F1200 X139.4 Y132.117 E13.91701
G1 X139.4 Y132.717 E13.93696
G1 X122.878 Y132.717 E14.48649
G0 F1080 X122.678 Y132.717
G0 X122.678 Y132.117
G0 F6000 X122.278 Y131.717
G1 F1200 X139.8 Y131.717 E15.06927
G1 X139.8 Y133.117 E15.11584
G1 X122.278 Y133.117 E15.69862
G1 X122.278 Y132.517 E15.71858
G0 F1080 X122.278 Y131.717
G1 F1500 E9.71858
G1 F300 Z0.55
;MESH:2.stl
G0 F6000 X134 Y134.717 Z0.55
;TYPE:WALL-INNER
G1 F300 Z0.2
G1 F1500 E15.71858
G1 F1200 X134 Y135.717 E15.75184
G1 X123.078 Y135.717 E16.1151
G1 X123.078 Y134.717 E16.14836
G1 X133.2 Y134.717 E16.48502
G0 F1080 X134 Y134.717
G1 F1500 E10.48502
G1 F300 Z0.55
G0 F6000 X139.4 Y134.317 Z0.55
G1 F300 Z0.2
G1 F1500 E16.48502
G1 F1200 X139.4 Y134.617 E16.495
G1 X134.4 Y134.617 E16.6613
G1 X134.4 Y136.117 E16.71119
G1 X122.827 Y136.117 E17.09611
G1 X122.678 Y135.969 E17.1031
G1 X122.678 Y134.317 E17.15804
G1 X138.6 Y134.317 E17.68761
G0 F1080 X139.4 Y134.317
G0 F6000 X139.8 Y133.917
;TYPE:WALL-OUTER
G1 F1200 X139.8 Y135.017 E17.7242
G1 X134.8 Y135.017 E17.8905
G1 X134.8 Y136.517 E17.94039
G1 X122.662 Y136.517 E18.3441
G1 X122.278 Y136.134 E18.36214
G1 X122.278 Y133.917 E18.43587
G1 X139 Y133.917 E18.99205
G0 F1080 X139.8 Y133.917
G0 F6000 X139.8 Y134.317
G0 X139.36 Y134.357
G1 F1500 E12.99205
G1 F300 Z0.55
G0 F6000 X133.61 Y135.107 Z0.55
;TYPE:SKIN
G1 F300 Z0.2
G1 F1500 E18.99205
G1 F1200 X133.61 Y135.327 E18.99937
G1 X123.468 Y135.327 E19.33669
G1 X123.468 Y135.107 E19.34401
G1 X132.81 Y135.107 E19.65473
G0 F1080 X133.61 Y135.107
G1 F1500 E13.65473
G1 F300 Z0.55
G0 F6000 X132.354 Y127.169 Z0.55
;TYPE:WALL-INNER
G1 F300 Z0.2
G1 F1500 E19.65473
G1 F1200 X132.377 Y126.82 E19.66636
G1 X132.354 Y126.467 E19.67812
G1 X132.281 Y126.124 E19.68979
G1 X132.167 Y125.803 E19.70112
G1 X132 Y125.48 E19.71321
G1 X131.798 Y125.197 E19.72478
G1 X131.559 Y124.935 E19.73657
G1 X131.279 Y124.713 E19.74846
G1 X130.983 Y124.534 E19.75996
G1 X130.658 Y124.393 E19.77174
G1 X130.317 Y124.299 E19.78351
G1 X129.972 Y124.252 E19.79509
G1 X129.623 Y124.252 E19.8067
G1 X129.283 Y124.298 E19.81811
G1 X128.943 Y124.392 E19.82984
G1 X128.609 Y124.536 E19.84194
G1 X128.309 Y124.72 E19.85364
G1 X128.036 Y124.942 E19.86535
G1 X127.796 Y125.202 E19.87712
G1 X127.594 Y125.489 E19.88879
G1 X127.434 Y125.802 E19.90048
G1 X127.317 Y126.131 E19.91209
G1 X127.246 Y126.479 E19.92391
G1 X127.223 Y126.826 E19.93547
G1 X127.246 Y127.18 E19.94727
G1 X127.319 Y127.522 E19.9589
G1 X127.433 Y127.844 E19.97027
G1 X127.6 Y128.167 E19.98236
G1 X127.803 Y128.453 E19.99402
G1 X128.043 Y128.711 E20.00574
G1 X128.319 Y128.934 E20.01755
G1 X128.617 Y129.113 E20.02911
G1 X128.942 Y129.254 E20.04089
G1 X129.283 Y129.348 E20.05266
G1 X129.628 Y129.395 E20.06424
G1 X129.977 Y129.395 E20.07584
G1 X130.317 Y129.349 E20.08726
G1 X130.657 Y129.255 E20.09899
G1 X130.993 Y129.109 E20.11117
G1 X131.292 Y128.925 E20.12285
G1 X131.563 Y128.704 E20.13448
G1 X131.803 Y128.447 E20.14618
G1 X132.006 Y128.158 E20.15792
G1 X132.122 Y127.931 E20.1664
G0 F1080 X132.166 Y127.844
G0 X132.283 Y127.514
G0 X132.354 Y127.169
G0 F6000 X131.957 Y127.115
G1 F1200 X131.976 Y126.82 E20.17623
G1 X131.957 Y126.522 E20.18617
G1 X131.895 Y126.233 E20.196
G1 X131.799 Y125.962 E20.20556
G1 X131.658 Y125.689 E20.21578
G1 X131.486 Y125.449 E20.2256
G1 X131.285 Y125.228 E20.23554
G1 X131.05 Y125.042 E20.2455
G1 X130.799 Y124.89 E20.25526
G1 X130.525 Y124.771 E20.2652
G1 X130.237 Y124.692 E20.27513
G1 X129.945 Y124.652 E20.28493
G1 X129.65 Y124.652 E20.29475
G1 X129.363 Y124.691 E20.30438
G1 X129.076 Y124.77 E20.31428
G1 X128.794 Y124.892 E20.3245
G1 X128.541 Y125.047 E20.33437
G1 X128.311 Y125.234 E20.34423
G1 X128.108 Y125.454 E20.35418
G1 X127.937 Y125.696 E20.36404
G1 X127.802 Y125.961 E20.37393
G1 X127.703 Y126.239 E20.38375
G1 X127.643 Y126.532 E20.39369
G1 X127.624 Y126.826 E20.40349
G1 X127.643 Y127.125 E20.41346
G1 X127.705 Y127.413 E20.42326
G1 X127.801 Y127.685 E20.43285
G1 X127.942 Y127.958 E20.44307
G1 X128.114 Y128.2 E20.45294
G1 X128.316 Y128.418 E20.46283
G1 X128.549 Y128.605 E20.47277
G1 X128.801 Y128.757 E20.48255
G1 X129.075 Y128.876 E20.49249
G1 X129.363 Y128.955 E20.50242
G1 X129.655 Y128.995 E20.51222
G1 X129.95 Y128.995 E20.52204
G1 X130.237 Y128.956 E20.53167
G1 X130.524 Y128.877 E20.54157
G1 X130.807 Y128.754 E20.55183
G1 X131.06 Y128.598 E20.56172
G1 X131.289 Y128.411 E20.57155
G1 X131.492 Y128.194 E20.58144
G1 X131.663 Y127.951 E20.59132
G1 X131.704 Y127.87 E20.59434
G0 F1080 X131.798 Y127.686
G0 X131.897 Y127.406
G0 X131.957 Y127.115
G0 F6000 X131.56 Y127.062
;TYPE:WALL-OUTER
G1 F1200 X131.575 Y126.82 E20.6024
G1 X131.56 Y126.577 E20.6105
G1 X131.509 Y126.342 E20.6185
G1 X131.431 Y126.121 E20.62629
G1 X131.316 Y125.898 E20.63464
G1 X131.175 Y125.701 E20.6427
G1 X131.011 Y125.522 E20.65077
G1 X130.821 Y125.371 E20.65884
G1 X130.615 Y125.246 E20.66686
G1 X130.392 Y125.149 E20.67495
G1 X130.157 Y125.085 E20.68305
G1 X129.918 Y125.052 E20.69107
G1 X129.677 Y125.052 E20.69909
G1 X129.443 Y125.084 E20.70694
G1 X129.209 Y125.148 E20.71501
G1 X128.979 Y125.248 E20.72335
G1 X128.773 Y125.374 E20.73138
G1 X128.585 Y125.527 E20.73945
G1 X128.419 Y125.706 E20.74757
G1 X128.28 Y125.903 E20.75558
G1 X128.17 Y126.119 E20.76365
G1 X128.089 Y126.347 E20.77169
G1 X128.04 Y126.585 E20.77978
G1 X128.025 Y126.826 E20.78781
G1 X128.04 Y127.07 E20.79594
G1 X128.091 Y127.304 E20.8039
G1 X128.169 Y127.526 E20.81173
G1 X128.284 Y127.749 E20.82008
G1 X128.425 Y127.947 E20.82816
G1 X128.589 Y128.124 E20.83619
G1 X128.779 Y128.276 E20.84428
G1 X128.985 Y128.401 E20.85229
G1 X129.208 Y128.498 E20.86038
G1 X129.443 Y128.562 E20.86848
G1 X129.682 Y128.595 E20.87651
G1 X129.923 Y128.595 E20.88452
G1 X130.157 Y128.563 E20.89238
G1 X130.391 Y128.499 E20.90045
G1 X130.621 Y128.399 E20.90879
G1 X130.827 Y128.272 E20.91684
G1 X131.015 Y128.118 E20.92492
G1 X131.181 Y127.941 E20.93299
G1 X131.278 Y127.804 E20.93857
G0 F1080 X131.32 Y127.744
G0 X131.43 Y127.528
G0 X131.511 Y127.298
G0 X131.56 Y127.062
G0 F6000 X131.575 Y126.82
G0 X131.566 Y126.662
G0 X132.006 Y126.636
G1 F1500 E14.93857
G1 F300 Z0.55
G0 F6000 X112.763 Y124.717 Z0.55
;TYPE:WALL-INNER
G1 F300 Z0.2
G1 F1500 E20.93857
G1 F1200 X112.486 Y124.945 E20.95051
G1 X112.248 Y125.198 E20.96206
G1 X112.041 Y125.495 E20.9741
G1 X111.884 Y125.805 E20.98566
G1 X111.767 Y126.132 E20.99721
G1 X111.696 Y126.48 E21.00902
