;FLAVOR:Marlin
;TIME:3950
;Filament used: 1.46042m
;Layer height: 0.12
;MINX:94.9
;MINY:95.9
;MINZ:0.2
;MAXX:140.1
;MAXY:139.1
;MAXZ:9.79
;Generated with Cura_SteamEngine 4.7.0
M140 S60
M105
M190 S60
M104 S205
M105
M109 S205
M82 ;absolute extrusion mode
M201 X500.00 Y500.00 Z100.00 E5000.00 ;Setup machine max acceleration
M203 X500.00 Y500.00 Z10.00 E75.00 ;Setup machine max feedrate
M204 P500.00 R1000.00 T500.00 ;Setup Print/Retract/Travel acceleration
M205 X8.00 Y8.00 Z0.40 E5.00 ;Setup Jerk
M220 S100 ;Reset Feedrate
M221 S100 ;Reset Flowrate

G21 ; (metric values)
G90 ; (absolute positioning)
M82 ; (set extruder to absolute mode)
G28 ; (home all axis)
G29 ; (Auto Level)

G92 E0 ;Reset Extruder
G1 Z2.0 F3000 ;Move Z Axis up
G1 X1.1 Y50 Z0.28 F5000.0 ;Move to start position
G1 X1.1 Y200.0 Z0.28 F1500.0 E15 ;Draw the first line
G1 X1.4 Y200.0 Z0.28 F5000.0 ;Move to side a little
G1 X1.4 Y100 Z0.28 F1500.0 E30 ;Draw the second line
G92 E0 ;Reset Extruder
G1 Z2.0 F3000 ;Move Z Axis up
G92 E0
G92 E0
G1 F1500 E-6
;LAYER_COUNT:78
;LAYER:0
M107
G1 F300 Z0.55
G0 F6000 X97.017 Y100.958 Z0.55
;TYPE:SKIRT
G1 F300 Z0.2
G1 F1500 E0
G1 F1200 X97.334 Y100.671 E0.01422
G1 X97.574 Y100.47 E0.02463
G1 X98.112 Y100.072 E0.04689
G1 X98.52 Y99.83 E0.06267
G1 X98.775 Y99.693 E0.0723
G1 X99.572 Y99.341 E0.10128
G1 X100.385 Y99.056 E0.12993
G1 X101.284 Y98.758 E0.16143
G1 X103.796 Y97.846 E0.25032
G1 X106.445 Y96.798 E0.34507
G1 X107.287 Y96.45 E0.37537
G1 X107.798 Y96.267 E0.39342
G1 X108.065 Y96.186 E0.4027
G1 X109.047 Y95.982 E0.43606
G1 X109.332 Y95.949 E0.4456
G1 X109.795 Y95.915 E0.46105
G1 X110.167 Y95.903 E0.47342
G1 X110.348 Y95.9 E0.47945
G1 X132.295 Y95.9 E1.20941
G1 X133.074 Y95.911 E1.23532
G1 X133.553 Y95.938 E1.25127
G1 X133.852 Y95.968 E1.26127
G1 X134.513 Y96.074 E1.28354
G1 X134.887 Y96.172 E1.29639
G1 X135.143 Y96.248 E1.30528
G1 X135.772 Y96.476 E1.32753
G1 X136.152 Y96.658 E1.34154
G1 X136.432 Y96.805 E1.35206
G1 X137.005 Y97.151 E1.37432
G1 X137.353 Y97.41 E1.38875
G1 X137.563 Y97.58 E1.39774
G1 X138.056 Y98.032 E1.41998
G1 X138.337 Y98.343 E1.43393
G1 X138.535 Y98.58 E1.4442
G1 X138.932 Y99.118 E1.46644
G1 X139.162 Y99.505 E1.48141
G1 X139.3 Y99.76 E1.49105
G1 X139.583 Y100.366 E1.5133
G1 X139.736 Y100.807 E1.52882
G1 X139.816 Y101.072 E1.53803
G1 X140.017 Y102.039 E1.57088
G1 X140.05 Y102.321 E1.58032
G1 X140.076 Y102.601 E1.58968
G1 X140.088 Y102.839 E1.5976
G1 X140.098 Y103.186 E1.60915
G1 X140.1 Y103.347 E1.6145
G1 X140.099 Y131.875 E2.56335
G1 X140.089 Y132.573 E2.58657
G1 X140.062 Y133.048 E2.60239
G1 X140.041 Y133.259 E2.60944
G1 X139.936 Y133.919 E2.63167
G1 X139.774 Y134.497 E2.65164
G1 X139.701 Y134.713 E2.65922
G1 X139.45 Y135.333 E2.68147
G1 X139.149 Y135.882 E2.70229
G1 X139.025 Y136.081 E2.71009
G1 X138.638 Y136.626 E2.73232
G1 X138.232 Y137.079 E2.75255
G1 X138.09 Y137.221 E2.75923
G1 X137.589 Y137.665 E2.7815
G1 X137.206 Y137.94 E2.79718
G1 X137.025 Y138.059 E2.80439
G1 X136.445 Y138.393 E2.82665
G1 X135.855 Y138.645 E2.84798
G1 X135.623 Y138.729 E2.85619
G1 X134.982 Y138.919 E2.87843
G1 X134.357 Y139.027 E2.89952
G1 X134.131 Y139.053 E2.90709
G1 X133.571 Y139.089 E2.92575
G1 X132.793 Y139.1 E2.95163
G1 X110.124 Y139.099 E3.70561
G1 X109.426 Y139.089 E3.72882
G1 X108.949 Y139.062 E3.74472
G1 X108.739 Y139.041 E3.75173
G1 X108.078 Y138.935 E3.774
G1 X107.489 Y138.769 E3.79435
G1 X107.272 Y138.695 E3.80198
G1 X106.652 Y138.442 E3.82425
G1 X106.124 Y138.152 E3.84429
G1 X105.926 Y138.029 E3.85204
G1 X105.38 Y137.643 E3.87428
G1 X104.921 Y137.232 E3.89477
G1 X104.774 Y137.085 E3.90169
G1 X104.33 Y136.584 E3.92395
G1 X104.034 Y136.169 E3.94091
G1 X103.92 Y135.993 E3.94788
G1 X103.59 Y135.411 E3.97013
G1 X103.36 Y134.872 E3.98962
G1 X103.273 Y134.634 E3.99805
G1 X103.216 Y134.468 E4.00389
G1 X103.039 Y133.934 E4.0226
G1 X102.153 Y131.38 E4.11251
G1 X101.196 Y128.856 E4.20229
G1 X100.193 Y126.419 E4.28995
G1 X99.095 Y123.952 E4.37976
G1 X97.953 Y121.572 E4.46756
G1 X96.235 Y118.278 E4.59112
G1 X95.809 Y117.497 E4.62071
G1 X95.635 Y117.16 E4.63333
G1 X95.306 Y116.379 E4.66151
G1 X95.287 Y116.322 E4.66351
G1 X95.221 Y116.109 E4.67093
G1 X95.159 Y115.895 E4.67834
G1 X94.984 Y115.056 E4.70685
G1 X94.973 Y114.971 E4.7097
G1 X94.928 Y114.369 E4.72977
G1 X94.901 Y113.076 E4.77279
G1 X94.9 Y106.696 E4.98499
G1 X94.911 Y105.92 E5.0108
G1 X94.937 Y105.451 E5.02642
G1 X94.966 Y105.157 E5.03625
G1 X95.071 Y104.497 E5.05848
G1 X95.178 Y104.088 E5.07254
G1 X95.255 Y103.833 E5.0814
G1 X95.486 Y103.205 E5.10365
G1 X95.651 Y102.862 E5.11631
G1 X95.796 Y102.584 E5.12674
G1 X96.14 Y102.011 E5.14897
G1 X96.398 Y101.663 E5.16338
G1 X96.485 Y101.556 E5.16797
G0 F1080 X96.567 Y101.453
G0 X97.017 Y100.958
G0 F6000 X97.313 Y101.228
G1 F1200 X97.591 Y100.977 E5.18042
G1 X97.831 Y100.776 E5.19084
G1 X98.35 Y100.394 E5.21227
G1 X98.709 Y100.182 E5.22614
G1 X98.964 Y100.045 E5.23576
G1 X99.705 Y99.719 E5.26269
G1 X100.605 Y99.404 E5.2944
G1 X101.409 Y99.138 E5.32257
G1 X103.942 Y98.218 E5.4122
G1 X106.595 Y97.168 E5.5071
G1 X107.439 Y96.82 E5.53747
G1 X107.914 Y96.65 E5.55425
G1 X108.181 Y96.569 E5.56353
G1 X109.093 Y96.38 E5.59451
G1 X109.378 Y96.347 E5.60405
G1 X109.808 Y96.315 E5.61839
G1 X110.18 Y96.303 E5.63077
G1 X110.348 Y96.3 E5.63636
G1 X132.295 Y96.3 E6.36632
G1 X133.068 Y96.311 E6.39203
G1 X133.513 Y96.336 E6.40685
G1 X133.812 Y96.366 E6.41685
G1 X134.448 Y96.47 E6.43828
G1 X134.773 Y96.555 E6.44946
G1 X135.029 Y96.631 E6.45834
G1 X135.634 Y96.852 E6.47976
G1 X135.966 Y97.012 E6.49202
G1 X136.246 Y97.159 E6.50254
G1 X136.797 Y97.493 E6.52397
G1 X137.101 Y97.721 E6.53661
G1 X137.311 Y97.891 E6.54559
G1 X137.786 Y98.327 E6.56704
G1 X138.03 Y98.599 E6.57919
G1 X138.228 Y98.836 E6.58946
G1 X138.609 Y99.355 E6.61088
G1 X138.81 Y99.695 E6.62401
G1 X138.948 Y99.95 E6.63366
G1 X139.219 Y100.535 E6.6551
G1 X139.353 Y100.922 E6.66872
G1 X139.433 Y101.187 E6.67793
G1 X139.62 Y102.086 E6.70847
G1 X139.653 Y102.368 E6.71791
G1 X139.677 Y102.63 E6.72666
G1 X139.688 Y102.85 E6.73399
G1 X139.698 Y103.197 E6.74554
G1 X139.7 Y103.347 E6.75053
G1 X139.699 Y131.869 E7.69917
G1 X139.689 Y132.567 E7.72239
G1 X139.664 Y133.008 E7.73708
G1 X139.643 Y133.219 E7.74413
G1 X139.54 Y133.855 E7.76556
G1 X139.395 Y134.369 E7.78332
G1 X139.322 Y134.585 E7.79091
G1 X139.078 Y135.182 E7.81236
G1 X138.809 Y135.67 E7.83089
G1 X138.685 Y135.869 E7.83869
G1 X138.311 Y136.394 E7.86013
G1 X137.949 Y136.796 E7.87812
G1 X137.807 Y136.938 E7.8848
G1 X137.324 Y137.365 E7.90624
G1 X136.987 Y137.606 E7.92002
G1 X136.806 Y137.725 E7.92723
G1 X136.246 Y138.045 E7.94868
G1 X135.719 Y138.269 E7.96773
G1 X135.487 Y138.353 E7.97593
G1 X134.869 Y138.535 E7.99736
G1 X134.311 Y138.63 E8.01619
G1 X134.085 Y138.656 E8.02375
G1 X133.565 Y138.689 E8.04108
G1 X132.793 Y138.7 E8.06676
G1 X110.13 Y138.699 E8.82054
G1 X109.432 Y138.689 E8.84376
G1 X108.989 Y138.664 E8.85851
G1 X108.779 Y138.643 E8.86553
G1 X108.142 Y138.539 E8.887
G1 X107.618 Y138.391 E8.90511
G1 X107.401 Y138.317 E8.91274
G1 X106.805 Y138.071 E8.93418
G1 X106.335 Y137.812 E8.95203
G1 X106.137 Y137.689 E8.95978
G1 X105.612 Y137.316 E8.9812
G1 X105.204 Y136.949 E8.99945
G1 X105.057 Y136.802 E9.00637
G1 X104.63 Y136.319 E9.02781
G1 X104.37 Y135.952 E9.04277
G1 X104.256 Y135.776 E9.04974
G1 X103.939 Y135.214 E9.07121
G1 X103.736 Y134.734 E9.08854
G1 X103.649 Y134.496 E9.09697
G1 X103.596 Y134.343 E9.10235
G1 X103.418 Y133.804 E9.12123
G1 X102.529 Y131.244 E9.21137
G1 X101.569 Y128.71 E9.30149
G1 X100.552 Y126.24 E9.39034
G1 X99.476 Y123.824 E9.4783
G1 X98.31 Y121.393 E9.56798
G1 X96.563 Y118.043 E9.69364
G1 X96.16 Y117.305 E9.72161
G1 X95.991 Y116.978 E9.73385
G1 X95.686 Y116.252 E9.76004
G1 X95.605 Y115.998 E9.76891
G1 X95.543 Y115.784 E9.77632
G1 X95.381 Y115.004 E9.80281
G1 X95.37 Y114.919 E9.80567
G1 X95.328 Y114.361 E9.82428
G1 X95.301 Y113.068 E9.86729
G1 X95.3 Y106.696 E10.07923
G1 X95.311 Y105.926 E10.10484
G1 X95.335 Y105.491 E10.11933
G1 X95.364 Y105.197 E10.12915
G1 X95.467 Y104.56 E10.15062
G1 X95.561 Y104.204 E10.16286
G1 X95.638 Y103.949 E10.17172
G1 X95.862 Y103.344 E10.19318
G1 X96.005 Y103.047 E10.20414
G1 X96.15 Y102.769 E10.21457
G1 X96.483 Y102.217 E10.23601
G1 X96.71 Y101.914 E10.24861
G1 X96.781 Y101.825 E10.25239
G0 F1080 X96.879 Y101.704
G0 X97.313 Y101.228
G1 F1500 E4.25239
G1 F300 Z0.55
;MESH:1.stl
G0 F6000 X119.418 Y103.86 Z0.55
;TYPE:WALL-INNER
G1 F300 Z0.2
G1 F1500 E10.25239
G1 F1200 X119.183 Y104.296 E10.26887
G1 X119.044 Y104.766 E10.28517
G1 X118.995 Y105.254 E10.30148
G1 X119.045 Y105.744 E10.31786
G1 X119.187 Y106.214 E10.33419
G1 X119.42 Y106.645 E10.35049
G1 X119.731 Y107.025 E10.36682
G1 X120.11 Y107.332 E10.38304
G1 X120.546 Y107.567 E10.39952
G1 X121.016 Y107.706 E10.41582
G1 X121.504 Y107.755 E10.43213
G1 X121.994 Y107.705 E10.44851
G1 X122.464 Y107.563 E10.46484
G1 X122.895 Y107.33 E10.48114
G1 X123.275 Y107.019 E10.49747
G1 X123.582 Y106.64 E10.51369
G1 X123.817 Y106.204 E10.53017
G1 X123.956 Y105.734 E10.54647
G1 X124.005 Y105.246 E10.56278
G1 X123.955 Y104.756 E10.57916
G1 X123.813 Y104.286 E10.59549
G1 X123.58 Y103.855 E10.61179
G1 X123.269 Y103.475 E10.62812
G1 X122.89 Y103.168 E10.64434
G1 X122.454 Y102.933 E10.66082
G1 X121.984 Y102.794 E10.67712
G1 X121.496 Y102.745 E10.69343
G1 X121.006 Y102.795 E10.70981
G1 X120.536 Y102.937 E10.72614
G1 X120.105 Y103.17 E10.74244
G1 X119.967 Y103.283 E10.74837
G0 F1080 X119.725 Y103.481
G0 X119.418 Y103.86
G0 F6000 X119.752 Y104.083
G1 F1200 X119.555 Y104.449 E10.7622
G1 X119.438 Y104.843 E10.77587
G1 X119.397 Y105.254 E10.7896
G1 X119.439 Y105.665 E10.80334
G1 X119.558 Y106.059 E10.81703
G1 X119.754 Y106.421 E10.83073
G1 X120.015 Y106.74 E10.84443
G1 X120.333 Y106.998 E10.85805
G1 X120.699 Y107.195 E10.87188
G1 X121.093 Y107.312 E10.88555
G1 X121.504 Y107.353 E10.89929
G1 X121.915 Y107.311 E10.91303
G1 X122.309 Y107.192 E10.92672
G1 X122.671 Y106.996 E10.94041
G1 X122.99 Y106.735 E10.95412
G1 X123.248 Y106.417 E10.96774
G1 X123.445 Y106.051 E10.98156
G1 X123.562 Y105.657 E10.99523
G1 X123.603 Y105.246 E11.00897
G1 X123.561 Y104.835 E11.02271
G1 X123.442 Y104.441 E11.0364
G1 X123.246 Y104.079 E11.05009
G1 X122.985 Y103.76 E11.0638
G1 X122.667 Y103.502 E11.07742
G1 X122.301 Y103.305 E11.09125
G1 X121.907 Y103.188 E11.10492
G1 X121.496 Y103.147 E11.11865
G1 X121.085 Y103.189 E11.13239
G1 X120.691 Y103.308 E11.14608
G1 X120.329 Y103.504 E11.15977
G1 X120.312 Y103.518 E11.16051
G0 F1080 X120.01 Y103.765
G0 X119.752 Y104.083
G0 F6000 X120.086 Y104.306
;TYPE:WALL-OUTER
G1 F1200 X119.927 Y104.602 E11.17168
G1 X119.832 Y104.921 E11.18275
G1 X119.799 Y105.253 E11.19385
G1 X119.833 Y105.586 E11.20498
G1 X119.929 Y105.904 E11.21603
G1 X120.088 Y106.197 E11.22712
G1 X120.299 Y106.455 E11.2382
G1 X120.556 Y106.664 E11.24922
G1 X120.852 Y106.823 E11.2604
G1 X121.171 Y106.918 E11.27147
G1 X121.503 Y106.951 E11.28256
G1 X121.836 Y106.917 E11.2937
G1 X122.154 Y106.821 E11.30475
G1 X122.447 Y106.662 E11.31583
G1 X122.705 Y106.451 E11.32692
G1 X122.914 Y106.194 E11.33794
G1 X123.073 Y105.898 E11.34911
G1 X123.168 Y105.579 E11.36018
G1 X123.201 Y105.247 E11.37128
G1 X123.167 Y104.914 E11.38241
G1 X123.071 Y104.596 E11.39346
G1 X122.912 Y104.303 E11.40455
G1 X122.701 Y104.045 E11.41563
G1 X122.444 Y103.836 E11.42665
G1 X122.148 Y103.677 E11.43783
G1 X121.829 Y103.582 E11.4489
G1 X121.497 Y103.549 E11.45999
G1 X121.164 Y103.583 E11.47113
G1 X120.846 Y103.679 E11.48218
G1 X120.64 Y103.791 E11.48997
G0 F1080 X120.553 Y103.838
G0 X120.295 Y104.049
G0 X120.086 Y104.306
G0 F6000 X119.927 Y104.602
G0 X119.909 Y104.663
G0 X119.487 Y104.537
G1 F1500 E5.48997
G1 F300 Z0.55
G0 F6000 X129.373 Y127.668 Z0.55
;TYPE:WALL-INNER
G1 F300 Z0.2
G1 F1500 E11.48997
G1 F1200 X129.103 Y127.669 E11.49895
G1 X128.838 Y127.699 E11.50783
G1 X128.555 Y127.767 E11.51751
G1 X128.294 Y127.866 E11.52679
G1 X128.053 Y127.989 E11.53579
G1 X127.824 Y128.139 E11.54489
G1 X127.611 Y128.32 E11.55419
G1 X127.427 Y128.515 E11.56311
G1 X127.265 Y128.734 E11.57217
G1 X127.12 Y128.984 E11.58178
G1 X127.014 Y129.239 E11.59097
G1 X126.937 Y129.491 E11.59973
G1 X126.889 Y129.766 E11.60901
G1 X126.873 Y130.05 E11.61848
G1 X126.89 Y130.328 E11.62774
G1 X126.941 Y130.601 E11.63698
G1 X127.018 Y130.854 E11.64577
G1 X127.13 Y131.117 E11.65528
G1 X127.273 Y131.36 E11.66466
G1 X127.438 Y131.577 E11.67372
G1 X127.626 Y131.777 E11.68285
G1 X127.843 Y131.955 E11.69219
G1 X128.069 Y132.102 E11.70116
G1 X128.31 Y132.223 E11.71013
G1 X128.578 Y132.32 E11.71961
G1 X128.851 Y132.384 E11.72893
G1 X129.127 Y132.413 E11.73816
G1 X129.397 Y132.412 E11.74714
G1 X129.662 Y132.382 E11.75601
G1 X129.945 Y132.314 E11.76569
G1 X130.205 Y132.216 E11.77493
G1 X130.45 Y132.092 E11.78407
G1 X130.676 Y131.94 E11.79313
G1 X130.889 Y131.763 E11.80234
G1 X131.073 Y131.565 E11.81133
G1 X131.235 Y131.347 E11.82036
G1 X131.38 Y131.097 E11.82997
G1 X131.486 Y130.842 E11.83916
G1 X131.563 Y130.59 E11.84792
G1 X131.611 Y130.313 E11.85727
G1 X131.627 Y130.029 E11.86673
G1 X131.61 Y129.753 E11.87593
G1 X131.559 Y129.48 E11.88517
G1 X131.482 Y129.227 E11.89396
G1 X131.37 Y128.964 E11.90347
G1 X131.227 Y128.721 E11.91285
G1 X131.061 Y128.504 E11.92194
G1 X130.873 Y128.304 E11.93107
G1 X130.66 Y128.129 E11.94023
G1 X130.432 Y127.979 E11.94931
G1 X130.19 Y127.858 E11.95831
G1 X130.15 Y127.843 E11.95973
G0 F1080 X129.922 Y127.761
G0 X129.649 Y127.697
G0 X129.373 Y127.668
G0 F6000 X129.353 Y128.068
G1 F1200 X129.127 Y128.069 E11.96725
G1 X128.907 Y128.094 E11.97461
G1 X128.673 Y128.15 E11.98262
G1 X128.456 Y128.232 E11.99033
G1 X128.254 Y128.335 E11.99787
G1 X128.064 Y128.46 E12.00544
G1 X127.887 Y128.61 E12.01315
G1 X127.735 Y128.772 E12.02054
G1 X127.6 Y128.954 E12.02808
G1 X127.479 Y129.162 E12.03608
G1 X127.391 Y129.374 E12.04372
G1 X127.327 Y129.584 E12.05102
G1 X127.287 Y129.812 E12.05872
G1 X127.274 Y130.049 E12.06661
G1 X127.288 Y130.279 E12.07428
G1 X127.33 Y130.506 E12.08195
G1 X127.394 Y130.717 E12.08929
G1 X127.488 Y130.936 E12.09721
G1 X127.606 Y131.137 E12.10497
G1 X127.744 Y131.318 E12.11254
G1 X127.9 Y131.484 E12.12011
G1 X128.08 Y131.632 E12.12786
G1 X128.269 Y131.755 E12.13536
G1 X128.468 Y131.855 E12.14277
G1 X128.692 Y131.936 E12.15069
G1 X128.918 Y131.989 E12.15842
G1 X129.147 Y132.013 E12.16607
G1 X129.373 Y132.012 E12.17359
G1 X129.593 Y131.987 E12.18095
G1 X129.827 Y131.931 E12.18896
G1 X130.044 Y131.849 E12.19667
G1 X130.248 Y131.746 E12.20427
G1 X130.436 Y131.62 E12.2118
G1 X130.613 Y131.472 E12.21948
G1 X130.765 Y131.309 E12.22689
G1 X130.9 Y131.127 E12.23442
G1 X131.021 Y130.919 E12.24243
G1 X131.109 Y130.707 E12.25006
G1 X131.173 Y130.497 E12.25736
G1 X131.213 Y130.268 E12.2651
G1 X131.226 Y130.03 E12.27302
G1 X131.212 Y129.802 E12.28062
G1 X131.17 Y129.575 E12.2883
G1 X131.106 Y129.364 E12.29563
G1 X131.012 Y129.145 E12.30356
G1 X130.894 Y128.944 E12.31131
G1 X130.756 Y128.763 E12.31888
G1 X130.599 Y128.597 E12.32648
G1 X130.422 Y128.451 E12.33411
G1 X130.232 Y128.326 E12.34168
G1 X130.121 Y128.27 E12.34581
G0 F1080 X130.032 Y128.226
G0 X129.808 Y128.145
G0 X129.582 Y128.092
G0 X129.353 Y128.068
G0 F6000 X129.333 Y128.468
;TYPE:WALL-OUTER
G1 F1200 X129.151 Y128.469 E12.35187
G1 X128.976 Y128.489 E12.35772
G1 X128.79 Y128.533 E12.36408
G1 X128.618 Y128.598 E12.3702
G1 X128.456 Y128.681 E12.37625
G1 X128.304 Y128.781 E12.3823
G1 X128.163 Y128.9 E12.38844
G1 X128.043 Y129.029 E12.3943
G1 X127.934 Y129.175 E12.40036
G1 X127.838 Y129.34 E12.40671
G1 X127.768 Y129.509 E12.41279
G1 X127.717 Y129.677 E12.41863
G1 X127.685 Y129.858 E12.42475
G1 X127.675 Y130.048 E12.43107
