;FLAVOR:Marlin
;TIME:12909
;Filament used: 4.94593m
;Layer height: 0.12
;MINX:86.094
;MINY:93.319
;MINZ:0.2
;MAXX:147.4
;MAXY:141.626
;MAXZ:43.75
;Generated with Cura_SteamEngine 4.7.0
M140 S60
M105
M190 S60
M104 S205
M105
M109 S205
M82 ;absolute extrusion mode
M201 X500.00 Y500.00 Z100.00 E5000.00 ;Setup machine max acceleration
M203 X500.00 Y500.00 Z10.00 E75.00 ;Setup machine max feedrate
M204 P500.00 R1000.00 T500.00 ;Setup Print/Retract/Travel acceleration
M205 X8.00 Y8.00 Z0.40 E5.00 ;Setup Jerk
M220 S100 ;Reset Feedrate
M221 S100 ;Reset Flowrate

G21 ; (metric values)
G90 ; (absolute positioning)
M82 ; (set extruder to absolute mode)
G28 ; (home all axis)
G29 ; (Auto Level)

G92 E0 ;Reset Extruder
G1 Z2.0 F3000 ;Move Z Axis up
G1 X1.1 Y50 Z0.28 F5000.0 ;Move to start position
G1 X1.1 Y200.0 Z0.28 F1500.0 E15 ;Draw the first line
G1 X1.4 Y200.0 Z0.28 F5000.0 ;Move to side a little
G1 X1.4 Y100 Z0.28 F1500.0 E30 ;Draw the second line
G92 E0 ;Reset Extruder
G1 Z2.0 F3000 ;Move Z Axis up
G92 E0
G92 E0
G1 F1500 E-6
;LAYER_COUNT:361
;LAYER:0
M107
G1 F300 Z0.55
G0 F6000 X90.863 Y113.658 Z0.55
;TYPE:SKIRT
G1 F300 Z0.2
G1 F1500 E0
G1 F1200 X91.71 Y112.994 E0.0358
G1 X92.289 Y112.553 E0.06
G1 X94.392 Y110.857 E0.14986
G1 X96.407 Y109.135 E0.23802
G1 X97.443 Y108.211 E0.28419
G1 X109.552 Y97.256 E0.8273
G1 X110.534 Y96.399 E0.87065
G1 X110.764 Y96.209 E0.88057
G1 X110.916 Y96.09 E0.88699
G1 X111.084 Y95.963 E0.894
G1 X111.352 Y95.769 E0.905
G1 X111.556 Y95.628 E0.91325
G1 X111.805 Y95.464 E0.92317
G1 X112.007 Y95.336 E0.93112
G1 X112.335 Y95.14 E0.94383
G1 X112.543 Y95.022 E0.95178
G1 X112.835 Y94.866 E0.96279
G1 X113.011 Y94.775 E0.96938
G1 X113.355 Y94.611 E0.98206
G1 X114.003 Y94.33 E1.00555
G1 X114.341 Y94.196 E1.01764
G1 X114.604 Y94.103 E1.02692
G1 X114.815 Y94.032 E1.03433
G1 X114.977 Y93.981 E1.03998
G1 X115.175 Y93.921 E1.04686
G1 X115.345 Y93.872 E1.05274
G1 X115.624 Y93.797 E1.06235
G1 X115.797 Y93.754 E1.06828
G1 X116.12 Y93.679 E1.07931
G1 X116.191 Y93.664 E1.08172
G1 X116.427 Y93.619 E1.08971
G1 X117.002 Y93.523 E1.1091
G1 X117.309 Y93.481 E1.11941
G1 X117.653 Y93.443 E1.13092
G1 X117.994 Y93.416 E1.1423
G1 X118.443 Y93.394 E1.15725
G1 X118.635 Y93.388 E1.16364
G1 X119.669 Y93.373 E1.19803
G1 X136.161 Y93.373 E1.74656
G1 X138.97 Y93.332 E1.84
G1 X139.092 Y93.328 E1.84405
G1 X139.268 Y93.325 E1.84991
G1 X139.782 Y93.325 E1.86701
G1 X140.768 Y93.319 E1.8998
G1 X141.577 Y93.326 E1.92671
G1 X142.245 Y93.372 E1.94898
G1 X142.902 Y93.497 E1.97122
G1 X143.54 Y93.699 E1.99348
G1 X144.328 Y94.076 E2.02254
G1 X144.581 Y94.222 E2.03225
G1 X145.139 Y94.59 E2.05448
G1 X145.75 Y95.12 E2.08138
G1 X146.194 Y95.621 E2.10365
G1 X146.575 Y96.171 E2.1259
G1 X146.888 Y96.762 E2.14815
G1 X147.128 Y97.386 E2.17038
G1 X147.292 Y98.035 E2.19265
G1 X147.387 Y98.893 E2.22136
G1 X147.398 Y99.249 E2.23321
G1 X147.4 Y99.407 E2.23846
G1 X147.399 Y101.443 E2.30618
G1 X147.39 Y102.11 E2.32837
G1 X147.302 Y105.147 E2.42942
G1 X147.302 Y107.801 E2.51769
G1 X147.35 Y109.51 E2.57456
G1 X147.349 Y109.556 E2.57609
G1 X147.398 Y111.24 E2.63212
G1 X147.4 Y111.404 E2.63757
G1 X147.399 Y113.412 E2.70436
G1 X147.389 Y114.141 E2.72861
G1 X147.34 Y114.808 E2.75085
G1 X147.212 Y115.465 E2.77312
G1 X147.006 Y116.101 E2.79535
G1 X146.726 Y116.709 E2.81762
G1 X146.375 Y117.279 E2.83988
G1 X145.959 Y117.802 E2.86211
G1 X145.375 Y118.366 E2.88911
G1 X145.327 Y118.406 E2.89119
G1 X145.005 Y118.655 E2.90473
G1 X144.345 Y119.127 E2.93171
G1 X143.296 Y119.857 E2.97422
G1 X141.126 Y121.461 E3.06397
G1 X139.017 Y123.114 E3.1531
G1 X136.971 Y124.811 E3.24151
G1 X134.988 Y126.556 E3.32936
G1 X132.996 Y128.409 E3.41985
G1 X131.126 Y130.248 E3.50708
G1 X129.256 Y132.198 E3.59694
G1 X127.471 Y134.166 E3.68531
G1 X125.742 Y136.186 E3.77375
G1 X123.956 Y138.396 E3.86826
G1 X123.194 Y139.369 E3.90936
G1 X122.724 Y139.896 E3.93285
G1 X122.627 Y139.992 E3.93739
G1 X122.124 Y140.434 E3.95966
G1 X121.573 Y140.812 E3.98188
G1 X120.98 Y141.122 E4.00414
G1 X120.354 Y141.358 E4.02639
G1 X119.704 Y141.519 E4.04866
G1 X118.877 Y141.609 E4.07633
G1 X118.608 Y141.617 E4.08528
G1 X118.127 Y141.622 E4.10128
G1 X92.509 Y141.626 E4.95334
G1 X91.721 Y141.615 E4.97955
G1 X91.054 Y141.566 E5.00179
G1 X90.397 Y141.437 E5.02406
G1 X89.761 Y141.231 E5.0463
G1 X89.153 Y140.951 E5.06856
G1 X88.584 Y140.6 E5.0908
G1 X87.861 Y139.996 E5.12213
G1 X87.765 Y139.901 E5.12663
G1 X87.318 Y139.403 E5.14888
G1 X86.934 Y138.855 E5.17114
G1 X86.618 Y138.266 E5.19337
G1 X86.375 Y137.643 E5.21561
G1 X86.208 Y136.995 E5.23787
G1 X86.108 Y136.131 E5.2668
G1 X86.098 Y135.815 E5.27731
G1 X86.094 Y135.345 E5.29295
G1 X86.094 Y121.056 E5.7682
G1 X86.104 Y120.351 E5.79165
G1 X86.153 Y119.683 E5.81393
G1 X86.282 Y119.027 E5.83616
G1 X86.488 Y118.39 E5.85843
G1 X86.768 Y117.783 E5.88066
G1 X87.119 Y117.213 E5.90293
G1 X87.535 Y116.69 E5.92516
G1 X87.824 Y116.391 E5.93899
G1 X88.075 Y116.15 E5.95056
G1 X88.196 Y116.037 E5.95607
G1 X90.067 Y114.344 E6.03999
G1 X90.627 Y113.853 E6.06476
G1 X90.863 Y113.658 E6.07494
G0 F6000 X91.11 Y113.973
G1 F1200 X91.953 Y113.312 E6.11057
G1 X92.52 Y112.88 E6.13428
G1 X94.658 Y111.156 E6.22563
G1 X96.7 Y109.411 E6.31497
G1 X97.682 Y108.534 E6.35876
G1 X109.815 Y97.557 E6.90295
G1 X110.797 Y96.7 E6.9463
G1 X111.01 Y96.524 E6.95549
G1 X111.162 Y96.405 E6.96191
G1 X111.319 Y96.287 E6.96844
G1 X111.587 Y96.093 E6.97945
G1 X111.776 Y95.962 E6.9871
G1 X112.025 Y95.798 E6.99701
G1 X112.219 Y95.675 E7.00465
G1 X112.539 Y95.484 E7.01705
G1 X112.733 Y95.374 E7.02447
G1 X113.019 Y95.221 E7.03525
G1 X113.195 Y95.13 E7.04184
G1 X113.514 Y94.978 E7.0536
G1 X114.162 Y94.697 E7.07709
G1 X114.476 Y94.573 E7.08832
G1 X114.635 Y94.516 E7.09393
G1 X114.943 Y94.412 E7.10475
G1 X115.093 Y94.363 E7.11
G1 X115.291 Y94.303 E7.11688
G1 X115.449 Y94.258 E7.12234
G1 X115.728 Y94.183 E7.13195
G1 X115.888 Y94.143 E7.13744
G1 X116.203 Y94.07 E7.14819
G1 X116.274 Y94.055 E7.1506
G1 X116.493 Y94.014 E7.15801
G1 X117.068 Y93.918 E7.1774
G1 X117.353 Y93.878 E7.18698
G1 X117.697 Y93.84 E7.19849
G1 X118.014 Y93.815 E7.20906
G1 X118.463 Y93.793 E7.22401
G1 X118.641 Y93.788 E7.22994
G1 X119.669 Y93.773 E7.26413
G1 X136.167 Y93.773 E7.81286
G1 X138.989 Y93.732 E7.90673
G1 X139.105 Y93.728 E7.91059
G1 X139.268 Y93.725 E7.91601
G1 X139.784 Y93.725 E7.93317
G1 X140.765 Y93.719 E7.9658
G1 X141.574 Y93.726 E7.99271
G1 X142.217 Y93.772 E8.01415
G1 X142.85 Y93.896 E8.0356
G1 X143.462 Y94.099 E8.05705
G1 X144.128 Y94.422 E8.08167
G1 X144.381 Y94.568 E8.09138
G1 X144.918 Y94.924 E8.11281
G1 X145.467 Y95.403 E8.13705
G1 X145.894 Y95.886 E8.15849
G1 X146.257 Y96.419 E8.17994
G1 X146.552 Y96.992 E8.20137
G1 X146.774 Y97.597 E8.22281
G1 X146.919 Y98.225 E8.24424
G1 X146.987 Y98.907 E8.26704
G1 X146.998 Y99.254 E8.27859
G1 X147 Y99.412 E8.28384
G1 X147 Y101.437 E8.35119
G1 X146.991 Y102.104 E8.37338
G1 X146.987 Y102.246 E8.37811
G1 X146.979 Y102.442 E8.38463
G1 X146.902 Y105.136 E8.47427
G1 X146.902 Y107.812 E8.56327
G1 X146.95 Y109.521 E8.62014
G1 X146.948 Y109.565 E8.6216
G1 X146.998 Y111.251 E8.6777
G1 X147 Y111.404 E8.68279
G1 X147 Y113.406 E8.74938
G1 X146.99 Y114.135 E8.77363
G1 X146.941 Y114.778 E8.79508
G1 X146.813 Y115.41 E8.81652
G1 X146.608 Y116.021 E8.83796
G1 X146.328 Y116.602 E8.85941
G1 X145.979 Y117.144 E8.88085
G1 X145.566 Y117.639 E8.90229
G1 X145.119 Y118.059 E8.92269
G1 X145.071 Y118.099 E8.92477
G1 X144.772 Y118.33 E8.93734
G1 X144.117 Y118.799 E8.96413
G1 X143.036 Y119.552 E9.00795
G1 X140.893 Y121.135 E9.09656
G1 X138.777 Y122.792 E9.18595
G1 X136.717 Y124.501 E9.27498
G1 X134.697 Y126.279 E9.36448
G1 X132.725 Y128.114 E9.45408
G1 X130.839 Y129.969 E9.54206
G1 X128.972 Y131.916 E9.63178
G1 X127.17 Y133.903 E9.721
G1 X125.428 Y135.937 E9.81007
G1 X123.628 Y138.165 E9.90533
G1 X122.879 Y139.122 E9.94575
G1 X122.443 Y139.612 E9.96757
G1 X122.346 Y139.708 E9.97211
G1 X121.86 Y140.132 E9.99356
G1 X121.326 Y140.493 E10.015
G1 X120.751 Y140.785 E10.03645
G1 X120.145 Y141.004 E10.05788
G1 X119.516 Y141.146 E10.07933
G1 X118.864 Y141.209 E10.10111
G1 X118.603 Y141.217 E10.1098
G1 X118.127 Y141.222 E10.12563
G1 X92.509 Y141.226 E10.97769
G1 X91.727 Y141.215 E11.0037
G1 X91.084 Y141.166 E11.02515
G1 X90.452 Y141.038 E11.0466
G1 X89.841 Y140.833 E11.06803
G1 X89.26 Y140.553 E11.08948
G1 X88.718 Y140.204 E11.11092
G1 X88.142 Y139.712 E11.13612
G1 X88.046 Y139.617 E11.14061
G1 X87.617 Y139.136 E11.16205
G1 X87.251 Y138.606 E11.18347
G1 X86.953 Y138.034 E11.20492
G1 X86.728 Y137.43 E11.22636
G1 X86.579 Y136.803 E11.24779
G1 X86.508 Y136.116 E11.27077
G1 X86.498 Y135.811 E11.28092
G1 X86.494 Y135.345 E11.29642
G1 X86.494 Y121.061 E11.7715
G1 X86.504 Y120.356 E11.79495
G1 X86.553 Y119.713 E11.8164
G1 X86.681 Y119.082 E11.83782
G1 X86.886 Y118.471 E11.85925
G1 X87.166 Y117.89 E11.8807
G1 X87.515 Y117.348 E11.90214
G1 X88.102 Y116.679 E11.93175
G1 X88.353 Y116.438 E11.94332
G1 X88.464 Y116.334 E11.94838
G1 X90.331 Y114.645 E12.03212
G1 X90.891 Y114.154 E12.05689
G1 X91.11 Y113.973 E12.06634
G1 F1500 E6.06634
G1 F300 Z0.55
G0 F6000 X140.221 Y99.925 Z0.55
G1 F300 Z0.2
G1 F1500 E12.06634
G1 F1200 X140.403 Y99.922 E12.07239
G1 X140.466 Y99.93 E12.0745
G1 X140.8 Y99.938 E12.08561
G1 X140.8 Y101.074 E12.1234
G1 X140.221 Y101.074 E12.14266
G1 X140.221 Y99.925 E12.18087
G0 F6000 X140.092 Y99.527
G1 F1200 X140.434 Y99.521 E12.19225
G1 X140.475 Y99.53 E12.19364
G1 X140.909 Y99.539 E12.20808
G1 X141.2 Y99.529 E12.21777
G1 X141.2 Y101.474 E12.28246
G1 X139.821 Y101.474 E12.32832
G1 X139.821 Y99.525 E12.39315
G1 X140.092 Y99.527 E12.40216
G0 F6000 X140.085 Y99.127
G1 F1200 X140.434 Y99.121 E12.41377
G1 X140.484 Y99.13 E12.41546
G1 X140.884 Y99.139 E12.42877
G1 X141.502 Y99.118 E12.44933
G1 X141.6 Y99.177 E12.45314
G1 X141.6 Y101.874 E12.54284
G1 X139.421 Y101.874 E12.61532
G1 X139.421 Y99.122 E12.70685
G1 X140.085 Y99.127 E12.72893
G1 F1500 E6.72893
G1 F300 Z0.55
G0 F6000 X139.421 Y111.274 Z0.55
G1 F300 Z0.2
G1 F1500 E12.72893
G1 F1200 X141.6 Y111.274 E12.80141
G1 X141.6 Y113.967 E12.89098
G1 X141.519 Y114.015 E12.89411
G1 X141.356 Y113.983 E12.89963
G1 X141.222 Y114.003 E12.90414
G1 X141.13 Y114.053 E12.90762
G1 X141.056 Y114.042 E12.91011
G1 X140.294 Y114.023 E12.93546
G1 X139.421 Y114.023 E12.9645
G1 X139.421 Y111.274 E13.05593
G0 F6000 X139.821 Y111.674
G1 F1200 X141.2 Y111.674 E13.1018
G1 X141.2 Y113.593 E13.16562
G1 X141.059 Y113.642 E13.17059
G1 X140.304 Y113.623 E13.19571
G1 X139.821 Y113.623 E13.21177
G1 X139.821 Y111.674 E13.2766
G0 F6000 X140.221 Y112.074
G1 F1200 X140.8 Y112.074 E13.29585
G1 X140.8 Y113.235 E13.33447
G1 X140.314 Y113.223 E13.35064
G1 X140.221 Y113.223 E13.35373
G1 X140.221 Y112.074 E13.39195
G1 F1500 E7.39195
G1 F300 Z0.55
G0 F6000 X106.966 Y126.883 Z0.55
G1 F300 Z0.2
G1 F1500 E13.39195
G1 F1200 X106.967 Y127.636 E13.41699
G1 X107.006 Y127.755 E13.42116
G1 X107.167 Y127.836 E13.42715
G1 X107.443 Y127.836 E13.43633
G1 X107.443 Y127.876 E13.43766
G1 X106.402 Y127.876 E13.47228
G1 X106.603 Y127.675 E13.48174
G1 X106.662 Y127.534 E13.48682
G1 X106.662 Y126.948 E13.50631
G1 X106.767 Y126.932 E13.50985
G1 X106.966 Y126.883 E13.51666
G1 F1500 E7.51666
G1 F300 Z0.55
;MESH:3.stl
G0 F6000 X109.959 Y126.636 Z0.55
;TYPE:WALL-INNER
G1 F300 Z0.2
G1 F1500 E13.51666
G1 F1200 X110.15 Y126.468 E13.52512
G1 X110.557 Y126.036 E13.54486
G1 X110.65 Y125.919 E13.54983
G1 X110.929 Y125.559 E13.56498
G1 X111.252 Y125.048 E13.58509
G1 X111.507 Y124.546 E13.60382
G1 X114.697 Y117.402 E13.86404
G1 X114.851 Y117.074 E13.87609
G1 X114.851 Y105.221 E14.27032
G1 X113.417 Y105.021 E14.31848
G1 X112.854 Y105.056 E14.33724
G1 X112.686 Y105.096 E14.34299
G1 X112.304 Y105.194 E14.3561
G1 X112.149 Y105.262 E14.36173
G1 X111.766 Y105.44 E14.37578
G1 X111.357 Y105.74 E14.39265
G1 X93.062 Y122.524 E15.21842
G1 X93.062 Y129.066 E15.43601
G1 X98.566 Y129.066 E15.61907
G1 X98.919 Y129.261 E15.63248
G1 X99.457 Y129.428 E15.65122
G1 X99.803 Y129.462 E15.66278
G1 X99.915 Y129.476 E15.66654
G1 X111.84 Y129.476 E16.06316
G1 X112.396 Y129.449 E16.08168
G1 X112.856 Y129.381 E16.09715
G1 X112.957 Y129.372 E16.10052
G1 X113.428 Y129.255 E16.11666
G1 X113.57 Y129.223 E16.1215
G1 X113.969 Y129.081 E16.13559
G1 X114.851 Y128.783 E16.16655
G1 X114.851 Y123.673 E16.33651
G1 X112.872 Y123.248 E16.40383
G1 X111.544 Y126.225 E16.51225
G1 X111.544 Y126.636 E16.52592
G1 X109.959 Y126.636 E16.57864
G0 F6000 X109.872 Y126.18
G1 F1200 X110.254 Y125.774 E16.59718
G1 X110.335 Y125.672 E16.60151
G1 X110.601 Y125.329 E16.61595
G1 X110.904 Y124.85 E16.6348
G1 X111.146 Y124.374 E16.65256
G1 X114.335 Y117.232 E16.91271
G1 X114.451 Y116.985 E16.92179
G1 X114.451 Y105.569 E17.30149
G1 X113.402 Y105.423 E17.33671
G1 X112.913 Y105.453 E17.35301
G1 X112.782 Y105.484 E17.35748
G1 X112.435 Y105.573 E17.3694
G1 X112.314 Y105.626 E17.37379
G1 X111.971 Y105.786 E17.38638
G1 X111.611 Y106.05 E17.40123
G1 X93.462 Y122.7 E18.22041
G1 X93.462 Y128.666 E18.41884
G1 X98.669 Y128.666 E18.59202
G1 X99.077 Y128.891 E18.60752
G1 X99.537 Y129.034 E18.62354
G1 X99.853 Y129.065 E18.6341
G1 X99.94 Y129.076 E18.63702
G1 X111.83 Y129.076 E19.03248
G1 X112.357 Y129.05 E19.05003
G1 X112.81 Y128.983 E19.06526
G1 X112.891 Y128.976 E19.06797
G1 X113.339 Y128.865 E19.08332
G1 X113.458 Y128.838 E19.08738
G1 X113.841 Y128.702 E19.10089
G1 X114.451 Y128.496 E19.12231
G1 X114.451 Y123.996 E19.27198
G1 X113.105 Y123.707 E19.31777
G1 X111.944 Y126.31 E19.41256
G1 X111.944 Y127.036 E19.43671
G1 X108.724 Y127.036 E19.54381
G1 X108.988 Y126.882 E19.55397
G1 X109.449 Y126.552 E19.57283
G1 X109.872 Y126.18 E19.59157
G0 F6000 X108.92 Y126.805
G0 X108.77 Y126.546
;TYPE:WALL-OUTER
G1 F1200 X109.2 Y126.238 E19.60916
G1 X109.594 Y125.892 E19.6266
G1 X109.951 Y125.512 E19.64394
G1 X110.02 Y125.425 E19.64763
G1 X110.274 Y125.097 E19.66143
G1 X110.333 Y125.006 E19.66504
G1 X110.556 Y124.652 E19.67895
G1 X110.785 Y124.202 E19.69575
G1 X113.973 Y117.062 E19.95582
G1 X114.051 Y116.896 E19.96192
G1 X114.051 Y105.917 E20.32708
G1 X113.386 Y105.825 E20.34941
G1 X112.971 Y105.85 E20.36324
G1 X112.877 Y105.872 E20.36645
G1 X112.566 Y105.952 E20.37713
G1 X112.479 Y105.99 E20.38029
G1 X112.176 Y106.132 E20.39142
G1 X111.865 Y106.36 E20.40425
G1 X93.862 Y122.876 E21.21683
G1 X93.862 Y128.266 E21.39611
G1 X98.81 Y128.266 E21.56068
G1 X98.882 Y128.327 E21.56382
G1 X99.234 Y128.521 E21.57718
G1 X99.617 Y128.64 E21.59052
G1 X99.905 Y128.668 E21.60015
G1 X99.966 Y128.676 E21.60219
G1 X111.82 Y128.676 E21.99646
G1 X112.318 Y128.651 E22.01304
G1 X112.767 Y128.585 E22.02814
G1 X112.826 Y128.58 E22.03011
G1 X113.25 Y128.475 E22.04463
G1 X113.346 Y128.453 E22.04791
G1 X113.713 Y128.323 E22.06086
G1 X114.051 Y128.209 E22.07272
G1 X114.051 Y124.319 E22.20211
G1 X113.338 Y124.166 E22.22636
G1 X112.344 Y126.395 E22.30753
G1 X112.344 Y127.436 E22.34216
G1 X108.243 Y127.436 E22.47856
G1 X108.243 Y126.845 E22.49822
G1 X108.322 Y126.807 E22.50113
G1 X108.77 Y126.546 E22.51838
G0 F6000 X109.095 Y126.313
G0 X109.351 Y126.672
G0 X111.362 Y126.454
G0 X112.768 Y123.042
G0 X115.03 Y123.528
G0 X115.029 Y128.911
G0 X92.876 Y129.248
G0 X92.876 Y134.844
G0 X117.611 Y134.84
G0 X117.611 Y128.998
G0 X116.545 Y128.998
G0 X116.545 Y118.215
G0 X115.122 Y118.115
G0 X119.665 Y113.301
G0 X136.722 Y112.992
G0 X136.722 Y112.256
G0 X122.238 Y112.256
G0 X122.238 Y110.756
G0 X120.416 Y110.272
;TYPE:WALL-INNER
G1 F1200 X120.913 Y110.441 E22.53584
G1 X121.425 Y110.544 E22.55321
G1 X121.918 Y110.574 E22.56963
G1 X122.42 Y110.574 E22.58633
G1 X122.42 Y112.074 E22.63622
G1 X136.904 Y112.074 E23.11796
G1 X136.904 Y113.174 E23.15455
