;FLAVOR:Marlin
;TIME:2878
;Filament used: 6.06988m
;Layer height: 0.4
;MINX:60.65
;MINY:58.15
;MINZ:0.4
;MAXX:159.35
;MAXY:176.85
;MAXZ:1.2
;Generated with Cura_SteamEngine 4.4.1
M140 S60
M105
M190 S60
M104 S215
M105
M109 S215
M82 ;absolute extrusion mode
M201 X500.00 Y500.00 Z100.00 E5000.00 ;Setup machine max acceleration
M203 X500.00 Y500.00 Z10.00 E75.00 ;Setup machine max feedrate
M204 P500.00 R1000.00 T500.00 ;Setup Print/Retract/Travel acceleration
M205 X8.00 Y8.00 Z0.40 E5.00 ;Setup Jerk
M220 S100 ;Reset Feedrate
M221 S100 ;Reset Flowrate

G21 ; (metric values)
G90 ; (absolute positioning)
M82 ; (set extruder to absolute mode)
G28 ; (home all axis)
G29 ; (Auto Level)

G92 E0 ;Reset Extruder
G1 Z2.0 F3000 ;Move Z Axis up
G1 X1.1 Y50 Z0.28 F5000.0 ;Move to start position
G1 X1.1 Y200.0 Z0.28 F1500.0 E15 ;Draw the first line
G1 X1.4 Y200.0 Z0.28 F5000.0 ;Move to side a little
G1 X1.4 Y100 Z0.28 F1500.0 E30 ;Draw the second line
G92 E0 ;Reset Extruder
G1 Z2.0 F3000 ;Move Z Axis up
G92 E0
G92 E0
G1 F3000 E-6
;LAYER_COUNT:3
;LAYER:0
M107
G1 F300 Z0.8
;MESH:boden.stl
G0 F6000 X61.45 Y58.95 Z0.8
;TYPE:WALL-INNER
G1 F300 Z0.4
G1 F3000 E0
G1 F900 X158.55 Y58.95 E13.1766
G1 X158.55 Y176.05 E29.06723
G1 X61.45 Y176.05 E42.24383
G1 X61.45 Y58.95 E58.13446
G0 F6000 X61.52 Y59.02
G0 X60.65 Y58.15
;TYPE:WALL-OUTER
G1 F900 X159.35 Y58.15 E71.52818
G1 X159.35 Y176.85 E87.63593
G1 X60.65 Y176.85 E101.02966
G1 X60.65 Y58.15 E117.13741
G0 F6000 X60.85 Y58.15
G0 X61.53 Y59.03
G0 X61.53 Y59.05
G0 X62.24 Y59.74
;TYPE:SKIN
G1 F900 X157.76 Y59.74 E130.0996
G1 X157.76 Y175.26 E145.77582
G1 X62.24 Y175.26 E158.73801
G1 X62.24 Y59.74 E174.41423
G0 F6000 X157.44 Y61.273
G1 F900 X156.226 Y60.06 E174.64712
G0 F6000 X155.095 Y60.06
G1 F900 X157.44 Y62.405 E175.09715
G0 F6000 X157.44 Y63.536
G1 F900 X153.964 Y60.06 E175.76423
G0 F6000 X152.832 Y60.06
G1 F900 X157.44 Y64.667 E176.64846
G0 F6000 X157.44 Y65.799
G1 F900 X151.701 Y60.06 E177.74983
G0 F6000 X150.569 Y60.06
G1 F900 X157.44 Y66.93 E179.06835
G0 F6000 X157.44 Y68.061
G1 F900 X149.438 Y60.06 E180.60393
G0 F6000 X148.307 Y60.06
G1 F900 X157.44 Y69.193 E182.35665
G0 F6000 X157.44 Y70.324
G1 F900 X147.175 Y60.06 E184.32652
G0 F6000 X146.044 Y60.06
G1 F900 X157.44 Y71.455 E186.51343
G0 F6000 X157.44 Y72.587
G1 F900 X144.913 Y60.06 E188.9175
G0 F6000 X143.781 Y60.06
G1 F900 X157.44 Y73.718 E191.53871
G0 F6000 X157.44 Y74.85
G1 F900 X142.65 Y60.06 E194.37707
G0 F6000 X141.518 Y60.06
G1 F900 X157.44 Y75.981 E197.43258
G0 F6000 X157.44 Y77.112
G1 F900 X140.387 Y60.06 E200.70513
G0 F6000 X139.256 Y60.06
G1 F900 X157.44 Y78.244 E204.19484
G0 F6000 X157.44 Y79.375
G1 F900 X138.124 Y60.06 E207.90169
G0 F6000 X136.993 Y60.06
G1 F900 X157.44 Y80.506 E211.82559
G0 F6000 X157.44 Y81.638
G1 F900 X135.862 Y60.06 E215.96664
G0 F6000 X134.73 Y60.06
G1 F900 X157.44 Y82.769 E220.32484
G0 F6000 X157.44 Y83.901
G1 F900 X133.599 Y60.06 E224.90018
G0 F6000 X132.467 Y60.06
G1 F900 X157.44 Y85.032 E229.69267
G0 F6000 X157.44 Y86.163
G1 F900 X131.336 Y60.06 E234.70221
G0 F6000 X130.205 Y60.06
G1 F900 X157.44 Y87.295 E239.9289
G0 F6000 X157.44 Y88.426
G1 F900 X129.073 Y60.06 E245.37273
G0 F6000 X127.942 Y60.06
G1 F900 X157.44 Y89.557 E251.03362
G0 F6000 X157.44 Y90.689
G1 F900 X126.811 Y60.06 E256.91165
G0 F6000 X125.679 Y60.06
G1 F900 X157.44 Y91.82 E263.00683
G0 F6000 X157.44 Y92.952
G1 F900 X124.548 Y60.06 E269.31915
G0 F6000 X123.417 Y60.06
G1 F900 X157.44 Y94.083 E275.84853
G0 F6000 X157.44 Y95.214
G1 F900 X122.285 Y60.06 E282.59506
G0 F6000 X121.154 Y60.06
G1 F900 X157.44 Y96.346 E289.55873
G0 F6000 X157.44 Y97.477
G1 F900 X120.022 Y60.06 E296.73955
G0 F6000 X118.891 Y60.06
G1 F900 X157.44 Y98.608 E304.13742
G0 F6000 X157.44 Y99.74
G1 F900 X117.76 Y60.06 E311.75243
G0 F6000 X116.628 Y60.06
G1 F900 X157.44 Y100.871 E319.58459
G0 F6000 X157.44 Y102.002
G1 F900 X115.497 Y60.06 E327.63381
G0 F6000 X114.366 Y60.06
G1 F900 X157.44 Y103.134 E335.90017
G0 F6000 X157.44 Y104.265
G1 F900 X113.234 Y60.06 E344.38368
G0 F6000 X112.103 Y60.06
G1 F900 X157.44 Y105.397 E353.08433
G0 F6000 X157.44 Y106.528
G1 F900 X110.971 Y60.06 E362.00214
G0 F6000 X109.84 Y60.06
G1 F900 X157.44 Y107.659 E371.13699
G0 F6000 X157.44 Y108.791
G1 F900 X108.709 Y60.06 E380.48899
G0 F6000 X107.577 Y60.06
G1 F900 X157.44 Y109.922 E390.05813
G0 F6000 X157.44 Y111.053
G1 F900 X106.446 Y60.06 E399.84433
G0 F6000 X105.315 Y60.06
G1 F900 X157.44 Y112.185 E409.84768
G0 F6000 X157.44 Y113.316
G1 F900 X104.183 Y60.06 E420.06817
G0 F6000 X103.052 Y60.06
G1 F900 X157.44 Y114.448 E430.50581
G0 F6000 X157.44 Y115.579
G1 F900 X101.92 Y60.06 E441.16059
G0 F6000 X100.789 Y60.06
G1 F900 X157.44 Y116.71 E452.03243
G0 F6000 X157.44 Y117.842
G1 F900 X99.658 Y60.06 E463.12141
G0 F6000 X98.526 Y60.06
G1 F900 X157.44 Y118.973 E474.42754
G0 F6000 X157.44 Y120.104
G1 F900 X97.395 Y60.06 E485.95073
G0 F6000 X96.264 Y60.06
G1 F900 X157.44 Y121.236 E497.69105
G0 F6000 X157.44 Y122.367
G1 F900 X95.132 Y60.06 E509.64853
G0 F6000 X94.001 Y60.06
G1 F900 X157.44 Y123.499 E521.82315
G0 F6000 X157.44 Y124.63
G1 F900 X92.869 Y60.06 E534.21492
G0 F6000 X91.738 Y60.06
G1 F900 X157.44 Y125.761 E546.82374
G0 F6000 X157.44 Y126.893
G1 F900 X90.607 Y60.06 E559.64971
G0 F6000 X89.475 Y60.06
G1 F900 X157.44 Y128.024 E572.69282
G0 F6000 X157.44 Y129.155
G1 F900 X88.344 Y60.06 E585.95299
G0 F6000 X87.213 Y60.06
G1 F900 X157.44 Y130.287 E599.4303
G0 F6000 X157.44 Y131.418
G1 F900 X86.081 Y60.06 E613.12476
G0 F6000 X84.95 Y60.06
G1 F900 X157.44 Y132.549 E627.03627
G0 F6000 X157.44 Y133.681
G1 F900 X83.819 Y60.06 E641.16493
G0 F6000 X82.687 Y60.06
G1 F900 X157.44 Y134.812 E655.51073
G0 F6000 X157.44 Y135.944
G1 F900 X81.556 Y60.06 E670.07368
G0 F6000 X80.424 Y60.06
G1 F900 X157.44 Y137.075 E684.85378
G0 F6000 X157.44 Y138.206
G1 F900 X79.293 Y60.06 E699.85093
G0 F6000 X78.162 Y60.06
G1 F900 X157.44 Y139.338 E715.06522
G0 F6000 X157.44 Y140.469
G1 F900 X77.03 Y60.06 E730.49667
G0 F6000 X75.899 Y60.06
G1 F900 X157.44 Y141.6 E746.14516
G0 F6000 X157.44 Y142.732
G1 F900 X74.768 Y60.06 E762.0108
G0 F6000 X73.636 Y60.06
G1 F900 X157.44 Y143.863 E778.09359
G0 F6000 X157.44 Y144.995
G1 F900 X72.505 Y60.06 E794.39352
G0 F6000 X71.373 Y60.06
G1 F900 X157.44 Y146.126 E810.9106
G0 F6000 X157.44 Y147.257
G1 F900 X70.242 Y60.06 E827.64474
G0 F6000 X69.111 Y60.06
G1 F900 X157.44 Y148.389 E844.59602
G0 F6000 X157.44 Y149.52
G1 F900 X67.979 Y60.06 E861.76444
G0 F6000 X66.848 Y60.06
G1 F900 X157.44 Y150.651 E879.14992
G0 F6000 X157.44 Y151.783
G1 F900 X65.717 Y60.06 E896.75254
G0 F6000 X64.585 Y60.06
G1 F900 X157.44 Y152.914 E914.57231
G0 F6000 X157.44 Y154.046
G1 F900 X63.454 Y60.06 E932.60923
G0 F6000 X62.559 Y60.296
G1 F900 X157.44 Y155.177 E950.81791
G0 F6000 X157.44 Y156.308
G1 F900 X62.559 Y61.427 E969.02659
G0 F6000 X62.559 Y62.559
G1 F900 X157.44 Y157.44 E987.23527
G0 F6000 X157.44 Y158.571
G1 F900 X62.559 Y63.69 E1005.44395
G0 F6000 X62.559 Y64.821
G1 F900 X157.44 Y159.702 E1023.65262
G0 F6000 X157.44 Y160.834
G1 F900 X62.559 Y65.953 E1041.8613
G0 F6000 X62.559 Y67.084
G1 F900 X157.44 Y161.965 E1060.06998
G0 F6000 X157.44 Y163.097
G1 F900 X62.559 Y68.216 E1078.27866
G0 F6000 X62.559 Y69.347
G1 F900 X157.44 Y164.228 E1096.48734
G0 F6000 X157.44 Y165.359
G1 F900 X62.559 Y70.478 E1114.69602
G0 F6000 X62.559 Y71.61
G1 F900 X157.44 Y166.491 E1132.90469
G0 F6000 X157.44 Y167.622
G1 F900 X62.559 Y72.741 E1151.11337
G0 F6000 X62.559 Y73.872
G1 F900 X157.44 Y168.753 E1169.32205
G0 F6000 X157.44 Y169.885
G1 F900 X62.559 Y75.004 E1187.53073
G0 F6000 X62.559 Y76.135
G1 F900 X157.44 Y171.016 E1205.73941
G0 F6000 X157.44 Y172.147
G1 F900 X62.559 Y77.266 E1223.94809
G0 F6000 X62.559 Y78.398
G1 F900 X157.44 Y173.279 E1242.15676
G0 F6000 X157.44 Y174.41
G1 F900 X62.559 Y79.529 E1260.36544
G0 F6000 X62.559 Y80.661
G1 F900 X156.836 Y174.938 E1278.45821
G0 F6000 X155.705 Y174.938
G1 F900 X62.559 Y81.792 E1296.33392
G0 F6000 X62.559 Y82.923
G1 F900 X154.574 Y174.938 E1313.99258
G0 F6000 X153.442 Y174.938
G1 F900 X62.559 Y84.055 E1331.434
G0 F6000 X62.559 Y85.186
G1 F900 X152.311 Y174.938 E1348.65837
G0 F6000 X151.18 Y174.938
G1 F900 X62.559 Y86.317 E1365.66569
G0 F6000 X62.559 Y87.449
G1 F900 X150.048 Y174.938 E1382.45576
G0 F6000 X148.917 Y174.938
G1 F900 X62.559 Y88.58 E1399.02878
G0 F6000 X62.559 Y89.712
G1 F900 X147.786 Y174.938 E1415.38466
G0 F6000 X146.654 Y174.938
G1 F900 X62.559 Y90.843 E1431.52339
G0 F6000 X62.559 Y91.974
G1 F900 X145.523 Y174.938 E1447.44507
G0 F6000 X144.391 Y174.938
G1 F900 X62.559 Y93.106 E1463.1495
G0 F6000 X62.559 Y94.237
G1 F900 X143.26 Y174.938 E1478.63689
G0 F6000 X142.129 Y174.938
G1 F900 X62.559 Y95.368 E1493.90722
G0 F6000 X62.559 Y96.5
G1 F900 X140.997 Y174.938 E1508.96031
G0 F6000 X139.866 Y174.938
G1 F900 X62.559 Y97.631 E1523.79635
G0 F6000 X62.559 Y98.763
G1 F900 X138.735 Y174.938 E1538.41525
G0 F6000 X137.603 Y174.938
G1 F900 X62.559 Y99.894 E1552.81699
G0 F6000 X62.559 Y101.025
G1 F900 X136.472 Y174.938 E1567.00169
G0 F6000 X135.34 Y174.938
G1 F900 X62.559 Y102.157 E1580.96914
G0 F6000 X62.559 Y103.288
G1 F900 X134.209 Y174.938 E1594.71954
G0 F6000 X133.078 Y174.938
G1 F900 X62.559 Y104.419 E1608.25289
G0 F6000 X62.559 Y105.551
G1 F900 X131.946 Y174.938 E1621.569
G0 F6000 X130.815 Y174.938
G1 F900 X62.559 Y106.682 E1634.66805
G0 F6000 X62.559 Y107.813
G1 F900 X129.684 Y174.938 E1647.55006
G0 F6000 X128.552 Y174.938
G1 F900 X62.559 Y108.945 E1660.21482
G0 F6000 X62.559 Y110.076
G1 F900 X127.421 Y174.938 E1672.66253
G0 F6000 X126.289 Y174.938
G1 F900 X62.559 Y111.208 E1684.893
G0 F6000 X62.559 Y112.339
G1 F900 X125.158 Y174.938 E1696.90642
G0 F6000 X124.027 Y174.938
G1 F900 X62.559 Y113.47 E1708.70278
G0 F6000 X62.559 Y114.602
G1 F900 X122.895 Y174.938 E1720.28191
G0 F6000 X121.764 Y174.938
G1 F900 X62.559 Y115.733 E1731.64398
G0 F6000 X62.559 Y116.864
G1 F900 X120.633 Y174.938 E1742.789
G0 F6000 X119.501 Y174.938
G1 F900 X62.559 Y117.996 E1753.71678
G0 F6000 X62.559 Y119.127
G1 F900 X118.37 Y174.938 E1764.42751
G0 F6000 X117.239 Y174.938
G1 F900 X62.559 Y120.259 E1774.92109
G0 F6000 X62.559 Y121.39
G1 F900 X116.107 Y174.938 E1785.19752
G0 F6000 X114.976 Y174.938
G1 F900 X62.559 Y122.521 E1795.2569
G0 F6000 X62.559 Y123.653
G1 F900 X113.844 Y174.938 E1805.09904
G0 F6000 X112.713 Y174.938
G1 F900 X62.559 Y124.784 E1814.72413
G0 F6000 X62.559 Y125.915
G1 F900 X111.582 Y174.938 E1824.13217
G0 F6000 X110.45 Y174.938
G1 F900 X62.559 Y127.047 E1833.32297
G0 F6000 X62.559 Y128.178
G1 F900 X109.319 Y174.938 E1842.29671
G0 F6000 X108.188 Y174.938
G1 F900 X62.559 Y129.31 E1851.05331
G0 F6000 X62.559 Y130.441
G1 F900 X107.056 Y174.938 E1859.59276
G0 F6000 X105.925 Y174.938
G1 F900 X62.559 Y131.572 E1867.91516
G0 F6000 X62.559 Y132.704
G1 F900 X104.793 Y174.938 E1876.02031
G0 F6000 X103.662 Y174.938
G1 F900 X62.559 Y133.835 E1883.90842
G0 F6000 X62.559 Y134.966
G1 F900 X102.531 Y174.938 E1891.57947
G0 F6000 X101.399 Y174.938
G1 F900 X62.559 Y136.098 E1899.03328
G0 F6000 X62.559 Y137.229
G1 F900 X100.268 Y174.938 E1906.27004
G0 F6000 X99.137 Y174.938
G1 F900 X62.559 Y138.36 E1913.28975
G0 F6000 X62.559 Y139.492
G1 F900 X98.005 Y174.938 E1920.09222
G0 F6000 X96.874 Y174.938
G1 F900 X62.559 Y140.623 E1926.67763
G0 F6000 X62.559 Y141.755
G1 F900 X95.742 Y174.938 E1933.04581
G0 F6000 X94.611 Y174.938
G1 F900 X62.559 Y142.886 E1939.19693
G0 F6000 X62.559 Y144.017
G1 F900 X93.48 Y174.938 E1945.131
G0 F6000 X92.348 Y174.938
G1 F900 X62.559 Y145.149 E1950.84783
G0 F6000 X62.559 Y146.28
G1 F900 X91.217 Y174.938 E1956.3476
G0 F6000 X90.086 Y174.938
G1 F900 X62.559 Y147.411 E1961.63033
G0 F6000 X62.559 Y148.543
G1 F900 X88.954 Y174.938 E1966.69581
G0 F6000 X87.823 Y174.938
G1 F900 X62.559 Y149.674 E1971.54424
G0 F6000 X62.559 Y150.806
G1 F900 X86.691 Y174.938 E1976.17543
G0 F6000 X85.56 Y174.938
G1 F900 X62.559 Y151.937 E1980.58957
G0 F6000 X62.559 Y153.068
G1 F900 X84.429 Y174.938 E1984.78666
G0 F6000 X83.297 Y174.938
G1 F900 X62.559 Y154.2 E1988.7665
G0 F6000 X62.559 Y155.331
G1 F900 X82.166 Y174.938 E1992.52929
G0 F6000 X81.035 Y174.938
G1 F900 X62.559 Y156.462 E1996.07503
G0 F6000 X62.559 Y157.594
G1 F900 X79.903 Y174.938 E1999.40353
G0 F6000 X78.772 Y174.938
G1 F900 X62.559 Y158.725 E2002.51498
G0 F6000 X62.559 Y159.857
G1 F900 X77.641 Y174.938 E2005.40928
G0 F6000 X76.509 Y174.938
G1 F900 X62.559 Y160.988 E2008.08644
G0 F6000 X62.559 Y162.119
G1 F900 X75.378 Y174.938 E2010.54654
G0 F6000 X74.246 Y174.938
G1 F900 X62.559 Y163.251 E2012.7894
G0 F6000 X62.559 Y164.382
G1 F900 X73.115 Y174.938 E2014.81521
G0 F6000 X71.984 Y174.938
G1 F900 X62.559 Y165.513 E2016.62397
G0 F6000 X62.559 Y166.645
G1 F900 X70.852 Y174.938 E2018.21548
G0 F6000 X69.721 Y174.938
G1 F900 X62.559 Y167.776 E2019.58995
G0 F6000 X62.559 Y168.908
M104 S205
G1 F900 X68.59 Y174.938 E2020.74727
G0 F6000 X67.458 Y174.938
G1 F900 X62.559 Y170.039 E2021.68744
G0 F6000 X62.559 Y171.17
G1 F900 X66.327 Y174.938 E2022.41056
G0 F6000 X65.195 Y174.938
G1 F900 X62.559 Y172.302 E2022.91643
G0 F6000 X62.559 Y173.433
G1 F900 X64.064 Y174.938 E2023.20526
G0 F6000 X62.933 Y174.938
G1 F900 X62.559 Y174.564 E2023.27703
;MESH:NONMESH
G0 F300 X62.559 Y174.564 Z0.8
G0 F6000 X61.52 Y59.02
G0 X61.45 Y58.95
;TIME_ELAPSED:1018.121334
;LAYER:1
M140 S45
;TYPE:WALL-INNER
;MESH:boden.stl
G1 F1200 X158.55 Y58.95 E2036.45363
G1 X158.55 Y176.05 E2052.34426
G1 X61.45 Y176.05 E2065.52086
G1 X61.45 Y58.95 E2081.41149
G0 F7500 X61.52 Y59.02
G0 X60.65 Y58.15
;TYPE:WALL-OUTER
G1 F1200 X159.35 Y58.15 E2094.80521
G1 X159.35 Y176.85 E2110.91296
G1 X60.65 Y176.85 E2124.30669
G1 X60.65 Y58.15 E2140.41444
G0 F7500 X60.85 Y58.15
G0 X61.53 Y59.03
G0 X61.53 Y59.05
G0 X62.24 Y59.74
;TYPE:SKIN
G1 F975 X157.76 Y59.74 E2153.37663
G1 X157.76 Y175.26 E2169.05285
G1 X62.24 Y175.26 E2182.01504
G1 X62.24 Y59.74 E2197.69126
G0 F7500 X62.559 Y60.759
G1 F975 X63.259 Y60.059 E2197.8256
G0 F7500 X64.391 Y60.059
G1 F975 X62.559 Y61.89 E2198.17709
G0 F7500 X62.559 Y63.022
G1 F975 X65.522 Y60.059 E2198.74572
G0 F7500 X66.654 Y60.059
G1 F975 X62.559 Y64.153 E2199.5315
G0 F7500 X62.559 Y65.285
G1 F975 X67.785 Y60.059 E2200.53442
G0 F7500 X68.916 Y60.059
G1 F975 X62.559 Y66.416 E2201.7544
G0 F7500 X62.559 Y67.547
G1 F975 X70.048 Y60.059 E2203.19152
G0 F7500 X71.179 Y60.059
G1 F975 X62.559 Y68.679 E2204.84579
G0 F7500 X62.559 Y69.81
G1 F975 X72.31 Y60.059 E2206.71711
G0 F7500 X73.442 Y60.059
G1 F975 X62.559 Y70.941 E2208.80558
G0 F7500 X62.559 Y72.073
G1 F975 X74.573 Y60.059 E2211.1112
G0 F7500 X75.704 Y60.059
G1 F975 X62.559 Y73.204 E2213.63386
G0 F7500 X62.559 Y74.336
G1 F975 X76.836 Y60.059 E2216.37377
G0 F7500 X77.967 Y60.059
G1 F975 X62.559 Y75.467 E2219.33073
G0 F7500 X62.559 Y76.598
G1 F975 X79.099 Y60.059 E2222.50484
G0 F7500 X80.23 Y60.059
G1 F975 X62.559 Y77.73 E2225.89609
G0 F7500 X62.559 Y78.861
G1 F975 X81.361 Y60.059 E2229.5044
G0 F7500 X82.493 Y60.059
G1 F975 X62.559 Y79.992 E2233.32985
G0 F7500 X62.559 Y81.124
G1 F975 X83.624 Y60.059 E2237.37245
G0 F7500 X84.755 Y60.059
G1 F975 X62.559 Y82.255 E2241.6321
G0 F7500 X62.559 Y83.386
G1 F975 X85.887 Y60.059 E2246.10889
G0 F7500 X87.018 Y60.059
G1 F975 X62.559 Y84.518 E2250.80284
G0 F7500 X62.559 Y85.649
G1 F975 X88.15 Y60.059 E2255.71393
G0 F7500 X89.281 Y60.059
G1 F975 X62.559 Y86.781 E2260.84216
G0 F7500 X62.559 Y87.912
G1 F975 X90.412 Y60.059 E2266.18745
G0 F7500 X91.544 Y60.059
G1 F975 X62.559 Y89.043 E2271.74989
G0 F7500 X62.559 Y90.175
G1 F975 X92.675 Y60.059 E2277.52947
G0 F7500 X93.806 Y60.059
G1 F975 X62.559 Y91.306 E2283.5261
G0 F7500 X62.559 Y92.437
G1 F975 X94.938 Y60.059 E2289.73988
