;FLAVOR:Marlin
;TIME:21233
;Filament used: 54.9852m
;Layer height: 0.4
;MINX:13.807
;MINY:16.147
;MINZ:0.4
;MAXX:206.204
;MAXY:223.853
;MAXZ:72
;Generated with Cura_SteamEngine 4.4.1
M140 S60
M105
M190 S60
M104 S215
M105
M109 S215
M82 ;absolute extrusion mode
M201 X500.00 Y500.00 Z100.00 E5000.00 ;Setup machine max acceleration
M203 X500.00 Y500.00 Z10.00 E75.00 ;Setup machine max feedrate
M204 P500.00 R1000.00 T500.00 ;Setup Print/Retract/Travel acceleration
M205 X8.00 Y8.00 Z0.40 E5.00 ;Setup Jerk
M220 S100 ;Reset Feedrate
M221 S100 ;Reset Flowrate

G21 ; (metric values)
G90 ; (absolute positioning)
M82 ; (set extruder to absolute mode)
G28 ; (home all axis)
G29 ; (Auto Level)

G92 E0 ;Reset Extruder
G1 Z2.0 F3000 ;Move Z Axis up
G1 X1.1 Y50 Z0.28 F5000.0 ;Move to start position
G1 X1.1 Y200.0 Z0.28 F1500.0 E15 ;Draw the first line
G1 X1.4 Y200.0 Z0.28 F5000.0 ;Move to side a little
G1 X1.4 Y100 Z0.28 F1500.0 E30 ;Draw the second line
G92 E0 ;Reset Extruder
G1 Z2.0 F3000 ;Move Z Axis up
G92 E0
G92 E0
G1 F3000 E-6
;LAYER_COUNT:180
;LAYER:0
M107
G1 F300 Z0.8
G0 F6000 X165.327 Y35.332 Z0.8
;TYPE:SKIRT
G1 F300 Z0.4
G1 F3000 E0
G1 F900 X170.829 Y35.332 E0.74663
G1 X171.086 Y35.548 E0.79219
G1 X171.544 Y35.828 E0.86503
G1 X171.817 Y35.954 E0.90583
G1 X172.555 Y36.258 E1.01414
G1 X173.065 Y36.424 E1.08693
G1 X173.593 Y36.514 E1.15961
G1 X174.13 Y36.523 E1.23249
G1 X174.661 Y36.453 E1.30517
G1 X175.177 Y36.305 E1.37802
G1 X175.454 Y36.189 E1.41877
G1 X177.756 Y35.11 E1.76377
G1 X178.974 Y34.65 E1.94045
G1 X180.199 Y34.287 E2.11383
G1 X181.482 Y34.01 E2.29194
G1 X182.699 Y33.832 E2.45885
G1 X184.069 Y33.744 E2.64514
G1 X185.365 Y33.753 E2.82102
G1 X186.496 Y33.849 E2.97505
G1 X187.917 Y34.067 E3.17013
G1 X189.147 Y34.356 E3.34159
G1 X190.324 Y34.719 E3.50874
G1 X191.565 Y35.214 E3.69004
G1 X192.685 Y35.754 E3.85877
G1 X193.805 Y36.404 E4.0345
G1 X194.884 Y37.143 E4.21197
G1 X195.847 Y37.905 E4.37861
G1 X196.859 Y38.838 E4.5654
G1 X197.672 Y39.716 E4.72778
G1 X198.507 Y40.752 E4.90835
G1 X199.225 Y41.796 E5.08029
G1 X199.893 Y42.94 E5.26006
G1 X200.461 Y44.097 E5.43496
G1 X200.927 Y45.258 E5.60473
G1 X201.319 Y46.508 E5.7825
G1 X201.59 Y47.653 E5.94217
G1 X201.821 Y49.086 E6.13914
G1 X201.924 Y50.244 E6.29691
G1 X201.938 Y51.531 E6.47156
G1 X201.842 Y52.973 E6.66768
G1 X201.684 Y54.095 E6.82144
G1 X201.416 Y55.386 E7.00036
G1 X201.044 Y56.653 E7.17955
G1 X200.612 Y57.814 E7.34766
G1 X200.067 Y58.991 E7.52367
G1 X199.441 Y60.121 E7.69897
G1 X198.728 Y61.2 E7.87447
G1 X197.948 Y62.224 E8.04915
G1 X197.087 Y63.191 E8.22485
G1 X196.172 Y64.075 E8.3975
G1 X195.192 Y64.895 E8.5709
G1 X194.149 Y65.642 E8.74499
G1 X193.048 Y66.311 E8.91982
G1 X191.885 Y66.907 E9.09716
G1 X190.718 Y67.397 E9.26892
G1 X189.511 Y67.808 E9.44194
G1 X188.191 Y68.144 E9.62678
G1 X187.003 Y68.362 E9.79069
G1 X185.699 Y68.492 E9.96852
G1 X184.428 Y68.531 E10.14107
G1 X183.211 Y68.48 E10.30637
G1 X181.771 Y68.306 E10.5032
G1 X180.611 Y68.076 E10.66368
G1 X179.386 Y67.746 E10.83584
G1 X178.141 Y67.304 E11.01512
G1 X176.933 Y66.778 E11.19391
G1 X175.61 Y66.082 E11.39677
G1 X175.118 Y65.868 E11.46958
G1 X174.6 Y65.73 E11.54232
G1 X174.067 Y65.67 E11.61511
G1 X173.531 Y65.691 E11.6879
G1 X173.004 Y65.79 E11.76067
G1 X172.645 Y65.907 E11.81191
G1 X171.899 Y66.193 E11.92032
G1 X171.414 Y66.421 E11.99305
G1 X170.969 Y66.72 E12.0658
G1 X170.77 Y66.901 E12.1023
G1 X165.392 Y66.901 E12.83211
G1 X167.547 Y66.081 E13.145
G1 X168.033 Y65.853 E13.21785
G1 X168.479 Y65.556 E13.29056
G1 X168.877 Y65.196 E13.36339
G1 X169.216 Y64.781 E13.4361
G1 X169.49 Y64.32 E13.50888
G1 X169.64 Y63.974 E13.56005
G1 X169.919 Y63.226 E13.66839
G1 X170.068 Y62.711 E13.74114
G1 X170.14 Y62.18 E13.81386
G1 X170.131 Y61.643 E13.88674
G1 X170.043 Y61.114 E13.95951
G1 X169.878 Y60.604 E14.03225
G1 X169.713 Y60.257 E14.08439
G1 X168.913 Y58.777 E14.31269
G1 X168.403 Y57.623 E14.4839
G1 X167.965 Y56.4 E14.66019
G1 X167.626 Y55.143 E14.83686
G1 X167.355 Y53.806 E15.02198
G1 X167.235 Y52.821 E15.15664
G1 X167.152 Y51.143 E15.38462
G1 X167.182 Y50.108 E15.52513
G1 X167.316 Y48.749 E15.71044
G1 X167.524 Y47.524 E15.87906
G1 X167.853 Y46.21 E16.06287
G1 X168.244 Y45.051 E16.22886
G1 X168.736 Y43.887 E16.40035
G1 X169.739 Y41.902 E16.70215
G1 X169.944 Y41.407 E16.77485
G1 X170.074 Y40.886 E16.84772
G1 X170.125 Y40.353 E16.92038
G1 X170.096 Y39.817 E16.99322
G1 X169.988 Y39.292 E17.06596
G1 X169.883 Y38.978 E17.11089
G1 X169.595 Y38.234 E17.21915
G1 X169.365 Y37.75 E17.29187
G1 X169.065 Y37.305 E17.36469
G1 X168.703 Y36.91 E17.4374
G1 X168.286 Y36.573 E17.51016
G1 X167.823 Y36.302 E17.58296
G1 X167.523 Y36.171 E17.62738
G1 X165.327 Y35.332 E17.94639
G0 F6000 X163.525 Y35.5
G1 F900 X163.525 Y34.532 E18.07775
G1 X171.15 Y34.532 E19.11247
G1 X171.357 Y34.744 E19.15268
G1 X171.74 Y35.022 E19.2169
G1 X172.122 Y35.214 E19.27492
G1 X172.86 Y35.518 E19.38323
G1 X173.31 Y35.66 E19.44726
G1 X173.779 Y35.725 E19.51152
G1 X174.251 Y35.71 E19.5756
G1 X174.715 Y35.616 E19.63985
G1 X175.114 Y35.464 E19.69779
G1 X177.443 Y34.373 E20.04679
G1 X178.708 Y33.895 E20.2303
G1 X180.003 Y33.511 E20.4136
G1 X181.345 Y33.221 E20.59991
G1 X182.618 Y33.035 E20.77449
G1 X184.037 Y32.944 E20.96745
G1 X185.4 Y32.953 E21.15241
G1 X186.583 Y33.053 E21.31352
G1 X188.08 Y33.283 E21.51905
G1 X189.348 Y33.581 E21.69581
G1 X190.597 Y33.966 E21.87317
G1 X191.893 Y34.484 E22.06256
G1 X193.051 Y35.042 E22.237
G1 X194.234 Y35.728 E22.42257
G1 X195.361 Y36.5 E22.60795
G1 X196.363 Y37.293 E22.78135
G1 X197.423 Y38.271 E22.97707
G1 X198.282 Y39.198 E23.14857
G1 X199.146 Y40.27 E23.33541
G1 X199.896 Y41.36 E23.51495
G1 X200.604 Y42.574 E23.70566
G1 X201.19 Y43.766 E23.88591
G1 X201.686 Y45.003 E24.06676
G1 X202.087 Y46.281 E24.24853
G1 X202.377 Y47.503 E24.41896
G1 X202.615 Y48.986 E24.62278
G1 X202.723 Y50.204 E24.78871
G1 X202.739 Y51.55 E24.97138
G1 X202.637 Y53.07 E25.17811
G1 X202.476 Y54.212 E25.33461
G1 X202.19 Y55.592 E25.52586
G1 X201.805 Y56.901 E25.71102
G1 X201.352 Y58.119 E25.88736
G1 X200.779 Y59.358 E26.07261
G1 X200.125 Y60.537 E26.25556
G1 X199.386 Y61.656 E26.43754
G1 X198.561 Y62.739 E26.62229
G1 X197.669 Y63.74 E26.80423
G1 X196.704 Y64.673 E26.98638
G1 X195.686 Y65.525 E27.16652
G1 X194.588 Y66.312 E27.34984
G1 X193.438 Y67.01 E27.5324
G1 X192.23 Y67.629 E27.71659
G1 X190.987 Y68.151 E27.89954
G1 X189.752 Y68.572 E28.0766
G1 X188.356 Y68.927 E28.27207
G1 X187.116 Y69.154 E28.44314
G1 X185.761 Y69.29 E28.62793
G1 X184.418 Y69.331 E28.81027
G1 X183.145 Y69.277 E28.98317
G1 X181.64 Y69.095 E29.18889
G1 X180.438 Y68.858 E29.35514
G1 X179.139 Y68.508 E29.5377
G1 X177.853 Y68.051 E29.72291
G1 X176.587 Y67.5 E29.91027
G1 X175.238 Y66.79 E30.11714
G1 X174.802 Y66.606 E30.18136
G1 X174.342 Y66.498 E30.24548
G1 X173.87 Y66.469 E30.30965
G1 X173.4 Y66.519 E30.37379
G1 X172.932 Y66.654 E30.43989
G1 X172.186 Y66.94 E30.54831
G1 X171.76 Y67.146 E30.61252
G1 X171.375 Y67.42 E30.67664
G1 X171.097 Y67.701 E30.73028
G1 X163.525 Y67.701 E31.75781
G1 X163.525 Y66.755 E31.88619
G1 X167.263 Y65.333 E32.4289
G1 X167.689 Y65.128 E32.49306
G1 X168.075 Y64.854 E32.55729
G1 X168.409 Y64.52 E32.62139
G1 X168.682 Y64.134 E32.68555
G1 X168.89 Y63.695 E32.75147
G1 X169.169 Y62.947 E32.85981
G1 X169.297 Y62.491 E32.92408
G1 X169.346 Y62.021 E32.9882
G1 X169.314 Y61.549 E33.0524
G1 X169.204 Y61.089 E33.11658
G1 X169.01 Y60.637 E33.18333
G1 X168.195 Y59.128 E33.41606
G1 X167.656 Y57.911 E33.59668
G1 X167.198 Y56.633 E33.78091
G1 X166.849 Y55.335 E33.96331
G1 X166.564 Y53.935 E34.15718
G1 X166.437 Y52.888 E34.30031
G1 X166.351 Y51.159 E34.53522
G1 X166.384 Y50.036 E34.68768
G1 X166.522 Y48.644 E34.8775
G1 X166.74 Y47.365 E35.05357
G1 X167.088 Y45.975 E35.24802
G1 X167.491 Y44.777 E35.41954
G1 X168.01 Y43.549 E35.60045
G1 X169.025 Y41.541 E35.90577
G1 X169.202 Y41.103 E35.96988
G1 X169.302 Y40.641 E36.03402
G1 X169.324 Y40.168 E36.09828
G1 X169.265 Y39.699 E36.16243
G1 X169.137 Y39.267 E36.22357
G1 X168.849 Y38.523 E36.33183
G1 X168.642 Y38.098 E36.39598
G1 X168.366 Y37.714 E36.46015
G1 X168.029 Y37.382 E36.52435
G1 X167.642 Y37.111 E36.58846
G1 X167.237 Y36.918 E36.64934
G1 X163.525 Y35.5 E37.18857
G0 F6000 X162.725 Y36.051
G1 F900 X162.725 Y33.732 E37.50326
G1 X171.53 Y33.732 E38.69811
G1 X171.726 Y33.99 E38.74208
G1 X172.027 Y34.253 E38.79632
G1 X172.426 Y34.474 E38.85822
G1 X173.164 Y34.778 E38.96653
G1 X173.547 Y34.893 E39.02079
G1 X173.945 Y34.929 E39.07502
G1 X174.342 Y34.885 E39.12923
G1 X174.775 Y34.74 E39.19119
G1 X177.131 Y33.636 E39.54426
G1 X178.459 Y33.134 E39.73692
G1 X179.807 Y32.735 E39.92769
G1 X181.194 Y32.435 E40.12026
G1 X182.537 Y32.239 E40.30444
G1 X184.019 Y32.144 E40.50596
G1 X185.434 Y32.153 E40.69798
G1 X186.683 Y32.259 E40.86808
G1 X188.233 Y32.497 E41.08089
G1 X189.563 Y32.81 E41.2663
G1 X190.859 Y33.209 E41.45031
G1 X192.203 Y33.746 E41.64672
G1 X193.438 Y34.341 E41.83274
G1 X194.658 Y35.049 E42.02416
G1 X195.839 Y35.858 E42.21842
G1 X196.884 Y36.685 E42.39926
G1 X197.988 Y37.703 E42.60304
G1 X198.886 Y38.672 E42.78232
G1 X199.791 Y39.796 E42.97814
G1 X200.571 Y40.93 E43.16492
G1 X201.305 Y42.186 E43.36233
G1 X201.926 Y43.451 E43.55356
G1 X202.437 Y44.726 E43.73996
G1 X202.861 Y46.076 E43.93198
G1 X203.158 Y47.33 E44.10686
G1 X203.411 Y48.901 E44.32279
G1 X203.523 Y50.163 E44.49472
G1 X203.539 Y51.568 E44.68539
G1 X203.433 Y53.154 E44.90109
G1 X203.262 Y54.363 E45.06679
G1 X202.97 Y55.773 E45.26219
G1 X202.566 Y57.149 E45.45679
G1 X202.087 Y58.435 E45.64302
G1 X201.491 Y59.725 E45.83585
G1 X200.815 Y60.944 E46.02501
G1 X200.037 Y62.122 E46.21658
G1 X199.18 Y63.246 E46.40839
G1 X198.245 Y64.296 E46.59918
G1 X197.237 Y65.271 E46.78948
G1 X196.171 Y66.162 E46.97802
G1 X195.03 Y66.98 E47.16853
G1 X193.835 Y67.706 E47.35828
G1 X192.563 Y68.358 E47.55224
G1 X191.281 Y68.896 E47.74091
G1 X189.969 Y69.343 E47.929
G1 X188.535 Y69.708 E48.1298
G1 X187.23 Y69.947 E48.30984
G1 X185.806 Y70.089 E48.50403
G1 X184.41 Y70.132 E48.69356
G1 X183.092 Y70.077 E48.87257
G1 X181.51 Y69.885 E49.08883
G1 X180.252 Y69.637 E49.26282
G1 X178.905 Y69.274 E49.45214
G1 X177.57 Y68.8 E49.64438
G1 X176.23 Y68.216 E49.84274
G1 X174.865 Y67.498 E50.05203
G1 X174.495 Y67.348 E50.10621
G1 X174.102 Y67.275 E50.16045
G1 X173.703 Y67.281 E50.2146
G1 X173.218 Y67.401 E50.2824
G1 X172.472 Y67.687 E50.39082
G1 X172.115 Y67.866 E50.44501
G1 X171.801 Y68.113 E50.49923
G1 X171.542 Y68.417 E50.55342
G1 X171.498 Y68.501 E50.56629
G1 X162.725 Y68.501 E51.7568
G1 X162.725 Y66.203 E52.06864
G1 X166.978 Y64.585 E52.68613
G1 X167.336 Y64.407 E52.74039
G1 X167.65 Y64.16 E52.7946
G1 X167.91 Y63.857 E52.84878
G1 X168.141 Y63.415 E52.91646
G1 X168.42 Y62.667 E53.02479
G1 X168.521 Y62.281 E53.07894
G1 X168.544 Y61.882 E53.13317
G1 X168.487 Y61.486 E53.18747
G1 X168.306 Y61.017 E53.25568
G1 X167.473 Y59.475 E53.49352
G1 X166.918 Y58.219 E53.67986
G1 X166.435 Y56.873 E53.87391
G1 X166.068 Y55.512 E54.0652
G1 X165.772 Y54.052 E54.26735
G1 X165.64 Y52.969 E54.41541
G1 X165.551 Y51.163 E54.66078
G1 X165.585 Y49.991 E54.81989
G1 X165.727 Y48.551 E55.01625
G1 X165.958 Y47.193 E55.20318
G1 X166.319 Y45.752 E55.40477
G1 X166.745 Y44.486 E55.58603
G1 X167.282 Y43.215 E55.77327
G1 X168.311 Y41.18 E56.08272
G1 X168.455 Y40.808 E56.13685
G1 X168.521 Y40.414 E56.19106
G1 X168.509 Y40.014 E56.24536
G1 X168.391 Y39.556 E56.30954
G1 X168.103 Y38.812 E56.41781
G1 X167.922 Y38.456 E56.472
G1 X167.675 Y38.142 E56.52622
G1 X167.369 Y37.885 E56.58044
G1 X166.952 Y37.666 E56.64436
G1 X162.725 Y36.051 E57.25841
G0 F6000 X166.666 Y38.413
G1 F900 X161.925 Y36.602 E57.94711
G1 X161.925 Y32.932 E58.44513
G1 X172.022 Y32.932 E59.81531
G1 X172.061 Y33.038 E59.83064
G1 X172.204 Y33.312 E59.87258
G1 X172.412 Y33.54 E59.91446
G1 X172.731 Y33.735 E59.9652
G1 X173.469 Y34.039 E60.07351
G1 X173.768 Y34.119 E60.11551
G1 X174.077 Y34.119 E60.15744
G1 X174.435 Y34.016 E60.20799
G1 X176.818 Y32.899 E60.56513
G1 X178.206 Y32.375 E60.76646
G1 X179.611 Y31.959 E60.9653
G1 X181.057 Y31.647 E61.16604
G1 X182.443 Y31.443 E61.35615
G1 X184.002 Y31.343 E61.56814
G1 X185.469 Y31.354 E61.76722
G1 X186.785 Y31.465 E61.94644
G1 X188.384 Y31.711 E62.16598
G1 X189.76 Y32.034 E62.35778
G1 X191.13 Y32.457 E62.55235
G1 X192.53 Y33.016 E62.75692
G1 X193.808 Y33.631 E62.94938
G1 X195.093 Y34.377 E63.15101
G1 X196.302 Y35.205 E63.34986
G1 X197.407 Y36.079 E63.54105
G1 X198.553 Y37.136 E63.75261
G1 X199.495 Y38.153 E63.94072
G1 X200.43 Y39.313 E64.14291
G1 X201.253 Y40.51 E64.34003
G1 X202.008 Y41.803 E64.54321
G1 X202.653 Y43.115 E64.74161
G1 X203.192 Y44.461 E64.93836
G1 X203.632 Y45.863 E65.13776
G1 X203.945 Y47.183 E65.32186
G1 X204.205 Y48.801 E65.54424
G1 X204.322 Y50.123 E65.72434
G1 X204.34 Y51.599 E65.92465
G1 X204.231 Y53.225 E66.14579
G1 X204.051 Y54.496 E66.31999
G1 X203.746 Y55.973 E66.52465
G1 X203.326 Y57.4 E66.72651
G1 X202.828 Y58.74 E66.9205
G1 X202.207 Y60.081 E67.12104
G1 X201.493 Y61.37 E67.321
G1 X200.688 Y62.588 E67.51912
G1 X199.8 Y63.753 E67.7179
G1 X198.827 Y64.846 E67.91648
G1 X197.777 Y65.861 E68.11466
G1 X196.656 Y66.798 E68.31292
G1 X195.477 Y67.643 E68.50976
G1 X194.214 Y68.41 E68.71028
G1 X192.901 Y69.083 E68.9105
G1 X191.569 Y69.643 E69.10658
G1 X190.199 Y70.11 E69.30299
G1 X188.697 Y70.492 E69.51331
G1 X187.345 Y70.74 E69.69983
G1 X185.853 Y70.888 E69.90329
G1 X184.414 Y70.932 E70.09866
G1 X183.014 Y70.874 E70.28881
G1 X181.392 Y70.678 E70.51051
G1 X180.079 Y70.418 E70.69215
G1 X178.662 Y70.036 E70.8913
G1 X177.265 Y69.54 E71.09247
G1 X175.895 Y68.944 E71.29521
G1 X174.493 Y68.206 E71.51022
G1 X174.203 Y68.098 E71.55221
G1 X173.895 Y68.069 E71.59419
G1 X173.504 Y68.148 E71.64832
G1 X172.758 Y68.434 E71.75674
G1 X172.486 Y68.58 E71.79863
G1 X172.261 Y68.792 E71.84058
G1 X172.063 Y69.137 E71.89456
G1 X172.002 Y69.301 E71.91831
G1 X161.925 Y69.301 E73.28577
G1 X161.925 Y65.653 E73.78081
G1 X166.694 Y63.838 E74.47325
G1 X166.966 Y63.691 E74.51521
G1 X167.192 Y63.48 E74.55716
G1 X167.391 Y63.135 E74.61121
G1 X167.67 Y62.387 E74.71955
G1 X167.74 Y62.086 E74.76148
G1 X167.731 Y61.777 E74.80343
G1 X167.602 Y61.398 E74.85776
G1 X166.754 Y59.828 E75.0999
G1 X166.177 Y58.524 E75.29341
G1 X165.672 Y57.114 E75.49665
G1 X165.289 Y55.694 E75.69623
G1 X164.982 Y54.182 E75.9056
G1 X164.842 Y53.034 E76.06254
G1 X164.75 Y51.166 E76.31633
G1 X164.786 Y49.948 E76.48169
G1 X164.935 Y48.436 E76.68787
G1 X165.173 Y47.033 E76.88097
G1 X165.55 Y45.527 E77.09165
G1 X165.996 Y44.204 E77.28111
G1 X166.557 Y42.877 E77.47661
G1 X167.597 Y40.819 E77.78952
G1 X167.7 Y40.528 E77.83141
G1 X167.725 Y40.22 E77.87334
G1 X167.645 Y39.845 E77.92538
G1 X167.357 Y39.101 E78.03364
G1 X167.209 Y38.829 E78.07566
G1 X166.997 Y38.604 E78.11761
G1 X166.666 Y38.413 E78.16947
G0 F6000 X166.381 Y39.16
G1 F900 X161.125 Y37.152 E78.93299
G1 X161.125 Y32.132 E79.61422
G1 X172.581 Y32.132 E81.16881
G1 X172.812 Y32.763 E81.26
G1 X172.909 Y32.912 E81.28412
G1 X173.036 Y32.995 E81.30471
G1 X173.774 Y33.299 E81.41302
G1 X173.949 Y33.328 E81.43709
G1 X174.096 Y33.291 E81.45766
G1 X176.51 Y32.159 E81.81948
G1 X177.94 Y31.619 E82.0269
G1 X179.415 Y31.183 E82.23562
G1 X180.906 Y30.861 E82.44262
G1 X182.374 Y30.646 E82.64395
G1 X183.97 Y30.543 E82.86098
G1 X185.503 Y30.554 E83.06902
G1 X186.885 Y30.671 E83.25723
G1 X188.536 Y30.925 E83.48391
G1 X189.975 Y31.263 E83.6845
G1 X191.392 Y31.7 E83.88572
G1 X192.853 Y32.283 E84.09918
G1 X194.179 Y32.922 E84.29893
G1 X195.522 Y33.701 E84.50961
G1 X196.779 Y34.562 E84.71637
G1 X197.93 Y35.473 E84.91557
G1 X199.118 Y36.569 E85.1349
G1 X200.099 Y37.627 E85.3307
G1 X201.067 Y38.828 E85.54002
