;FLAVOR:Marlin
;TIME:6968
;Filament used: 5.74427m
;Layer height: 0.2
;MINX:87.344
;MINY:104
;MINZ:0.3
;MAXX:130.639
;MAXY:136
;MAXZ:47.9
;Generated with Cura_SteamEngine 4.4.1
M140 S60
M105
M190 S60
M104 S205
M105
M109 S205
M82 ;absolute extrusion mode
M201 X500.00 Y500.00 Z100.00 E5000.00 ;Setup machine max acceleration
M203 X500.00 Y500.00 Z10.00 E75.00 ;Setup machine max feedrate
M204 P500.00 R1000.00 T500.00 ;Setup Print/Retract/Travel acceleration
M205 X8.00 Y8.00 Z0.40 E5.00 ;Setup Jerk
M220 S100 ;Reset Feedrate
M221 S100 ;Reset Flowrate

G21 ; (metric values)
G90 ; (absolute positioning)
M82 ; (set extruder to absolute mode)
G28 ; (home all axis)
G29 ; (Auto Level)

G92 E0 ;Reset Extruder
G1 Z2.0 F3000 ;Move Z Axis up
G1 X1.1 Y50 Z0.28 F5000.0 ;Move to start position
G1 X1.1 Y200.0 Z0.28 F1500.0 E15 ;Draw the first line
G1 X1.4 Y200.0 Z0.28 F5000.0 ;Move to side a little
G1 X1.4 Y100 Z0.28 F1500.0 E30 ;Draw the second line
G92 E0 ;Reset Extruder
G1 Z2.0 F3000 ;Move Z Axis up
G92 E0
G92 E0
G1 F3000 E-6
;LAYER_COUNT:239
;LAYER:0
M107
G1 F300 Z0.65
G0 F6000 X93.124 Y105.313 Z0.65
;TYPE:SKIRT
G1 F300 Z0.3
G1 F3000 E0
G1 F1200 X93.69 Y104.914 E0.03455
G1 X94.299 Y104.583 E0.06913
G1 X94.941 Y104.324 E0.10367
G1 X95.609 Y104.141 E0.13822
G1 X96.293 Y104.037 E0.17274
G1 X96.671 Y104.013 E0.19164
G1 X96.994 Y104.003 E0.20776
G1 X97.18 Y104 E0.21704
G1 X123.923 Y104 E1.55125
G1 X124.011 Y104.001 E1.55564
G1 X124.696 Y104.011 E1.58982
G1 X125.386 Y104.061 E1.62434
G1 X126.067 Y104.19 E1.65892
G1 X126.728 Y104.397 E1.69347
G1 X127.36 Y104.678 E1.72798
G1 X127.956 Y105.031 E1.76254
G1 X128.508 Y105.45 E1.79711
G1 X129.007 Y105.93 E1.83166
G1 X129.448 Y106.464 E1.86621
G1 X129.824 Y107.045 E1.90073
G1 X130.131 Y107.666 E1.93529
G1 X130.365 Y108.318 E1.96985
G1 X130.521 Y108.993 E2.00442
G1 X130.606 Y109.872 E2.04848
G1 X130.63 Y110.917 E2.10063
G1 X130.632 Y111.044 E2.10696
G1 X130.639 Y114.809 E2.2948
G1 X130.639 Y129.264 E3.01596
G1 X130.638 Y129.347 E3.0201
G1 X130.628 Y130.074 E3.05638
G1 X130.579 Y130.764 E3.09089
G1 X130.45 Y131.445 E3.12547
G1 X130.244 Y132.106 E3.16001
G1 X129.963 Y132.739 E3.19456
G1 X129.611 Y133.335 E3.22909
G1 X129.192 Y133.887 E3.26367
G1 X128.713 Y134.387 E3.29821
G1 X128.179 Y134.828 E3.33277
G1 X127.598 Y135.205 E3.36732
G1 X126.978 Y135.512 E3.40184
G1 X126.326 Y135.746 E3.4364
G1 X125.651 Y135.903 E3.47097
G1 X124.798 Y135.989 E3.51374
G1 X124.478 Y135.998 E3.52971
G1 X124.309 Y136 E3.53815
G1 X97.557 Y136 E4.87281
G1 X97.471 Y135.999 E4.8771
G1 X96.77 Y135.989 E4.91208
G1 X96.08 Y135.94 E4.94659
G1 X95.399 Y135.81 E4.98118
G1 X94.738 Y135.604 E5.01572
G1 X94.106 Y135.322 E5.05024
G1 X93.509 Y134.97 E5.08482
G1 X92.958 Y134.551 E5.11936
G1 X92.458 Y134.072 E5.1539
G1 X92.017 Y133.538 E5.18845
G1 X91.797 Y133.216 E5.20791
G1 X91.503 Y132.755 E5.23519
G1 X91.456 Y132.68 E5.2396
G1 X90.561 Y131.229 E5.32466
G1 X88.394 Y127.964 E5.52016
G1 X88.045 Y127.365 E5.55475
G1 X87.767 Y126.731 E5.58928
G1 X87.564 Y126.069 E5.62383
G1 X87.464 Y125.566 E5.64942
G1 X87.421 Y125.289 E5.6634
G1 X87.351 Y124.49 E5.70342
G1 X87.345 Y124.192 E5.71829
G1 X87.344 Y124.068 E5.72447
G1 X87.348 Y116.101 E6.12195
G1 X87.349 Y116.021 E6.12594
G1 X87.358 Y115.371 E6.15837
G1 X87.407 Y114.68 E6.19293
G1 X87.536 Y114 E6.22746
G1 X87.742 Y113.339 E6.262
G1 X88.023 Y112.706 E6.29656
G1 X88.225 Y112.345 E6.31719
G1 X88.58 Y111.759 E6.35138
G1 X88.758 Y111.483 E6.36776
G1 X89.593 Y110.261 E6.4416
G1 X91.339 Y107.527 E6.60344
G1 X91.751 Y106.859 E6.6426
G1 X92.148 Y106.292 E6.67713
G1 X92.608 Y105.774 E6.71169
G1 X92.727 Y105.667 E6.71968
G0 F1080 X93.124 Y105.313
G0 F6000 X93.426 Y105.584
G1 F1200 X93.979 Y105.206 E6.7531
G1 X94.572 Y104.897 E6.78646
G1 X95.198 Y104.661 E6.81983
G1 X95.848 Y104.502 E6.85322
G1 X96.684 Y104.413 E6.89516
G1 X97.007 Y104.403 E6.91128
G1 X97.18 Y104.4 E6.91992
G1 X123.923 Y104.4 E8.25413
G1 X124.005 Y104.401 E8.25822
G1 X124.69 Y104.411 E8.2924
G1 X125.357 Y104.46 E8.32577
G1 X126.013 Y104.589 E8.35912
G1 X126.65 Y104.796 E8.39254
G1 X127.257 Y105.076 E8.42589
G1 X127.827 Y105.427 E8.45928
G1 X128.35 Y105.844 E8.49266
G1 X128.82 Y106.32 E8.52603
G1 X129.23 Y106.849 E8.55942
G1 X129.574 Y107.422 E8.59276
G1 X129.847 Y108.033 E8.62615
G1 X130.046 Y108.672 E8.65954
G1 X130.167 Y109.33 E8.69292
G1 X130.207 Y109.881 E8.72048
G1 X130.231 Y110.926 E8.77263
G1 X130.232 Y111.045 E8.77857
G1 X130.239 Y114.81 E8.9664
G1 X130.239 Y129.264 E9.68752
G1 X130.238 Y129.341 E9.69136
G1 X130.228 Y130.068 E9.72763
G1 X130.179 Y130.735 E9.761
G1 X130.051 Y131.392 E9.79439
G1 X129.845 Y132.028 E9.82774
G1 X129.565 Y132.636 E9.86114
G1 X129.214 Y133.206 E9.89454
G1 X128.798 Y133.73 E9.92792
G1 X128.323 Y134.2 E9.96125
G1 X127.794 Y134.611 E9.99468
G1 X127.221 Y134.955 E10.02802
G1 X126.61 Y135.229 E10.06143
G1 X125.972 Y135.428 E10.09477
G1 X125.314 Y135.549 E10.12815
G1 X124.786 Y135.589 E10.15456
G1 X124.466 Y135.598 E10.17054
G1 X124.309 Y135.6 E10.17837
G1 X97.557 Y135.6 E11.51303
G1 X97.477 Y135.599 E11.51702
G1 X96.776 Y135.589 E11.552
G1 X96.109 Y135.54 E11.58537
G1 X95.452 Y135.411 E11.61877
G1 X94.816 Y135.205 E11.65212
G1 X94.209 Y134.925 E11.68547
G1 X93.639 Y134.574 E11.71887
G1 X93.115 Y134.157 E11.75228
G1 X92.645 Y133.681 E11.78565
G1 X92.134 Y133.001 E11.82809
G1 X91.84 Y132.54 E11.85537
G1 X91.796 Y132.47 E11.85949
G1 X90.888 Y130.998 E11.94578
G1 X88.727 Y127.742 E12.14074
G1 X88.391 Y127.164 E12.1741
G1 X88.126 Y126.549 E12.20751
G1 X87.937 Y125.908 E12.24085
G1 X87.859 Y125.505 E12.26133
G1 X87.816 Y125.228 E12.27531
G1 X87.751 Y124.482 E12.31267
G1 X87.745 Y124.184 E12.32754
G1 X87.744 Y124.068 E12.33333
G1 X87.748 Y116.101 E12.73081
G1 X87.749 Y116.026 E12.73455
G1 X87.758 Y115.376 E12.76698
G1 X87.807 Y114.709 E12.80035
G1 X87.935 Y114.053 E12.83369
G1 X88.141 Y113.416 E12.86709
G1 X88.567 Y112.552 E12.91515
G1 X88.922 Y111.966 E12.94933
G1 X89.088 Y111.708 E12.96464
G1 X89.933 Y110.472 E13.03934
G1 X91.674 Y107.746 E13.20071
G1 X92.091 Y107.069 E13.24038
G1 X92.476 Y106.522 E13.27375
G1 X92.923 Y106.024 E13.30713
G1 X93.026 Y105.934 E13.31396
G0 F1080 X93.426 Y105.584
G0 F6000 X93.727 Y105.857
G1 F1200 X94.265 Y105.502 E13.34612
G1 X94.843 Y105.216 E13.37829
G1 X95.452 Y105.003 E13.41048
G1 X96.082 Y104.868 E13.44262
G1 X96.696 Y104.812 E13.47338
G1 X97.019 Y104.802 E13.4895
G1 X97.18 Y104.8 E13.49754
G1 X123.923 Y104.8 E14.83175
G1 X123.999 Y104.801 E14.83554
G1 X124.684 Y104.811 E14.86972
G1 X125.327 Y104.86 E14.90189
G1 X125.958 Y104.988 E14.93401
G1 X126.569 Y105.194 E14.96618
G1 X127.15 Y105.474 E14.99836
G1 X127.692 Y105.823 E15.03052
G1 X128.186 Y106.237 E15.06268
G1 X128.626 Y106.709 E15.09487
G1 X129.003 Y107.231 E15.127
G1 X129.313 Y107.796 E15.15915
G1 X129.551 Y108.396 E15.19135
G1 X129.713 Y109.02 E15.22351
G1 X129.807 Y109.891 E15.26722
G1 X129.831 Y110.936 E15.31937
G1 X129.832 Y111.045 E15.32481
G1 X129.839 Y114.81 E15.51265
G1 X129.839 Y129.336 E16.23735
G1 X129.829 Y130.063 E16.27362
G1 X129.78 Y130.705 E16.30575
G1 X129.652 Y131.337 E16.33792
G1 X129.447 Y131.948 E16.37007
G1 X129.167 Y132.529 E16.40225
G1 X128.818 Y133.071 E16.43441
G1 X128.405 Y133.566 E16.46657
G1 X127.934 Y134.006 E16.49873
G1 X127.411 Y134.384 E16.53092
G1 X126.846 Y134.694 E16.56307
G1 X126.247 Y134.933 E16.59525
G1 X125.624 Y135.095 E16.62736
G1 X124.775 Y135.189 E16.66998
G1 X124.455 Y135.198 E16.68595
G1 X124.309 Y135.2 E16.69324
G1 X97.557 Y135.2 E18.0279
G1 X97.483 Y135.199 E18.03159
G1 X96.782 Y135.189 E18.06657
G1 X96.139 Y135.14 E18.09874
G1 X95.507 Y135.012 E18.13091
G1 X94.896 Y134.807 E18.16306
G1 X94.315 Y134.527 E18.19524
G1 X93.773 Y134.178 E18.2274
G1 X93.279 Y133.764 E18.25956
G1 X92.839 Y133.293 E18.29171
G1 X92.472 Y132.786 E18.32294
G1 X92.178 Y132.325 E18.35022
G1 X92.137 Y132.26 E18.35405
G1 X91.238 Y130.803 E18.43947
G1 X89.06 Y127.521 E18.63598
G1 X88.738 Y126.963 E18.66812
G1 X88.487 Y126.369 E18.70029
G1 X88.255 Y125.444 E18.74787
G1 X88.212 Y125.167 E18.76186
G1 X88.151 Y124.474 E18.79656
G1 X88.145 Y124.176 E18.81143
G1 X88.144 Y124.068 E18.81682
G1 X88.148 Y116.101 E19.2143
G1 X88.148 Y116.032 E19.21774
G1 X88.157 Y115.382 E19.25017
G1 X88.206 Y114.739 E19.28234
G1 X88.334 Y114.107 E19.31452
G1 X88.54 Y113.496 E19.34668
G1 X88.909 Y112.76 E19.38776
G1 X89.264 Y112.174 E19.42194
G1 X89.419 Y111.934 E19.4362
G1 X90.252 Y110.715 E19.50985
G1 X92.039 Y107.916 E19.67553
G1 X92.432 Y107.279 E19.71287
G1 X92.803 Y106.753 E19.74499
G1 X93.238 Y106.276 E19.77719
G1 X93.323 Y106.203 E19.78278
G0 F1080 X93.727 Y105.857
G1 F3000 E13.78278
G1 F300 Z0.65
;MESH:newSpoolHolder.stl
G0 F6000 X94.346 Y119.15 Z0.65
;TYPE:WALL-INNER
G1 F300 Z0.3
G1 F3000 E19.78278
G1 F1200 X97.85 Y119.15 E19.9576
G1 X97.85 Y111 E20.3642
G1 X123.632 Y111 E21.65047
G1 X123.639 Y115.002 E21.85013
G1 X123.639 Y129 E22.5485
G1 X97.85 Y129 E23.83511
G1 X97.85 Y120.85 E24.24172
G1 X94.346 Y120.85 E24.41654
G1 X94.346 Y119.682 E24.47481
G0 F1080 X94.346 Y119.15
G0 F6000 X94.05 Y118.75
G1 F1200 X97.45 Y118.75 E24.64443
G1 X97.45 Y110.6 E25.05104
G1 X124.031 Y110.6 E26.37717
G1 X124.039 Y115.001 E26.59674
G1 X124.039 Y129.4 E27.31511
G1 X97.45 Y129.4 E28.64164
G1 X97.45 Y121.25 E29.04824
G1 X94.05 Y121.25 E29.21787
G1 X94.05 Y124.207 E29.36539
G1 X93.944 Y124.207 E29.37068
G1 X93.948 Y115.793 E29.79046
G1 X94.048 Y115.793 E29.79545
G1 X94.05 Y118.218 E29.91643
G0 F1080 X94.05 Y118.75
G1 F3000 E23.91643
G0 F6000 X93.98 Y118.82
G0 X93.978 Y115.863
G0 X94.429 Y115.392
;TYPE:WALL-OUTER
G1 F3000 E29.91643
G1 F1200 X94.436 Y115.411 E29.91744
G1 X94.448 Y115.471 E29.92049
G1 X94.45 Y118.35 E30.06413
G1 X97.05 Y118.35 E30.19384
G1 X97.05 Y110.2 E30.60045
G1 X124.43 Y110.2 E31.96644
G1 X124.439 Y115 E32.20592
G1 X124.439 Y129.8 E32.94429
G1 X97.05 Y129.8 E34.31073
G1 X97.05 Y121.65 E34.71734
G1 X94.45 Y121.65 E34.84705
G1 X94.45 Y124.491 E34.98879
G1 X94.444 Y124.554 E34.99195
G1 X94.428 Y124.608 E34.99476
G1 X93.669 Y124.606 E35.03262
G1 X93.6 Y124.591 E35.03615
G1 X93.554 Y124.545 E35.03939
G1 X93.544 Y124.5 E35.04169
G1 X93.548 Y115.473 E35.49205
G1 X93.558 Y115.448 E35.49339
G1 X93.575 Y115.425 E35.49482
G1 X93.6 Y115.406 E35.49639
G1 X93.622 Y115.397 E35.49757
G1 X93.664 Y115.394 E35.49968
G1 X93.897 Y115.393 E35.5113
G0 F1080 X94.429 Y115.392
G0 F6000 X94.436 Y115.411
G0 X94.448 Y115.471
G0 X94.448 Y115.79
G0 X94.007 Y115.834
G0 X94.007 Y115.893
G0 X94.022 Y118.778
G0 X94.736 Y119.54
;TYPE:SKIN
G1 F1200 X98.24 Y119.54 E35.68611
G1 X98.24 Y111.39 E36.09272
G1 X123.242 Y111.39 E37.34007
G1 X123.249 Y115.002 E37.52028
G1 X123.249 Y128.61 E38.19918
G1 X98.24 Y128.61 E39.44689
G1 X98.24 Y120.46 E39.85349
G1 X94.736 Y120.46 E40.02831
G1 X94.736 Y120.072 E40.04767
G0 F1080 X94.736 Y119.54
G0 F6000 X114.889 Y120.25
G1 F1200 X106.6 Y120.25 E40.46121
G1 X106.6 Y119.75 E40.48615
G1 X114.857 Y119.75 E40.89809
G0 F1080 X114.889 Y119.75
G0 X114.889 Y120.25
G0 F6000 X115.289 Y120.65
G1 F1200 X106.2 Y120.65 E41.35155
G1 X106.2 Y119.35 E41.4164
G1 X115.289 Y119.35 E41.86986
G1 X115.289 Y120.118 E41.90817
G0 F1080 X115.289 Y120.65
G0 F6000 X115.689 Y121.05
G1 F1200 X105.8 Y121.05 E42.40154
G1 X105.8 Y118.95 E42.50631
G1 X115.689 Y118.95 E42.99967
G1 X115.689 Y120.518 E43.0779
G0 F1080 X115.689 Y121.05
G0 F6000 X116.089 Y121.45
G1 F1200 X105.4 Y121.45 E43.61117
G1 X105.4 Y118.55 E43.75586
G1 X116.089 Y118.55 E44.28913
G1 X116.089 Y120.918 E44.40727
G0 F1080 X116.089 Y121.45
G0 F6000 X116.489 Y121.85
G1 F1200 X105 Y121.85 E44.98046
G1 X105 Y118.15 E45.16505
G1 X116.489 Y118.15 E45.73824
G1 X116.489 Y121.318 E45.89629
G0 F1080 X116.489 Y121.85
G0 F6000 X116.889 Y122.25
G1 F1200 X104.6 Y122.25 E46.5094
G1 X104.6 Y117.75 E46.7339
G1 X116.889 Y117.75 E47.347
G1 X116.889 Y121.718 E47.54497
G0 F1080 X116.889 Y122.25
G0 F6000 X117.289 Y122.65
G1 F1200 X104.2 Y122.65 E48.19798
G1 X104.2 Y117.35 E48.4624
G1 X117.289 Y117.35 E49.11541
G1 X117.289 Y122.118 E49.35329
G0 F1080 X117.289 Y122.65
G0 F6000 X117.689 Y123.05
G1 F1200 X103.8 Y123.05 E50.04621
G1 X103.8 Y116.95 E50.35054
G1 X117.689 Y116.95 E51.04347
G1 X117.689 Y122.518 E51.32126
G0 F1080 X117.689 Y123.05
G0 F6000 X118.089 Y123.45
G1 F1200 X103.4 Y123.45 E52.05409
G1 X103.4 Y116.55 E52.39834
G1 X118.089 Y116.55 E53.13117
G1 X118.089 Y122.918 E53.44887
G0 F1080 X118.089 Y123.45
G0 F6000 X118.489 Y123.85
G1 F1200 X103 Y123.85 E54.22162
G1 X103 Y116.15 E54.60578
G1 X118.489 Y116.15 E55.37853
G1 X118.489 Y123.318 E55.73614
G0 F1080 X118.489 Y123.85
G0 F6000 X118.889 Y124.25
G1 F1200 X102.6 Y124.25 E56.5488
G1 X102.6 Y115.75 E56.97287
G1 X118.889 Y115.75 E57.78553
G1 X118.889 Y123.718 E58.18305
G0 F1080 X118.889 Y124.25
G0 F6000 X119.289 Y124.65
G1 F1200 X102.2 Y124.65 E59.03563
G1 X102.2 Y115.35 E59.49961
G1 X119.289 Y115.35 E60.35218
G1 X119.289 Y124.118 E60.78962
G0 F1080 X119.289 Y124.65
G0 F6000 X119.689 Y125.05
G1 F1200 X101.8 Y125.05 E61.6821
G1 X101.8 Y114.95 E62.18599
G1 X119.689 Y114.95 E63.07848
G1 X119.689 Y124.518 E63.55583
G0 F1080 X119.689 Y125.05
G0 F6000 X120.089 Y125.45
G1 F1200 X101.4 Y125.45 E64.48823
G1 X101.4 Y114.55 E65.03203
G1 X120.088 Y114.55 E65.96438
G1 X120.089 Y115.008 E65.98723
G1 X120.089 Y124.918 E66.48164
G0 F1080 X120.089 Y125.45
G0 F6000 X120.489 Y115.008
G1 F1200 X120.489 Y125.85 E67.02255
G1 X101 Y125.85 E67.99486
G1 X101 Y114.15 E68.57858
G1 X120.488 Y114.15 E69.55084
G1 X120.489 Y114.476 E69.5671
G0 F1080 X120.489 Y115.008
G0 F6000 X120.889 Y115.007
G1 F1200 X120.889 Y126.25 E70.12802
G1 X100.6 Y126.25 E71.14024
G1 X100.6 Y113.75 E71.76387
G1 X120.887 Y113.75 E72.77599
G1 X120.889 Y114.475 E72.81216
G0 F1080 X120.889 Y115.007
G0 F6000 X121.289 Y115.006
G1 F1200 X121.289 Y126.65 E73.39308
G1 X100.2 Y126.65 E74.44522
G1 X100.2 Y113.35 E75.10875
G1 X121.286 Y113.35 E76.16074
G1 X121.289 Y114.474 E76.21682
G0 F1080 X121.289 Y115.006
G0 F6000 X121.689 Y115.005
G1 F1200 X121.689 Y127.05 E76.81774
G1 X99.8 Y127.05 E77.90979
G1 X99.8 Y112.95 E78.61324
G1 X121.685 Y112.95 E79.70509
G1 X121.688 Y114.473 E79.78107
G0 F1080 X121.689 Y115.005
G0 F6000 X122.089 Y115.004
G1 F1200 X122.089 Y127.45 E80.40201
G1 X99.4 Y127.45 E81.53396
G1 X99.4 Y112.55 E82.27733
G1 X122.084 Y112.55 E83.40904
G1 X122.088 Y114.472 E83.50493
G0 F1080 X122.089 Y115.004
G0 F6000 X122.489 Y115.003
G1 F1200 X122.489 Y127.85 E84.14587
G1 X99 Y127.85 E85.31774
G1 X99 Y112.15 E86.10101
G1 X122.483 Y112.15 E87.27259
G1 X122.488 Y114.471 E87.38838
G0 F1080 X122.489 Y115.003
G0 F6000 X122.889 Y115.002
G1 F1200 X122.889 Y128.25 E88.04933
G1 X98.6 Y128.25 E89.26111
G1 X98.6 Y120.1 E89.66771
G1 X95.096 Y120.1 E89.84253
G1 X95.096 Y119.9 E89.85251
G1 X98.6 Y119.9 E90.02732
G1 X98.6 Y111.75 E90.43393
G1 X122.882 Y111.75 E91.64536
G1 X122.888 Y114.47 E91.78106
G0 F1080 X122.889 Y115.002
G0 F6000 X114.699 Y120.073
;TYPE:SKIN
G1 F1200 X114.55 Y119.924 E91.78632
G0 F6000 X114.416 Y120.073
G1 F1200 X114.267 Y119.924 E91.79158
G0 F6000 X114.134 Y120.073
G1 F1200 X113.984 Y119.924 E91.79685
G0 F6000 X113.851 Y120.073
G1 F1200 X113.702 Y119.924 E91.80211
G0 F6000 X113.568 Y120.073
G1 F1200 X113.419 Y119.924 E91.80736
G0 F6000 X113.285 Y120.073
G1 F1200 X113.136 Y119.924 E91.81262
G0 F6000 X113.002 Y120.073
G1 F1200 X112.853 Y119.924 E91.81788
G0 F6000 X112.719 Y120.073
G1 F1200 X112.57 Y119.924 E91.82313
G0 F6000 X112.437 Y120.073
G1 F1200 X112.287 Y119.924 E91.82841
G0 F6000 X112.154 Y120.073
G1 F1200 X112.005 Y119.924 E91.83366
G0 F6000 X111.871 Y120.073
G1 F1200 X111.722 Y119.924 E91.83892
G0 F6000 X111.588 Y120.073
G1 F1200 X111.439 Y119.924 E91.84418
