;FLAVOR:Marlin
;TIME:8146
;Filament used: 6.14846m
;Layer height: 0.2
;MINX:54.4
;MINY:101.9
;MINZ:0.3
;MAXX:165.6
;MAXY:133.1
;MAXZ:30.25
;Generated with Cura_SteamEngine 4.4.1
M140 S60
M105
M190 S60
M104 S205
M105
M109 S205
M82 ;absolute extrusion mode
M201 X500.00 Y500.00 Z100.00 E5000.00 ;Setup machine max acceleration
M203 X500.00 Y500.00 Z10.00 E75.00 ;Setup machine max feedrate
M204 P500.00 R1000.00 T500.00 ;Setup Print/Retract/Travel acceleration
M205 X8.00 Y8.00 Z0.40 E5.00 ;Setup Jerk
M220 S100 ;Reset Feedrate
M221 S100 ;Reset Flowrate

G21 ; (metric values)
G90 ; (absolute positioning)
M82 ; (set extruder to absolute mode)
G28 ; (home all axis)
G29 ; (Auto Level)

G92 E0 ;Reset Extruder
G1 Z2.0 F3000 ;Move Z Axis up
G1 X1.1 Y50 Z0.28 F5000.0 ;Move to start position
G1 X1.1 Y200.0 Z0.28 F1500.0 E15 ;Draw the first line
G1 X1.4 Y200.0 Z0.28 F5000.0 ;Move to side a little
G1 X1.4 Y100 Z0.28 F1500.0 E30 ;Draw the second line
G92 E0 ;Reset Extruder
G1 Z2.0 F3000 ;Move Z Axis up
G92 E0
G92 E0
G1 F1500 E-6
;LAYER_COUNT:149
;LAYER:0
M107
G1 F300 Z0.65
G0 F6000 X57.416 Y102.545 Z0.65
;TYPE:SKIRT
G1 F300 Z0.3
G1 F1500 E0
G1 F1200 X58.027 Y102.272 E0.03339
G1 X58.665 Y102.073 E0.06673
G1 X59.323 Y101.951 E0.10012
G1 X59.852 Y101.911 E0.12658
G1 X60.173 Y101.902 E0.14261
G1 X60.33 Y101.9 E0.15044
G1 X159.293 Y101.9 E5.08772
G1 X159.373 Y101.901 E5.09171
G1 X160.071 Y101.911 E5.12654
G1 X160.738 Y101.96 E5.15991
G1 X161.395 Y102.089 E5.19331
G1 X162.031 Y102.295 E5.22666
G1 X162.639 Y102.576 E5.26008
G1 X163.208 Y102.926 E5.29341
G1 X163.732 Y103.343 E5.32682
G1 X164.202 Y103.819 E5.36019
G1 X164.612 Y104.347 E5.39354
G1 X164.957 Y104.921 E5.42696
G1 X165.23 Y105.532 E5.46034
G1 X165.428 Y106.171 E5.49372
G1 X165.549 Y106.829 E5.5271
G1 X165.589 Y107.353 E5.55331
G1 X165.598 Y107.673 E5.56929
G1 X165.6 Y107.83 E5.57712
G1 X165.6 Y126.833 E6.52518
G1 X165.591 Y127.56 E6.56146
G1 X165.542 Y128.228 E6.59487
G1 X165.415 Y128.884 E6.62821
G1 X165.21 Y129.521 E6.66159
G1 X164.931 Y130.129 E6.69497
G1 X164.581 Y130.699 E6.72834
G1 X164.165 Y131.224 E6.76176
G1 X163.69 Y131.695 E6.79513
G1 X163.163 Y132.106 E6.82847
G1 X162.59 Y132.452 E6.86187
G1 X161.98 Y132.726 E6.89523
G1 X161.341 Y132.926 E6.92863
G1 X160.683 Y133.048 E6.96202
G1 X160.148 Y133.089 E6.98879
G1 X159.827 Y133.098 E7.00481
G1 X159.67 Y133.1 E7.01264
G1 X60.635 Y133.1 E11.95352
G1 X59.937 Y133.091 E11.98835
G1 X59.27 Y133.042 E12.02171
G1 X58.613 Y132.914 E12.05511
G1 X57.976 Y132.709 E12.08849
G1 X57.368 Y132.429 E12.12189
G1 X56.798 Y132.079 E12.15526
G1 X56.274 Y131.663 E12.18864
G1 X55.803 Y131.188 E12.22201
G1 X55.392 Y130.66 E12.25539
G1 X55.047 Y130.087 E12.28876
G1 X54.773 Y129.477 E12.32212
G1 X54.573 Y128.838 E12.35553
G1 X54.452 Y128.18 E12.38891
G1 X54.411 Y127.642 E12.41583
G1 X54.402 Y127.309 E12.43244
G1 X54.4 Y127.158 E12.43998
G1 X54.4 Y108.174 E13.38709
G1 X54.401 Y108.098 E13.39089
G1 X54.41 Y107.433 E13.42407
G1 X54.459 Y106.766 E13.45743
G1 X54.587 Y106.109 E13.49083
G1 X54.792 Y105.473 E13.52416
G1 X55.072 Y104.865 E13.55756
G1 X55.423 Y104.295 E13.59096
G1 X55.839 Y103.771 E13.62434
G1 X56.314 Y103.301 E13.65767
G1 X56.843 Y102.89 E13.6911
G1 X56.96 Y102.819 E13.69792
G0 F1080 X57.416 Y102.545
G0 F6000 X57.79 Y102.806
G1 F1200 X58.389 Y102.568 E13.73008
G1 X59.013 Y102.405 E13.76226
G1 X59.863 Y102.311 E13.80492
G1 X60.184 Y102.302 E13.82094
G1 X60.33 Y102.3 E13.82823
G1 X159.293 Y102.3 E18.76551
G1 X159.367 Y102.301 E18.7692
G1 X160.065 Y102.311 E18.80403
G1 X160.708 Y102.36 E18.8362
G1 X161.34 Y102.488 E18.86837
G1 X161.951 Y102.694 E18.90054
G1 X162.532 Y102.973 E18.9327
G1 X163.074 Y103.322 E18.96486
G1 X163.568 Y103.736 E18.99701
G1 X164.008 Y104.208 E19.02921
G1 X164.386 Y104.73 E19.06136
G1 X164.696 Y105.295 E19.09351
G1 X164.934 Y105.894 E19.12567
G1 X165.096 Y106.518 E19.15783
G1 X165.189 Y107.364 E19.2003
G1 X165.198 Y107.684 E19.21627
G1 X165.2 Y107.83 E19.22355
G1 X165.2 Y126.828 E20.17137
G1 X165.191 Y127.555 E20.20764
G1 X165.143 Y128.198 E20.23981
G1 X165.016 Y128.83 E20.27197
G1 X164.811 Y129.442 E20.30417
G1 X164.533 Y130.023 E20.3363
G1 X164.185 Y130.566 E20.36848
G1 X163.772 Y131.061 E20.40064
G1 X163.301 Y131.501 E20.4328
G1 X162.779 Y131.88 E20.46498
G1 X162.215 Y132.191 E20.49711
G1 X161.616 Y132.43 E20.52929
G1 X160.993 Y132.594 E20.56143
G1 X160.137 Y132.689 E20.6044
G1 X159.816 Y132.698 E20.62042
G1 X159.67 Y132.7 E20.6277
G1 X60.64 Y132.7 E25.56833
G1 X59.942 Y132.691 E25.60316
G1 X59.299 Y132.642 E25.63533
G1 X58.667 Y132.515 E25.66749
G1 X58.056 Y132.31 E25.69964
G1 X57.475 Y132.032 E25.73177
G1 X56.932 Y131.683 E25.76398
G1 X56.437 Y131.27 E25.79614
G1 X55.997 Y130.799 E25.8283
G1 X55.618 Y130.277 E25.86048
G1 X55.307 Y129.713 E25.89261
G1 X55.069 Y129.114 E25.92477
G1 X54.906 Y128.49 E25.95695
G1 X54.811 Y127.631 E26.00006
G1 X54.802 Y127.298 E26.01668
G1 X54.8 Y127.158 E26.02367
G1 X54.8 Y108.104 E26.97428
G1 X54.809 Y107.439 E27.00746
G1 X54.858 Y106.796 E27.03963
G1 X54.986 Y106.164 E27.0718
G1 X55.191 Y105.553 E27.10395
G1 X55.47 Y104.972 E27.13611
G1 X55.819 Y104.429 E27.16831
G1 X56.232 Y103.935 E27.20043
G1 X56.703 Y103.495 E27.23259
G1 X57.226 Y103.117 E27.26478
G1 X57.325 Y103.062 E27.27043
G0 F1080 X57.79 Y102.806
G1 F1500 E21.27043
G1 F300 Z0.65
;MESH:my_ptfe_cutter.stl
G0 F6000 X159 Y126.5 Z0.65
;TYPE:WALL-INNER
G1 F300 Z0.3
G1 F1500 E27.27043
G1 F1200 X61 Y126.5 E32.15967
G1 X61 Y108.5 E33.0577
G1 X159 Y108.5 E37.94694
G1 X159 Y125.968 E38.81842
G0 F1080 X159 Y126.5
G0 F6000 X159.4 Y126.9
G1 F1200 X60.6 Y126.9 E43.74757
G1 X60.6 Y108.1 E44.68551
G1 X159.4 Y108.1 E49.61466
G1 X159.4 Y126.368 E50.52605
G0 F1080 X159.4 Y126.9
G0 F6000 X159.8 Y127.3
;TYPE:WALL-OUTER
G1 F1200 X60.2 Y127.3 E55.49512
G1 X60.2 Y107.7 E56.47297
G1 X159.8 Y107.7 E61.44203
G1 X159.8 Y126.768 E62.39334
G0 F1080 X159.8 Y127.3
G0 F6000 X159.4 Y127.3
G0 X159.36 Y126.86
G0 X158.61 Y126.11
;TYPE:SKIN
G1 F1200 X61.39 Y126.11 E67.24366
G1 X61.39 Y108.89 E68.10277
G1 X158.61 Y108.89 E72.9531
G1 X158.61 Y125.578 E73.78567
G0 F1080 X158.61 Y126.11
G1 F1500 E67.78567
G1 F300 Z0.65
G0 F6000 X158.449 Y109.235 Z0.65
G1 F300 Z0.3
G1 F1500 E73.78567
G1 F1200 X158.264 Y109.05 E73.79872
G0 F6000 X157.698 Y109.05
G1 F1200 X158.449 Y109.8 E73.85167
G0 F6000 X158.449 Y110.366
G1 F1200 X157.133 Y109.05 E73.94452
G0 F6000 X156.567 Y109.05
G1 F1200 X158.449 Y110.932 E74.07731
G0 F6000 X158.449 Y111.498
G1 F1200 X156.001 Y109.05 E74.25003
G0 F6000 X155.436 Y109.05
G1 F1200 X158.449 Y112.063 E74.46261
G0 F6000 X158.449 Y112.629
G1 F1200 X154.87 Y109.05 E74.71513
G0 F6000 X154.304 Y109.05
G1 F1200 X158.449 Y113.195 E75.00758
G0 F6000 X158.449 Y113.76
G1 F1200 X153.739 Y109.05 E75.33989
G0 F6000 X153.173 Y109.05
G1 F1200 X158.449 Y114.326 E75.71215
G0 F6000 X158.449 Y114.892
G1 F1200 X152.607 Y109.05 E76.12433
G0 F6000 X152.042 Y109.05
G1 F1200 X158.449 Y115.457 E76.57638
G0 F6000 X158.449 Y116.023
G1 F1200 X151.476 Y109.05 E77.06836
G0 F6000 X150.91 Y109.05
G1 F1200 X158.449 Y116.589 E77.60028
G0 F6000 X158.449 Y117.154
G1 F1200 X150.345 Y109.05 E78.17206
G0 F6000 X149.779 Y109.05
G1 F1200 X158.449 Y117.72 E78.78377
G0 F6000 X158.449 Y118.286
G1 F1200 X149.213 Y109.05 E79.43542
G0 F6000 X148.647 Y109.05
G1 F1200 X158.449 Y118.851 E80.12697
G0 F6000 X158.449 Y119.417
G1 F1200 X148.082 Y109.05 E80.85842
G0 F6000 X147.516 Y109.05
G1 F1200 X158.449 Y119.983 E81.6298
G0 F6000 X158.449 Y120.548
G1 F1200 X146.95 Y109.05 E82.44108
G0 F6000 X146.385 Y109.05
G1 F1200 X158.449 Y121.114 E83.29226
G0 F6000 X158.449 Y121.68
G1 F1200 X145.819 Y109.05 E84.18338
G0 F6000 X145.253 Y109.05
G1 F1200 X158.449 Y122.246 E85.11443
G0 F6000 X158.449 Y122.811
G1 F1200 X144.688 Y109.05 E86.08534
G0 F6000 X144.122 Y109.05
G1 F1200 X158.449 Y123.377 E87.09619
G0 F6000 X158.449 Y123.943
G1 F1200 X143.556 Y109.05 E88.14697
G0 F6000 X142.991 Y109.05
G1 F1200 X158.449 Y124.508 E89.23762
G0 F6000 X158.449 Y125.074
G1 F1200 X142.425 Y109.05 E90.3682
G0 F6000 X141.859 Y109.05
G1 F1200 X158.449 Y125.64 E91.53871
G0 F6000 X158.193 Y125.949
G1 F1200 X141.294 Y109.05 E92.73103
G0 F6000 X140.728 Y109.05
G1 F1200 X157.628 Y125.949 E93.92338
G0 F6000 X157.062 Y125.949
G1 F1200 X140.162 Y109.05 E95.11573
G0 F6000 X139.597 Y109.05
G1 F1200 X156.496 Y125.949 E96.30804
G0 F6000 X155.931 Y125.949
G1 F1200 X139.031 Y109.05 E97.50039
G0 F6000 X138.465 Y109.05
G1 F1200 X155.365 Y125.949 E98.69274
G0 F6000 X154.799 Y125.949
G1 F1200 X137.899 Y109.05 E99.8851
G0 F6000 X137.334 Y109.05
G1 F1200 X154.234 Y125.949 E101.07745
G0 F6000 X153.668 Y125.949
G1 F1200 X136.768 Y109.05 E102.2698
G0 F6000 X136.202 Y109.05
G1 F1200 X153.102 Y125.949 E103.46215
G0 F6000 X152.537 Y125.949
G1 F1200 X135.637 Y109.05 E104.6545
G0 F6000 X135.071 Y109.05
G1 F1200 X151.971 Y125.949 E105.84685
G0 F6000 X151.405 Y125.949
G1 F1200 X134.505 Y109.05 E107.0392
G0 F6000 X133.94 Y109.05
G1 F1200 X150.84 Y125.949 E108.23155
G0 F6000 X150.274 Y125.949
G1 F1200 X133.374 Y109.05 E109.4239
G0 F6000 X132.808 Y109.05
G1 F1200 X149.708 Y125.949 E110.61625
G0 F6000 X149.142 Y125.949
G1 F1200 X132.243 Y109.05 E111.80857
G0 F6000 X131.677 Y109.05
G1 F1200 X148.577 Y125.949 E113.00092
G0 F6000 X148.011 Y125.949
G1 F1200 X131.111 Y109.05 E114.19327
G0 F6000 X130.546 Y109.05
G1 F1200 X147.445 Y125.949 E115.38559
G0 F6000 X146.88 Y125.949
G1 F1200 X129.98 Y109.05 E116.57794
G0 F6000 X129.414 Y109.05
G1 F1200 X146.314 Y125.949 E117.77029
G0 F6000 X145.748 Y125.949
G1 F1200 X128.848 Y109.05 E118.96264
G0 F6000 X128.283 Y109.05
G1 F1200 X145.183 Y125.949 E120.15499
G0 F6000 X144.617 Y125.949
G1 F1200 X127.717 Y109.05 E121.34734
G0 F6000 X127.151 Y109.05
G1 F1200 X144.051 Y125.949 E122.53969
G0 F6000 X143.486 Y125.949
G1 F1200 X126.586 Y109.05 E123.73205
G0 F6000 X126.02 Y109.05
G1 F1200 X142.92 Y125.949 E124.9244
G0 F6000 X142.354 Y125.949
G1 F1200 X125.454 Y109.05 E126.11675
G0 F6000 X124.889 Y109.05
G1 F1200 X141.789 Y125.949 E127.3091
G0 F6000 X141.223 Y125.949
G1 F1200 X124.323 Y109.05 E128.50145
G0 F6000 X123.757 Y109.05
G1 F1200 X140.657 Y125.949 E129.6938
G0 F6000 X140.091 Y125.949
G1 F1200 X123.192 Y109.05 E130.88612
G0 F6000 X122.626 Y109.05
G1 F1200 X139.526 Y125.949 E132.07847
G0 F6000 X138.96 Y125.949
G1 F1200 X122.06 Y109.05 E133.27082
G0 F6000 X121.495 Y109.05
G1 F1200 X138.394 Y125.949 E134.46313
G0 F6000 X137.829 Y125.949
G1 F1200 X120.929 Y109.05 E135.65548
G0 F6000 X120.363 Y109.05
G1 F1200 X137.263 Y125.949 E136.84784
G0 F6000 X136.697 Y125.949
G1 F1200 X119.798 Y109.05 E138.04015
G0 F6000 X119.232 Y109.05
G1 F1200 X136.132 Y125.949 E139.2325
G0 F6000 X135.566 Y125.949
G1 F1200 X118.666 Y109.05 E140.42485
G0 F6000 X118.1 Y109.05
G1 F1200 X135 Y125.949 E141.6172
G0 F6000 X134.435 Y125.949
G1 F1200 X117.535 Y109.05 E142.80956
G0 F6000 X116.969 Y109.05
G1 F1200 X133.869 Y125.949 E144.00191
G0 F6000 X133.303 Y125.949
G1 F1200 X116.403 Y109.05 E145.19426
G0 F6000 X115.838 Y109.05
G1 F1200 X132.738 Y125.949 E146.38661
G0 F6000 X132.172 Y125.949
G1 F1200 X115.272 Y109.05 E147.57896
G0 F6000 X114.706 Y109.05
G1 F1200 X131.606 Y125.949 E148.77131
G0 F6000 X131.041 Y125.949
G1 F1200 X114.141 Y109.05 E149.96366
G0 F6000 X113.575 Y109.05
G1 F1200 X130.475 Y125.949 E151.15601
G0 F6000 X129.909 Y125.949
G1 F1200 X113.009 Y109.05 E152.34836
G0 F6000 X112.444 Y109.05
G1 F1200 X129.343 Y125.949 E153.54068
G0 F6000 X128.778 Y125.949
G1 F1200 X111.878 Y109.05 E154.73303
G0 F6000 X111.312 Y109.05
G1 F1200 X128.212 Y125.949 E155.92538
G0 F6000 X127.646 Y125.949
G1 F1200 X110.747 Y109.05 E157.1177
G0 F6000 X110.181 Y109.05
G1 F1200 X127.081 Y125.949 E158.31005
G0 F6000 X126.515 Y125.949
G1 F1200 X109.615 Y109.05 E159.5024
G0 F6000 X109.05 Y109.05
G1 F1200 X125.949 Y125.949 E160.69471
G0 F6000 X125.384 Y125.949
G1 F1200 X108.484 Y109.05 E161.88707
G0 F6000 X107.918 Y109.05
G1 F1200 X124.818 Y125.949 E163.07942
G0 F6000 X124.252 Y125.949
G1 F1200 X107.352 Y109.05 E164.27177
G0 F6000 X106.787 Y109.05
G1 F1200 X123.687 Y125.949 E165.46412
G0 F6000 X123.121 Y125.949
G1 F1200 X106.221 Y109.05 E166.65647
G0 F6000 X105.655 Y109.05
G1 F1200 X122.555 Y125.949 E167.84882
G0 F6000 X121.99 Y125.949
G1 F1200 X105.09 Y109.05 E169.04117
G0 F6000 X104.524 Y109.05
G1 F1200 X121.424 Y125.949 E170.23352
G0 F6000 X120.858 Y125.949
G1 F1200 X103.958 Y109.05 E171.42587
G0 F6000 X103.393 Y109.05
G1 F1200 X120.293 Y125.949 E172.61822
G0 F6000 X119.727 Y125.949
G1 F1200 X102.827 Y109.05 E173.81058
G0 F6000 X102.261 Y109.05
G1 F1200 X119.161 Y125.949 E175.00293
G0 F6000 X118.595 Y125.949
G1 F1200 X101.696 Y109.05 E176.19524
G0 F6000 X101.13 Y109.05
G1 F1200 X118.03 Y125.949 E177.38759
G0 F6000 X117.464 Y125.949
G1 F1200 X100.564 Y109.05 E178.57994
G0 F6000 X99.999 Y109.05
G1 F1200 X116.898 Y125.949 E179.77226
G0 F6000 X116.333 Y125.949
G1 F1200 X99.433 Y109.05 E180.96461
G0 F6000 X98.867 Y109.05
G1 F1200 X115.767 Y125.949 E182.15696
G0 F6000 X115.201 Y125.949
G1 F1200 X98.301 Y109.05 E183.34931
G0 F6000 X97.736 Y109.05
G1 F1200 X114.636 Y125.949 E184.54166
G0 F6000 X114.07 Y125.949
G1 F1200 X97.17 Y109.05 E185.73402
G0 F6000 X96.604 Y109.05
G1 F1200 X113.504 Y125.949 E186.92637
G0 F6000 X112.939 Y125.949
G1 F1200 X96.039 Y109.05 E188.11872
G0 F6000 X95.473 Y109.05
G1 F1200 X112.373 Y125.949 E189.31107
G0 F6000 X111.807 Y125.949
G1 F1200 X94.907 Y109.05 E190.50342
G0 F6000 X94.342 Y109.05
G1 F1200 X111.242 Y125.949 E191.69577
G0 F6000 X110.676 Y125.949
G1 F1200 X93.776 Y109.05 E192.88812
G0 F6000 X93.21 Y109.05
G1 F1200 X110.11 Y125.949 E194.08047
G0 F6000 X109.544 Y125.949
G1 F1200 X92.645 Y109.05 E195.27279
G0 F6000 X92.079 Y109.05
G1 F1200 X108.978 Y125.949 E196.4651
G0 F6000 X108.412 Y125.949
G1 F1200 X91.513 Y109.05 E197.65742
G0 F6000 X90.948 Y109.05
G1 F1200 X107.847 Y125.949 E198.84973
G0 F6000 X107.281 Y125.949
G1 F1200 X90.382 Y109.05 E200.04205
G0 F6000 X89.816 Y109.05
G1 F1200 X106.715 Y125.949 E201.23437
G0 F6000 X106.15 Y125.949
G1 F1200 X89.251 Y109.05 E202.42668
G0 F6000 X88.685 Y109.05
G1 F1200 X105.584 Y125.949 E203.619
G0 F6000 X105.018 Y125.949
G1 F1200 X88.119 Y109.05 E204.81131
G0 F6000 X87.553 Y109.05
G1 F1200 X104.453 Y125.949 E206.00366
G0 F6000 X103.887 Y125.949
G1 F1200 X86.988 Y109.05 E207.19598
G0 F6000 X86.422 Y109.05
G1 F1200 X103.321 Y125.949 E208.3883
G0 F6000 X102.756 Y125.949
G1 F1200 X85.856 Y109.05 E209.58065
G0 F6000 X85.291 Y109.05
G1 F1200 X102.19 Y125.949 E210.77296
G0 F6000 X101.624 Y125.949
G1 F1200 X84.725 Y109.05 E211.96528
G0 F6000 X84.159 Y109.05
G1 F1200 X101.058 Y125.949 E213.15759
G0 F6000 X100.493 Y125.949
G1 F1200 X83.594 Y109.05 E214.34991
G0 F6000 X83.028 Y109.05
G1 F1200 X99.927 Y125.949 E215.54223
G0 F6000 X99.361 Y125.949
G1 F1200 X82.462 Y109.05 E216.73454
G0 F6000 X81.897 Y109.05
G1 F1200 X98.796 Y125.949 E217.92686
G0 F6000 X98.23 Y125.949
G1 F1200 X81.331 Y109.05 E219.11917
G0 F6000 X80.765 Y109.05
G1 F1200 X97.664 Y125.949 E220.31149
G0 F6000 X97.099 Y125.949
G1 F1200 X80.2 Y109.05 E221.5038
G0 F6000 X79.634 Y109.05
G1 F1200 X96.533 Y125.949 E222.69612
G0 F6000 X95.967 Y125.949
G1 F1200 X79.068 Y109.05 E223.88844
G0 F6000 X78.502 Y109.05
G1 F1200 X95.402 Y125.949 E225.08079
G0 F6000 X94.836 Y125.949
G1 F1200 X77.937 Y109.05 E226.2731
G0 F6000 X77.371 Y109.05
G1 F1200 X94.27 Y125.949 E227.46542
G0 F6000 X93.705 Y125.949
G1 F1200 X76.805 Y109.05 E228.65777
G0 F6000 X76.24 Y109.05
G1 F1200 X93.139 Y125.949 E229.85008
G0 F6000 X92.573 Y125.949
G1 F1200 X75.674 Y109.05 E231.0424
G0 F6000 X75.108 Y109.05
G1 F1200 X92.008 Y125.949 E232.23475
G0 F6000 X91.442 Y125.949
